plugin/runtime/presets/luts/cool-clear/cool-clear.cube
# akari-video catalog LUT: cool-clear
LUT_3D_SIZE 33
0.000000 0.000000 0.012300
0.000000 0.000000 0.012300
0.025279 0.000168 0.012470
0.057153 0.000379 0.012684
0.089028 0.000590 0.012898
0.120902 0.000802 0.013112
0.152776 0.001013 0.013326
0.184650 0.001225 0.013540
0.216524 0.001436 0.013754
0.248399 0.001647 0.013968
0.280273 0.001859 0.014182
0.312147 0.002070 0.014396
0.344021 0.002281 0.014610
0.375895 0.002493 0.014825
0.407770 0.002704 0.015039
0.439644 0.002916 0.015253
0.471518 0.003127 0.015467
0.503392 0.003338 0.015681
0.535267 0.003550 0.015895
0.567141 0.003761 0.016109
0.599015 0.003973 0.016323
0.630889 0.004184 0.016537
0.662763 0.004395 0.016751
0.694638 0.004607 0.016965
0.726512 0.004818 0.017179
0.758386 0.005029 0.017393
0.790260 0.005241 0.017607
0.822134 0.005452 0.017821
0.854009 0.005664 0.018036
0.885883 0.005875 0.018250
0.917757 0.006086 0.018464
0.949631 0.006298 0.018678
0.961732 0.006378 0.018759
0.000000 0.000000 0.012300
0.000000 0.000000 0.012300
0.025279 0.000168 0.012470
0.057153 0.000379 0.012684
0.089028 0.000590 0.012898
0.120902 0.000802 0.013112
0.152776 0.001013 0.013326
0.184650 0.001225 0.013540
0.216524 0.001436 0.013754
0.248399 0.001647 0.013968
0.280273 0.001859 0.014182
0.312147 0.002070 0.014396
0.344021 0.002281 0.014610
0.375895 0.002493 0.014825
0.407770 0.002704 0.015039
0.439644 0.002916 0.015253
0.471518 0.003127 0.015467
0.503392 0.003338 0.015681
0.535267 0.003550 0.015895
0.567141 0.003761 0.016109
0.599015 0.003973 0.016323
0.630889 0.004184 0.016537
0.662763 0.004395 0.016751
0.694638 0.004607 0.016965
0.726512 0.004818 0.017179
0.758386 0.005029 0.017393
0.790260 0.005241 0.017607
0.822134 0.005452 0.017821
0.854009 0.005664 0.018036
0.885883 0.005875 0.018250
0.917757 0.006086 0.018464
0.949631 0.006298 0.018678
0.961732 0.006378 0.018759
0.000581 0.027265 0.012898
0.000581 0.027265 0.012898
0.025860 0.027433 0.013067
0.057735 0.027644 0.013281
0.089609 0.027855 0.013495
0.121483 0.028067 0.013710
0.153357 0.028278 0.013924
0.185231 0.028490 0.014138
0.217106 0.028701 0.014352
0.248980 0.028912 0.014566
0.280854 0.029124 0.014780
0.312728 0.029335 0.014994
0.344602 0.029547 0.015208
0.376477 0.029758 0.015422
0.408351 0.029969 0.015636
0.440225 0.030181 0.015850
0.472099 0.030392 0.016064
0.503974 0.030603 0.016278
0.535848 0.030815 0.016492
0.567722 0.031026 0.016706
0.599596 0.031238 0.016921
0.631470 0.031449 0.017135
0.663345 0.031660 0.017349
0.695219 0.031872 0.017563
0.727093 0.032083 0.017777
0.758967 0.032294 0.017991
0.790841 0.032506 0.018205
0.822716 0.032717 0.018419
0.854590 0.032929 0.018633
0.886464 0.033140 0.018847
0.918338 0.033351 0.019061
0.950213 0.033563 0.019275
0.962314 0.033643 0.019357
0.001294 0.060727 0.013631
0.001294 0.060727 0.013631
0.026574 0.060894 0.013801
0.058448 0.061106 0.014015
0.090322 0.061317 0.014229
0.122196 0.061528 0.014443
0.154070 0.061740 0.014657
0.185945 0.061951 0.014871
0.217819 0.062163 0.015085
0.249693 0.062374 0.015299
0.281567 0.062585 0.015513
0.313442 0.062797 0.015727
0.345316 0.063008 0.015941
0.377190 0.063220 0.016155
0.409064 0.063431 0.016369
0.440938 0.063642 0.016584
0.472813 0.063854 0.016798
0.504687 0.064065 0.017012
0.536561 0.064276 0.017226
0.568435 0.064488 0.017440
0.600309 0.064699 0.017654
0.632184 0.064911 0.017868
0.664058 0.065122 0.018082
0.695932 0.065333 0.018296
0.727806 0.065545 0.018510
0.759681 0.065756 0.018724
0.791555 0.065968 0.018938
0.823429 0.066179 0.019152
0.855303 0.066390 0.019366
0.887177 0.066602 0.019580
0.919052 0.066813 0.019795
0.950926 0.067024 0.020009
0.963027 0.067105 0.020090
0.002008 0.094188 0.014364
0.002008 0.094188 0.014364
0.027287 0.094356 0.014534
0.059161 0.094567 0.014748
0.091035 0.094779 0.014962
0.122910 0.094990 0.015176
0.154784 0.095201 0.015390
0.186658 0.095413 0.015604
0.218532 0.095624 0.015818
0.250406 0.095836 0.016032
0.282281 0.096047 0.016247
0.314155 0.096258 0.016461
0.346029 0.096470 0.016675
0.377903 0.096681 0.016889
0.409777 0.096893 0.017103
0.441652 0.097104 0.017317
0.473526 0.097315 0.017531
0.505400 0.097527 0.017745
0.537274 0.097738 0.017959
0.569149 0.097949 0.018173
0.601023 0.098161 0.018387
0.632897 0.098372 0.018601
0.664771 0.098584 0.018815
0.696645 0.098795 0.019029
0.728520 0.099006 0.019243
0.760394 0.099218 0.019458
0.792268 0.099429 0.019672
0.824142 0.099641 0.019886
0.856016 0.099852 0.020100
0.887891 0.100063 0.020314
0.919765 0.100275 0.020528
0.951639 0.100486 0.020742
0.963740 0.100566 0.020823
0.002721 0.127650 0.015098
0.002721 0.127650 0.015098
0.028000 0.127818 0.015267
0.059874 0.128029 0.015481
0.091749 0.128240 0.015695
0.123623 0.128452 0.015910
0.155497 0.128663 0.016124
0.187371 0.128875 0.016338
0.219245 0.129086 0.016552
0.251120 0.129297 0.016766
0.282994 0.129509 0.016980
0.314868 0.129720 0.017194
0.346742 0.129931 0.017408
0.378617 0.130143 0.017622
0.410491 0.130354 0.017836
0.442365 0.130566 0.018050
0.474239 0.130777 0.018264
0.506113 0.130988 0.018478
0.537988 0.131200 0.018692
0.569862 0.131411 0.018906
0.601736 0.131622 0.019121
0.633610 0.131834 0.019335
0.665484 0.132045 0.019549
0.697359 0.132257 0.019763
0.729233 0.132468 0.019977
0.761107 0.132679 0.020191
0.792981 0.132891 0.020405
0.824856 0.133102 0.020619
0.856730 0.133314 0.020833
0.888604 0.133525 0.021047
0.920478 0.133736 0.021261
0.952352 0.133948 0.021475
0.964453 0.134028 0.021557
0.003434 0.161112 0.015831
0.003434 0.161112 0.015831
0.028713 0.161279 0.016001
0.060588 0.161491 0.016215
0.092462 0.161702 0.016429
0.124336 0.161913 0.016643
0.156210 0.162125 0.016857
0.188085 0.162336 0.017071
0.219959 0.162548 0.017285
0.251833 0.162759 0.017499
0.283707 0.162970 0.017713
0.315581 0.163182 0.017927
0.347456 0.163393 0.018141
0.379330 0.163604 0.018355
0.411204 0.163816 0.018569
0.443078 0.164027 0.018784
0.474952 0.164239 0.018998
0.506827 0.164450 0.019212
0.538701 0.164661 0.019426
0.570575 0.164873 0.019640
0.602449 0.165084 0.019854
0.634323 0.165296 0.020068
0.666198 0.165507 0.020282
0.698072 0.165718 0.020496
0.729946 0.165930 0.020710
0.761820 0.166141 0.020924
0.793695 0.166352 0.021138
0.825569 0.166564 0.021352
0.857443 0.166775 0.021566
0.889317 0.166987 0.021780
0.921191 0.167198 0.021995
0.953066 0.167409 0.022209
0.965167 0.167490 0.022290
0.004148 0.194573 0.016564
0.004148 0.194573 0.016564
0.029427 0.194741 0.016734
0.061301 0.194952 0.016948
0.093175 0.195164 0.017162
0.125049 0.195375 0.017376
0.156924 0.195586 0.017590
0.188798 0.195798 0.017804
0.220672 0.196009 0.018018
0.252546 0.196221 0.018232
0.284420 0.196432 0.018447
0.316295 0.196643 0.018661
0.348169 0.196855 0.018875
0.380043 0.197066 0.019089
0.411917 0.197277 0.019303
0.443791 0.197489 0.019517
0.475666 0.197700 0.019731
0.507540 0.197912 0.019945
0.539414 0.198123 0.020159
0.571288 0.198334 0.020373
0.603163 0.198546 0.020587
0.635037 0.198757 0.020801
0.666911 0.198969 0.021015
0.698785 0.199180 0.021229
0.730659 0.199391 0.021443
0.762534 0.199603 0.021658
0.794408 0.199814 0.021872
0.826282 0.200025 0.022086
0.858156 0.200237 0.022300
0.890030 0.200448 0.022514
0.921905 0.200660 0.022728
0.953779 0.200871 0.022942
0.965880 0.200951 0.023023
0.004861 0.228035 0.017298
0.004861 0.228035 0.017298
0.030140 0.228203 0.017467
0.062014 0.228414 0.017681
0.093888 0.228625 0.017895
0.125763 0.228837 0.018110
0.157637 0.229048 0.018324
0.189511 0.229259 0.018538
0.221385 0.229471 0.018752
0.253259 0.229682 0.018966
0.285134 0.229894 0.019180
0.317008 0.230105 0.019394
0.348882 0.230316 0.019608
0.380756 0.230528 0.019822
0.412631 0.230739 0.020036
0.444505 0.230951 0.020250
0.476379 0.231162 0.020464
0.508253 0.231373 0.020678
0.540127 0.231585 0.020892
0.572002 0.231796 0.021106
0.603876 0.232007 0.021321
0.635750 0.232219 0.021535
0.667624 0.232430 0.021749
0.699498 0.232642 0.021963
0.731373 0.232853 0.022177
0.763247 0.233064 0.022391
0.795121 0.233276 0.022605
0.826995 0.233487 0.022819
0.858870 0.233698 0.023033
0.890744 0.233910 0.023247
0.922618 0.234121 0.023461
0.954492 0.234333 0.023675
0.966593 0.234413 0.023757
0.005574 0.261497 0.018031
0.005574 0.261497 0.018031
0.030853 0.261664 0.018201
0.062727 0.261876 0.018415
0.094602 0.262087 0.018629
0.126476 0.262298 0.018843
0.158350 0.262510 0.019057
0.190224 0.262721 0.019271
0.222099 0.262932 0.019485
0.253973 0.263144 0.019699
0.285847 0.263355 0.019913
0.317721 0.263567 0.020127
0.349595 0.263778 0.020341
0.381470 0.263989 0.020555
0.413344 0.264201 0.020769
0.445218 0.264412 0.020984
0.477092 0.264624 0.021198
0.508966 0.264835 0.021412
0.540841 0.265046 0.021626
0.572715 0.265258 0.021840
0.604589 0.265469 0.022054
0.636463 0.265680 0.022268
0.668338 0.265892 0.022482
0.700212 0.266103 0.022696
0.732086 0.266315 0.022910
0.763960 0.266526 0.023124
0.795834 0.266737 0.023338
0.827709 0.266949 0.023552
0.859583 0.267160 0.023766
0.891457 0.267372 0.023980
0.923331 0.267583 0.024195
0.955205 0.267794 0.024409
0.967306 0.267875 0.024490
0.006287 0.294958 0.018764
0.006287 0.294958 0.018764
0.031567 0.295126 0.018934
0.063441 0.295337 0.019148
0.095315 0.295549 0.019362
0.127189 0.295760 0.019576
0.159063 0.295971 0.019790
0.190938 0.296183 0.020004
0.222812 0.296394 0.020218
0.254686 0.296605 0.020432
0.286560 0.296817 0.020647
0.318434 0.297028 0.020861
0.350309 0.297240 0.021075
0.382183 0.297451 0.021289
0.414057 0.297662 0.021503
0.445931 0.297874 0.021717
0.477806 0.298085 0.021931
0.509680 0.298297 0.022145
0.541554 0.298508 0.022359
0.573428 0.298719 0.022573
0.605302 0.298931 0.022787
0.637177 0.299142 0.023001
0.669051 0.299353 0.023215
0.700925 0.299565 0.023429
0.732799 0.299776 0.023643
0.764673 0.299988 0.023858
0.796548 0.300199 0.024072
0.828422 0.300410 0.024286
0.860296 0.300622 0.024500
0.892170 0.300833 0.024714
0.924045 0.301045 0.024928
0.955919 0.301256 0.025142
0.968020 0.301336 0.025223
0.007001 0.328420 0.019498
0.007001 0.328420 0.019498
0.032280 0.328587 0.019667
0.064154 0.328799 0.019881
0.096028 0.329010 0.020095
0.127902 0.329222 0.020310
0.159777 0.329433 0.020524
0.191651 0.329644 0.020738
0.223525 0.329856 0.020952
0.255399 0.330067 0.021166
0.287274 0.330279 0.021380
0.319148 0.330490 0.021594
0.351022 0.330701 0.021808
0.382896 0.330913 0.022022
0.414770 0.331124 0.022236
0.446645 0.331335 0.022450
0.478519 0.331547 0.022664
0.510393 0.331758 0.022878
0.542267 0.331970 0.023092
0.574141 0.332181 0.023306
0.606016 0.332392 0.023521
0.637890 0.332604 0.023735
0.669764 0.332815 0.023949
0.701638 0.333026 0.024163
0.733513 0.333238 0.024377
0.765387 0.333449 0.024591
0.797261 0.333661 0.024805
0.829135 0.333872 0.025019
0.861009 0.334083 0.025233
0.892884 0.334295 0.025447
0.924758 0.334506 0.025661
0.956632 0.334718 0.025875
0.968733 0.334798 0.025957
0.007714 0.361881 0.020231
0.007714 0.361881 0.020231
0.032993 0.362049 0.020401
0.064867 0.362260 0.020615
0.096742 0.362472 0.020829
0.128616 0.362683 0.021043
0.160490 0.362895 0.021257
0.192364 0.363106 0.021471
0.224238 0.363317 0.021685
0.256113 0.363529 0.021899
0.287987 0.363740 0.022113
0.319861 0.363952 0.022327
0.351735 0.364163 0.022541
0.383609 0.364374 0.022755
0.415484 0.364586 0.022969
0.447358 0.364797 0.023184
0.479232 0.365008 0.023398
0.511106 0.365220 0.023612
0.542981 0.365431 0.023826
0.574855 0.365643 0.024040
0.606729 0.365854 0.024254
0.638603 0.366065 0.024468
0.670477 0.366277 0.024682
0.702352 0.366488 0.024896
0.734226 0.366700 0.025110
0.766100 0.366911 0.025324
0.797974 0.367122 0.025538
0.829848 0.367334 0.025752
0.861723 0.367545 0.025966
0.893597 0.367756 0.026180
0.925471 0.367968 0.026395
0.957345 0.368179 0.026609
0.969446 0.368259 0.026690
0.008427 0.395343 0.020964
0.008427 0.395343 0.020964
0.033706 0.395511 0.021134
0.065581 0.395722 0.021348
0.097455 0.395933 0.021562
0.129329 0.396145 0.021776
0.161203 0.396356 0.021990
0.193077 0.396568 0.022204
0.224952 0.396779 0.022418
0.256826 0.396990 0.022632
0.288700 0.397202 0.022847
0.320574 0.397413 0.023061
0.352449 0.397625 0.023275
0.384323 0.397836 0.023489
0.416197 0.398047 0.023703
0.448071 0.398259 0.023917
0.479945 0.398470 0.024131
0.511820 0.398681 0.024345
0.543694 0.398893 0.024559
0.575568 0.399104 0.024773
0.607442 0.399316 0.024987
0.639316 0.399527 0.025201
0.671191 0.399738 0.025415
0.703065 0.399950 0.025629
0.734939 0.400161 0.025843
0.766813 0.400373 0.026058
0.798688 0.400584 0.026272
0.830562 0.400795 0.026486
0.862436 0.401007 0.026700
0.894310 0.401218 0.026914
0.926184 0.401429 0.027128
0.958059 0.401641 0.027342
0.970160 0.401721 0.027423
0.009141 0.428805 0.021698
0.009141 0.428805 0.021698
0.034420 0.428972 0.021867
0.066294 0.429184 0.022081
0.098168 0.429395 0.022295
0.130042 0.429607 0.022510
0.161917 0.429818 0.022724
0.193791 0.430029 0.022938
0.225665 0.430241 0.023152
0.257539 0.430452 0.023366
0.289413 0.430663 0.023580
0.321288 0.430875 0.023794
0.353162 0.431086 0.024008
0.385036 0.431298 0.024222
0.416910 0.431509 0.024436
0.448784 0.431720 0.024650
0.480659 0.431932 0.024864
0.512533 0.432143 0.025078
0.544407 0.432354 0.025292
0.576281 0.432566 0.025506
0.608156 0.432777 0.025721
0.640030 0.432989 0.025935
0.671904 0.433200 0.026149
0.703778 0.433411 0.026363
0.735652 0.433623 0.026577
0.767527 0.433834 0.026791
0.799401 0.434046 0.027005
0.831275 0.434257 0.027219
0.863149 0.434468 0.027433
0.895023 0.434680 0.027647
0.926898 0.434891 0.027861
0.958772 0.435102 0.028075
0.970873 0.435183 0.028157
0.009854 0.462266 0.022431
0.009854 0.462266 0.022431
0.035133 0.462434 0.022601
0.067007 0.462645 0.022815
0.098881 0.462857 0.023029
0.130756 0.463068 0.023243
0.162630 0.463280 0.023457
0.194504 0.463491 0.023671
0.226378 0.463702 0.023885
0.258252 0.463914 0.024099
0.290127 0.464125 0.024313
0.322001 0.464336 0.024527
0.353875 0.464548 0.024741
0.385749 0.464759 0.024955
0.417624 0.464971 0.025169
0.449498 0.465182 0.025384
0.481372 0.465393 0.025598
0.513246 0.465605 0.025812
0.545120 0.465816 0.026026
0.576995 0.466028 0.026240
0.608869 0.466239 0.026454
0.640743 0.466450 0.026668
0.672617 0.466662 0.026882
0.704491 0.466873 0.027096
0.736366 0.467084 0.027310
0.768240 0.467296 0.027524
0.800114 0.467507 0.027738
0.831988 0.467719 0.027952
0.863862 0.467930 0.028166
0.895737 0.468141 0.028381
0.927611 0.468353 0.028595
0.959485 0.468564 0.028809
0.971586 0.468644 0.028890
0.010567 0.495728 0.023164
0.010567 0.495728 0.023164
0.035846 0.495896 0.023334
0.067720 0.496107 0.023548
0.099595 0.496318 0.023762
0.131469 0.496530 0.023976
0.163343 0.496741 0.024190
0.195217 0.496953 0.024404
0.227091 0.497164 0.024618
0.258966 0.497375 0.024832
0.290840 0.497587 0.025047
0.322714 0.497798 0.025261
0.354588 0.498009 0.025475
0.386463 0.498221 0.025689
0.418337 0.498432 0.025903
0.450211 0.498644 0.026117
0.482085 0.498855 0.026331
0.513959 0.499066 0.026545
0.545834 0.499278 0.026759
0.577708 0.499489 0.026973
0.609582 0.499701 0.027187
0.641456 0.499912 0.027401
0.673330 0.500123 0.027615
0.705205 0.500335 0.027829
0.737079 0.500546 0.028044
0.768953 0.500757 0.028258
0.800827 0.500969 0.028472
0.832702 0.501180 0.028686
0.864576 0.501392 0.028900
0.896450 0.501603 0.029114
0.928324 0.501814 0.029328
0.960198 0.502026 0.029542
0.972299 0.502106 0.029623
0.011280 0.529190 0.023898
0.011280 0.529190 0.023898
0.036559 0.529357 0.024067
0.068434 0.529569 0.024281
0.100308 0.529780 0.024495
0.132182 0.529991 0.024710
0.164056 0.530203 0.024924
0.195931 0.530414 0.025138
0.227805 0.530626 0.025352
0.259679 0.530837 0.025566
0.291553 0.531048 0.025780
0.323427 0.531260 0.025994
0.355302 0.531471 0.026208
0.387176 0.531682 0.026422
0.419050 0.531894 0.026636
0.450924 0.532105 0.026850
0.482798 0.532317 0.027064
0.514673 0.532528 0.027278
0.546547 0.532739 0.027492
0.578421 0.532951 0.027707
0.610295 0.533162 0.027921
0.642170 0.533374 0.028135
0.674044 0.533585 0.028349
0.705918 0.533796 0.028563
0.737792 0.534008 0.028777
0.769666 0.534219 0.028991
0.801541 0.534430 0.029205
0.833415 0.534642 0.029419
0.865289 0.534853 0.029633
0.897163 0.535065 0.029847
0.929037 0.535276 0.030061
0.960912 0.535487 0.030275
0.973013 0.535568 0.030357
0.011994 0.562651 0.024631
0.011994 0.562651 0.024631
0.037273 0.562819 0.024801
0.069147 0.563030 0.025015
0.101021 0.563242 0.025229
0.132895 0.563453 0.025443
0.164770 0.563664 0.025657
0.196644 0.563876 0.025871
0.228518 0.564087 0.026085
0.260392 0.564299 0.026299
0.292266 0.564510 0.026513
0.324141 0.564721 0.026727
0.356015 0.564933 0.026941
0.387889 0.565144 0.027155
0.419763 0.565356 0.027370
0.451638 0.565567 0.027584
0.483512 0.565778 0.027798
0.515386 0.565990 0.028012
0.547260 0.566201 0.028226
0.579134 0.566412 0.028440
0.611009 0.566624 0.028654
0.642883 0.566835 0.028868
0.674757 0.567047 0.029082
0.706631 0.567258 0.029296
0.738505 0.567469 0.029510
0.770380 0.567681 0.029724
0.802254 0.567892 0.029938
0.834128 0.568103 0.030152
0.866002 0.568315 0.030366
0.897877 0.568526 0.030581
0.929751 0.568738 0.030795
0.961625 0.568949 0.031009
0.973726 0.569029 0.031090
0.012707 0.596113 0.025364
0.012707 0.596113 0.025364
0.037986 0.596281 0.025534
0.069860 0.596492 0.025748
0.101734 0.596703 0.025962
0.133609 0.596915 0.026176
0.165483 0.597126 0.026390
0.197357 0.597337 0.026604
0.229231 0.597549 0.026818
0.261106 0.597760 0.027033
0.292980 0.597972 0.027247
0.324854 0.598183 0.027461
0.356728 0.598394 0.027675
0.388602 0.598606 0.027889
0.420477 0.598817 0.028103
0.452351 0.599029 0.028317
0.484225 0.599240 0.028531
0.516099 0.599451 0.028745
0.547973 0.599663 0.028959
0.579848 0.599874 0.029173
0.611722 0.600085 0.029387
0.643596 0.600297 0.029601
0.675470 0.600508 0.029815
0.707345 0.600720 0.030029
0.739219 0.600931 0.030244
0.771093 0.601142 0.030458
0.802967 0.601354 0.030672
0.834841 0.601565 0.030886
0.866716 0.601777 0.031100
0.898590 0.601988 0.031314
0.930464 0.602199 0.031528
0.962338 0.602411 0.031742
0.974439 0.602491 0.031823
0.013420 0.629575 0.026098
0.013420 0.629575 0.026098
0.038699 0.629742 0.026267
0.070574 0.629954 0.026481
0.102448 0.630165 0.026696
0.134322 0.630376 0.026910
0.166196 0.630588 0.027124
0.198070 0.630799 0.027338
0.229945 0.631011 0.027552
0.261819 0.631222 0.027766
0.293693 0.631433 0.027980
0.325567 0.631645 0.028194
0.357441 0.631856 0.028408
0.389316 0.632067 0.028622
0.421190 0.632279 0.028836
0.453064 0.632490 0.029050
0.484938 0.632702 0.029264
0.516813 0.632913 0.029478
0.548687 0.633124 0.029692
0.580561 0.633336 0.029907
0.612435 0.633547 0.030121
0.644309 0.633758 0.030335
0.676184 0.633970 0.030549
0.708058 0.634181 0.030763
0.739932 0.634393 0.030977
0.771806 0.634604 0.031191
0.803680 0.634815 0.031405
0.835555 0.635027 0.031619
0.867429 0.635238 0.031833
0.899303 0.635450 0.032047
0.931177 0.635661 0.032261
0.963052 0.635872 0.032475
0.975153 0.635953 0.032557
0.014133 0.663036 0.026831
0.014133 0.663036 0.026831
0.039413 0.663204 0.027001
0.071287 0.663415 0.027215
0.103161 0.663627 0.027429
0.135035 0.663838 0.027643
0.166909 0.664049 0.027857
0.198784 0.664261 0.028071
0.230658 0.664472 0.028285
0.262532 0.664684 0.028499
0.294406 0.664895 0.028713
0.326281 0.665106 0.028927
0.358155 0.665318 0.029141
0.390029 0.665529 0.029355
0.421903 0.665740 0.029570
0.453777 0.665952 0.029784
0.485652 0.666163 0.029998
0.517526 0.666375 0.030212
0.549400 0.666586 0.030426
0.581274 0.666797 0.030640
0.613148 0.667009 0.030854
0.645023 0.667220 0.031068
0.676897 0.667432 0.031282
0.708771 0.667643 0.031496
0.740645 0.667854 0.031710
0.772520 0.668066 0.031924
0.804394 0.668277 0.032138
0.836268 0.668488 0.032352
0.868142 0.668700 0.032566
0.900016 0.668911 0.032781
0.931891 0.669123 0.032995
0.963765 0.669334 0.033209
0.975866 0.669414 0.033290
0.014847 0.696498 0.027564
0.014847 0.696498 0.027564
0.040126 0.696665 0.027734
0.072000 0.696877 0.027948
0.103874 0.697088 0.028162
0.135749 0.697300 0.028376
0.167623 0.697511 0.028590
0.199497 0.697722 0.028804
0.231371 0.697934 0.029018
0.263245 0.698145 0.029233
0.295120 0.698357 0.029447
0.326994 0.698568 0.029661
0.358868 0.698779 0.029875
0.390742 0.698991 0.030089
0.422616 0.699202 0.030303
0.454491 0.699413 0.030517
0.486365 0.699625 0.030731
0.518239 0.699836 0.030945
0.550113 0.700048 0.031159
0.581988 0.700259 0.031373
0.613862 0.700470 0.031587
0.645736 0.700682 0.031801
0.677610 0.700893 0.032015
0.709484 0.701105 0.032229
0.741359 0.701316 0.032444
0.773233 0.701527 0.032658
0.805107 0.701739 0.032872
0.836981 0.701950 0.033086
0.868855 0.702161 0.033300
0.900730 0.702373 0.033514
0.932604 0.702584 0.033728
0.964478 0.702796 0.033942
0.976579 0.702876 0.034023
0.015560 0.729959 0.028298
0.015560 0.729959 0.028298
0.040839 0.730127 0.028467
0.072713 0.730339 0.028681
0.104588 0.730550 0.028896
0.136462 0.730761 0.029110
0.168336 0.730973 0.029324
0.200210 0.731184 0.029538
0.232084 0.731395 0.029752
0.263959 0.731607 0.029966
0.295833 0.731818 0.030180
0.327707 0.732030 0.030394
0.359581 0.732241 0.030608
0.391456 0.732452 0.030822
0.423330 0.732664 0.031036
0.455204 0.732875 0.031250
0.487078 0.733086 0.031464
0.518952 0.733298 0.031678
0.550827 0.733509 0.031892
0.582701 0.733721 0.032107
0.614575 0.733932 0.032321
0.646449 0.734143 0.032535
0.678323 0.734355 0.032749
0.710198 0.734566 0.032963
0.742072 0.734778 0.033177
0.773946 0.734989 0.033391
0.805820 0.735200 0.033605
0.837695 0.735412 0.033819
0.869569 0.735623 0.034033
0.901443 0.735834 0.034247
0.933317 0.736046 0.034461
0.965191 0.736257 0.034675
0.977292 0.736337 0.034757
0.016273 0.763421 0.029031
0.016273 0.763421 0.029031
0.041552 0.763589 0.029201
0.073427 0.763800 0.029415
0.105301 0.764012 0.029629
0.137175 0.764223 0.029843
0.169049 0.764434 0.030057
0.200924 0.764646 0.030271
0.232798 0.764857 0.030485
0.264672 0.765068 0.030699
0.296546 0.765280 0.030913
0.328420 0.765491 0.031127
0.360295 0.765703 0.031341
0.392169 0.765914 0.031555
0.424043 0.766125 0.031770
0.455917 0.766337 0.031984
0.487791 0.766548 0.032198
0.519666 0.766760 0.032412
0.551540 0.766971 0.032626
0.583414 0.767182 0.032840
0.615288 0.767394 0.033054
0.647162 0.767605 0.033268
0.679037 0.767816 0.033482
0.710911 0.768028 0.033696
0.742785 0.768239 0.033910
0.774659 0.768451 0.034124
0.806534 0.768662 0.034338
0.838408 0.768873 0.034552
0.870282 0.769085 0.034766
0.902156 0.769296 0.034981
0.934030 0.769507 0.035195
0.965905 0.769719 0.035409
0.978006 0.769799 0.035490
0.016987 0.796883 0.029764
0.016987 0.796883 0.029764
0.042266 0.797050 0.029934
0.074140 0.797262 0.030148
0.106014 0.797473 0.030362
0.137888 0.797685 0.030576
0.169763 0.797896 0.030790
0.201637 0.798107 0.031004
0.233511 0.798319 0.031218
0.265385 0.798530 0.031433
0.297259 0.798741 0.031647
0.329134 0.798953 0.031861
0.361008 0.799164 0.032075
0.392882 0.799376 0.032289
0.424756 0.799587 0.032503
0.456630 0.799798 0.032717
0.488505 0.800010 0.032931
0.520379 0.800221 0.033145
0.552253 0.800433 0.033359
0.584127 0.800644 0.033573
0.616002 0.800855 0.033787
0.647876 0.801067 0.034001
0.679750 0.801278 0.034215
0.711624 0.801489 0.034429
0.743498 0.801701 0.034644
0.775373 0.801912 0.034858
0.807247 0.802124 0.035072
0.839121 0.802335 0.035286
0.870995 0.802546 0.035500
0.902869 0.802758 0.035714
0.934744 0.802969 0.035928
0.966618 0.803181 0.036142
0.978719 0.803261 0.036223
0.017700 0.830344 0.030498
0.017700 0.830344 0.030498
0.042979 0.830512 0.030667
0.074853 0.830723 0.030881
0.106727 0.830935 0.031096
0.138602 0.831146 0.031310
0.170476 0.831358 0.031524
0.202350 0.831569 0.031738
0.234224 0.831780 0.031952
0.266098 0.831992 0.032166
0.297973 0.832203 0.032380
0.329847 0.832414 0.032594
0.361721 0.832626 0.032808
0.393595 0.832837 0.033022
0.425470 0.833049 0.033236
0.457344 0.833260 0.033450
0.489218 0.833471 0.033664
0.521092 0.833683 0.033878
0.552966 0.833894 0.034092
0.584841 0.834106 0.034307
0.616715 0.834317 0.034521
0.648589 0.834528 0.034735
0.680463 0.834740 0.034949
0.712337 0.834951 0.035163
0.744212 0.835162 0.035377
0.776086 0.835374 0.035591
0.807960 0.835585 0.035805
0.839834 0.835797 0.036019
