plugin/runtime/presets/luts/cool-clear/cool-clear.cube
# akari-video catalog LUT: cool-clear
LUT_3D_SIZE 9
0.000000 0.000000 0.012300
0.089028 0.000590 0.012898
0.216524 0.001436 0.013754
0.344021 0.002281 0.014610
0.471518 0.003127 0.015467
0.599015 0.003973 0.016323
0.726512 0.004818 0.017179
0.854009 0.005664 0.018036
0.961732 0.006378 0.018759
0.002008 0.094188 0.014364
0.091035 0.094779 0.014962
0.218532 0.095624 0.015818
0.346029 0.096470 0.016675
0.473526 0.097315 0.017531
0.601023 0.098161 0.018387
0.728520 0.099006 0.019243
0.856016 0.099852 0.020100
0.963740 0.100566 0.020823
0.004861 0.228035 0.017298
0.093888 0.228625 0.017895
0.221385 0.229471 0.018752
0.348882 0.230316 0.019608
0.476379 0.231162 0.020464
0.603876 0.232007 0.021321
0.731373 0.232853 0.022177
0.858870 0.233698 0.023033
0.966593 0.234413 0.023757
0.007714 0.361881 0.020231
0.096742 0.362472 0.020829
0.224238 0.363317 0.021685
0.351735 0.364163 0.022541
0.479232 0.365008 0.023398
0.606729 0.365854 0.024254
0.734226 0.366700 0.025110
0.861723 0.367545 0.025966
0.969446 0.368259 0.026690
0.010567 0.495728 0.023164
0.099595 0.496318 0.023762
0.227091 0.497164 0.024618
0.354588 0.498009 0.025475
0.482085 0.498855 0.026331
0.609582 0.499701 0.027187
0.737079 0.500546 0.028044
0.864576 0.501392 0.028900
0.972299 0.502106 0.029623
0.013420 0.629575 0.026098
0.102448 0.630165 0.026696
0.229945 0.631011 0.027552
0.357441 0.631856 0.028408
0.484938 0.632702 0.029264
0.612435 0.633547 0.030121
0.739932 0.634393 0.030977
0.867429 0.635238 0.031833
0.975153 0.635953 0.032557
0.016273 0.763421 0.029031
0.105301 0.764012 0.029629
0.232798 0.764857 0.030485
0.360295 0.765703 0.031341
0.487791 0.766548 0.032198
0.615288 0.767394 0.033054
0.742785 0.768239 0.033910
0.870282 0.769085 0.034766
0.978006 0.769799 0.035490
0.019126 0.897268 0.031964
0.108154 0.897858 0.032562
0.235651 0.898704 0.033418
0.363148 0.899549 0.034275
0.490645 0.900395 0.035131
0.618141 0.901240 0.035987
0.745638 0.902086 0.036844
0.873135 0.902931 0.037700
0.980859 0.903646 0.038423
0.021134 0.991456 0.034028
0.110162 0.992046 0.034626
0.237659 0.992892 0.035483
0.365155 0.993737 0.036339
0.492652 0.994583 0.037195
0.620149 0.995429 0.038051
0.747646 0.996274 0.038908
0.875143 0.997120 0.039764
0.982866 0.997834 0.040487
0.000208 0.000211 0.108221
0.089235 0.000801 0.108819
0.216732 0.001647 0.109675
0.344229 0.002493 0.110532
0.471726 0.003338 0.111388
0.599223 0.004184 0.112244
0.726720 0.005029 0.113100
0.854217 0.005875 0.113957
0.961940 0.006589 0.114680
0.002216 0.094399 0.110285
0.091243 0.094990 0.110883
0.218740 0.095835 0.111739
0.346237 0.096681 0.112596
0.473734 0.097526 0.113452
0.601231 0.098372 0.114308
0.728727 0.099217 0.115165
0.856224 0.100063 0.116021
0.963948 0.100777 0.116744
0.005069 0.228246 0.113219
0.094096 0.228836 0.113817
0.221593 0.229682 0.114673
0.349090 0.230527 0.115529
0.476587 0.231373 0.116385
0.604084 0.232218 0.117242
0.731581 0.233064 0.118098
0.859077 0.233910 0.118954
0.966801 0.234624 0.119678
0.007922 0.362092 0.116152
0.096949 0.362683 0.116750
0.224446 0.363528 0.117606
0.351943 0.364374 0.118462
0.479440 0.365219 0.119319
0.606937 0.366065 0.120175
0.734434 0.366911 0.121031
0.861931 0.367756 0.121887
0.969654 0.368470 0.122611
0.010775 0.495939 0.119085
0.099803 0.496529 0.119683
0.227299 0.497375 0.120539
0.354796 0.498221 0.121396
0.482293 0.499066 0.122252
0.609790 0.499912 0.123108
0.737287 0.500757 0.123965
0.864784 0.501603 0.124821
0.972507 0.502317 0.125544
0.013628 0.629786 0.122019
0.102656 0.630376 0.122617
0.230152 0.631222 0.123473
0.357649 0.632067 0.124329
0.485146 0.632913 0.125185
0.612643 0.633758 0.126042
0.740140 0.634604 0.126898
0.867637 0.635449 0.127754
0.975360 0.636164 0.128478
0.016481 0.763632 0.124952
0.105509 0.764223 0.125550
0.233006 0.765068 0.126406
0.360502 0.765914 0.127262
0.487999 0.766759 0.128119
0.615496 0.767605 0.128975
0.742993 0.768450 0.129831
0.870490 0.769296 0.130688
0.978214 0.770010 0.131411
0.019334 0.897479 0.127885
0.108362 0.898069 0.128483
0.235859 0.898915 0.129340
0.363356 0.899760 0.130196
0.490852 0.900606 0.131052
0.618349 0.901451 0.131908
0.745846 0.902297 0.132765
0.873343 0.903142 0.133621
0.981067 0.903857 0.134344
0.021342 0.991667 0.129950
0.110370 0.992257 0.130547
0.237866 0.993103 0.131404
0.365363 0.993949 0.132260
0.492860 0.994794 0.133116
0.620357 0.995640 0.133973
0.747854 0.996485 0.134829
0.875351 0.997331 0.135685
0.983074 0.998045 0.136409
0.000501 0.000509 0.243523
0.089529 0.001099 0.244121
0.217025 0.001945 0.244977
0.344522 0.002790 0.245833
0.472019 0.003636 0.246689
0.599516 0.004481 0.247546
0.727013 0.005327 0.248402
0.854510 0.006172 0.249258
0.962233 0.006887 0.249982
0.002509 0.094697 0.245587
0.091536 0.095287 0.246185
0.219033 0.096133 0.247041
0.346530 0.096979 0.247897
0.474027 0.097824 0.248754
0.601524 0.098670 0.249610
0.729021 0.099515 0.250466
0.856518 0.100361 0.251322
0.964241 0.101075 0.252046
0.005362 0.228544 0.248520
0.094389 0.229134 0.249118
0.221886 0.229980 0.249974
0.349383 0.230825 0.250831
0.476880 0.231671 0.251687
0.604377 0.232516 0.252543
0.731874 0.233362 0.253399
0.859371 0.234207 0.254256
0.967094 0.234922 0.254979
0.008215 0.362390 0.251454
0.097243 0.362981 0.252051
0.224739 0.363826 0.252908
0.352236 0.364672 0.253764
0.479733 0.365517 0.254620
0.607230 0.366363 0.255476
0.734727 0.367208 0.256333
0.862224 0.368054 0.257189
0.969947 0.368768 0.257913
0.011068 0.496237 0.254387
0.100096 0.496827 0.254985
0.227593 0.497673 0.255841
0.355089 0.498518 0.256697
0.482586 0.499364 0.257554
0.610083 0.500209 0.258410
0.737580 0.501055 0.259266
0.865077 0.501900 0.260122
0.972800 0.502615 0.260846
0.013921 0.630083 0.257320
0.102949 0.630674 0.257918
0.230446 0.631519 0.258774
0.357943 0.632365 0.259631
0.485439 0.633210 0.260487
0.612936 0.634056 0.261343
0.740433 0.634901 0.262199
0.867930 0.635747 0.263056
0.975654 0.636461 0.263779
0.016774 0.763930 0.260254
0.105802 0.764520 0.260851
0.233299 0.765366 0.261708
0.360796 0.766211 0.262564
0.488293 0.767057 0.263420
0.615789 0.767902 0.264277
0.743286 0.768748 0.265133
0.870783 0.769593 0.265989
0.978507 0.770308 0.266713
0.019627 0.897776 0.263187
0.108655 0.898367 0.263785
0.236152 0.899212 0.264641
0.363649 0.900058 0.265497
0.491146 0.900903 0.266354
0.618642 0.901749 0.267210
0.746139 0.902594 0.268066
0.873636 0.903440 0.268922
0.981360 0.904154 0.269646
0.021635 0.991965 0.265251
0.110663 0.992555 0.265849
0.238160 0.993401 0.266705
0.365657 0.994246 0.267562
0.493153 0.995092 0.268418
0.620650 0.995937 0.269274
0.748147 0.996783 0.270130
0.875644 0.997628 0.270987
0.983368 0.998343 0.271710
0.000794 0.000806 0.378824
0.089822 0.001397 0.379422
0.217319 0.002242 0.380278
0.344816 0.003088 0.381135
0.472312 0.003933 0.381991
0.599809 0.004779 0.382847
0.727306 0.005624 0.383703
0.854803 0.006470 0.384560
0.962527 0.007184 0.385283
0.002802 0.094995 0.380888
0.091830 0.095585 0.381486
0.219326 0.096431 0.382343
0.346823 0.097276 0.383199
0.474320 0.098122 0.384055
0.601817 0.098967 0.384911
0.729314 0.099813 0.385768
0.856811 0.100658 0.386624
0.964534 0.101373 0.387347
0.005655 0.228841 0.383822
0.094683 0.229432 0.384420
0.222180 0.230277 0.385276
0.349676 0.231123 0.386132
0.477173 0.231968 0.386988
0.604670 0.232814 0.387845
0.732167 0.233659 0.388701
0.859664 0.234505 0.389557
0.967387 0.235219 0.390281
0.008508 0.362688 0.386755
0.097536 0.363278 0.387353
0.225033 0.364124 0.388209
0.352530 0.364969 0.389066
0.480026 0.365815 0.389922
0.607523 0.366660 0.390778
0.735020 0.367506 0.391634
0.862517 0.368351 0.392491
0.970241 0.369066 0.393214
0.011361 0.496534 0.389688
0.100389 0.497125 0.390286
0.227886 0.497970 0.391143
0.355383 0.498816 0.391999
0.482879 0.499661 0.392855
0.610376 0.500507 0.393711
0.737873 0.501352 0.394568
0.865370 0.502198 0.395424
0.973094 0.502912 0.396147
0.014214 0.630381 0.392622
0.103242 0.630971 0.393220
0.230739 0.631817 0.394076
0.358236 0.632662 0.394932
0.485733 0.633508 0.395788
0.613229 0.634353 0.396645
0.740726 0.635199 0.397501
0.868223 0.636045 0.398357
0.975947 0.636759 0.399081
0.017068 0.764228 0.395555
0.106095 0.764818 0.396153
0.233592 0.765663 0.397009
0.361089 0.766509 0.397866
0.488586 0.767355 0.398722
0.616083 0.768200 0.399578
0.743579 0.769046 0.400434
0.871076 0.769891 0.401291
0.978800 0.770606 0.402014
0.019921 0.898074 0.398488
0.108948 0.898664 0.399086
0.236445 0.899510 0.399943
0.363942 0.900356 0.400799
0.491439 0.901201 0.401655
0.618936 0.902047 0.402511
0.746433 0.902892 0.403368
0.873929 0.903738 0.404224
0.981653 0.904452 0.404947
0.021928 0.992262 0.400553
0.110956 0.992853 0.401151
0.238453 0.993698 0.402007
0.365950 0.994544 0.402863
0.493447 0.995389 0.403719
0.620943 0.996235 0.404576
0.748440 0.997080 0.405432
0.875937 0.997926 0.406288
0.983661 0.998640 0.407012
0.001087 0.001104 0.514126
0.090115 0.001694 0.514724
0.217612 0.002540 0.515580
0.345109 0.003386 0.516436
0.472606 0.004231 0.517292
0.600102 0.005077 0.518149
0.727599 0.005922 0.519005
0.855096 0.006768 0.519861
0.962820 0.007482 0.520585
0.003095 0.095292 0.516190
0.092123 0.095883 0.516788
0.219620 0.096728 0.517644
0.347117 0.097574 0.518500
0.474613 0.098419 0.519357
0.602110 0.099265 0.520213
0.729607 0.100110 0.521069
0.857104 0.100956 0.521925
0.964828 0.101670 0.522649
0.005948 0.229139 0.519123
0.094976 0.229729 0.519721
0.222473 0.230575 0.520577
0.349970 0.231420 0.521434
0.477466 0.232266 0.522290
0.604963 0.233111 0.523146
0.732460 0.233957 0.524003
0.859957 0.234803 0.524859
0.967681 0.235517 0.525582
0.008801 0.362985 0.522057
0.097829 0.363576 0.522655
0.225326 0.364421 0.523511
0.352823 0.365267 0.524367
0.480320 0.366112 0.525223
0.607816 0.366958 0.526080
0.735313 0.367804 0.526936
0.862810 0.368649 0.527792
0.970534 0.369363 0.528516
0.011655 0.496832 0.524990
0.100682 0.497422 0.525588
0.228179 0.498268 0.526444
0.355676 0.499114 0.527300
0.483173 0.499959 0.528157
0.610670 0.500805 0.529013
0.738166 0.501650 0.529869
0.865663 0.502496 0.530725
0.973387 0.503210 0.531449
0.014508 0.630679 0.527923
0.103535 0.631269 0.528521
0.231032 0.632115 0.529377
0.358529 0.632960 0.530234
0.486026 0.633806 0.531090
0.613523 0.634651 0.531946
0.741020 0.635497 0.532803
0.868516 0.636342 0.533659
0.976240 0.637057 0.534382
0.017361 0.764525 0.530857
0.106388 0.765116 0.531455
0.233885 0.765961 0.532311
0.361382 0.766807 0.533167
0.488879 0.767652 0.534023
0.616376 0.768498 0.534880
0.743873 0.769343 0.535736
0.871369 0.770189 0.536592
0.979093 0.770903 0.537316
0.020214 0.898372 0.533790
0.109241 0.898962 0.534388
0.236738 0.899808 0.535244
0.364235 0.900653 0.536100
0.491732 0.901499 0.536957
0.619229 0.902344 0.537813
0.746726 0.903190 0.538669
0.874223 0.904035 0.539526
0.981946 0.904750 0.540249
0.022222 0.992560 0.535854
0.111249 0.993150 0.536452
0.238746 0.993996 0.537308
0.366243 0.994842 0.538165
0.493740 0.995687 0.539021
0.621237 0.996533 0.539877
0.748733 0.997378 0.540733
0.876230 0.998224 0.541590
0.983954 0.998938 0.542313
0.001381 0.001402 0.649427
0.090408 0.001992 0.650025
0.217905 0.002838 0.650881
0.345402 0.003683 0.651738
0.472899 0.004529 0.652594
0.600396 0.005374 0.653450
0.727893 0.006220 0.654307
0.855389 0.007065 0.655163
0.963113 0.007780 0.655886
0.003388 0.095590 0.651491
0.092416 0.096180 0.652089
0.219913 0.097026 0.652946
0.347410 0.097872 0.653802
0.474907 0.098717 0.654658
0.602403 0.099563 0.655514
0.729900 0.100408 0.656371
0.857397 0.101254 0.657227
0.965121 0.101968 0.657950
0.006242 0.229437 0.654425
0.095269 0.230027 0.655023
0.222766 0.230873 0.655879
0.350263 0.231718 0.656735
0.477760 0.232564 0.657592
0.605257 0.233409 0.658448
0.732753 0.234255 0.659304
0.860250 0.235100 0.660160
0.967974 0.235815 0.660884
0.009095 0.363283 0.657358
0.098122 0.363874 0.657956
0.225619 0.364719 0.658812
0.353116 0.365565 0.659669
0.480613 0.366410 0.660525
0.608110 0.367256 0.661381
0.735607 0.368101 0.662237
0.863103 0.368947 0.663094
0.970827 0.369661 0.663817
0.011948 0.497130 0.660292
0.100975 0.497720 0.660889
0.228472 0.498566 0.661746
0.355969 0.499411 0.662602
0.483466 0.500257 0.663458
0.610963 0.501102 0.664315
0.738460 0.501948 0.665171
0.865956 0.502793 0.666027
0.973680 0.503508 0.666751
0.014801 0.630976 0.663225
0.103828 0.631567 0.663823
0.231325 0.632412 0.664679
0.358822 0.633258 0.665535
0.486319 0.634103 0.666392
0.613816 0.634949 0.667248
0.741313 0.635794 0.668104
0.868810 0.636640 0.668960
0.976533 0.637354 0.669684
0.017654 0.764823 0.666158
0.106682 0.765413 0.666756
0.234178 0.766259 0.667612
0.361675 0.767104 0.668469
0.489172 0.767950 0.669325
0.616669 0.768795 0.670181
0.744166 0.769641 0.671037
0.871663 0.770486 0.671894
0.979386 0.771201 0.672617
0.020507 0.898669 0.669092
0.109535 0.899260 0.669689
0.237032 0.900105 0.670546
0.364528 0.900951 0.671402
0.492025 0.901796 0.672258
0.619522 0.902642 0.673115
0.747019 0.903487 0.673971
0.874516 0.904333 0.674827
0.982239 0.905047 0.675551
0.022515 0.992858 0.671156
0.111542 0.993448 0.671754
0.239039 0.994294 0.672610
0.366536 0.995139 0.673466
0.494033 0.995985 0.674322
0.621530 0.996830 0.675179
0.749027 0.997676 0.676035
0.876524 0.998521 0.676891
0.984247 0.999236 0.677615
0.001674 0.001699 0.784729
0.090701 0.002290 0.785327
0.218198 0.003135 0.786183
0.345695 0.003981 0.787039
0.473192 0.004826 0.787896
0.600689 0.005672 0.788752
0.728186 0.006517 0.789608
0.855683 0.007363 0.790464
0.963406 0.008077 0.791188
0.003682 0.095888 0.786793
0.092709 0.096478 0.787391
0.220206 0.097324 0.788247
0.347703 0.098169 0.789103
0.475200 0.099015 0.789960
0.602697 0.099860 0.790816
0.730193 0.100706 0.791672
0.857690 0.101551 0.792529
0.965414 0.102266 0.793252
0.006535 0.229734 0.789726
0.095562 0.230325 0.790324
0.223059 0.231170 0.791181
0.350556 0.232016 0.792037
0.478053 0.232861 0.792893
0.605550 0.233707 0.793749
0.733047 0.234552 0.794606
0.860543 0.235398 0.795462
0.968267 0.236112 0.796185
0.009388 0.363581 0.792660
0.098415 0.364171 0.793258
0.225912 0.365017 0.794114
0.353409 0.365862 0.794970
0.480906 0.366708 0.795826
0.608403 0.367553 0.796683
0.735900 0.368399 0.797539
0.863397 0.369244 0.798395
0.971120 0.369959 0.799119
0.012241 0.497427 0.795593
0.101269 0.498018 0.796191
0.228765 0.498863 0.797047
0.356262 0.499709 0.797904
0.483759 0.500554 0.798760
0.611256 0.501400 0.799616
0.738753 0.502245 0.800472
0.866250 0.503091 0.801329
0.973973 0.503805 0.802052
0.015094 0.631274 0.798526
0.104122 0.631864 0.799124
0.231619 0.632710 0.799981
0.359115 0.633555 0.800837
0.486612 0.634401 0.801693
0.614109 0.635246 0.802549
0.741606 0.636092 0.803406
0.869103 0.636938 0.804262
0.976826 0.637652 0.804985
0.017947 0.765121 0.801460
0.106975 0.765711 0.802058
0.234472 0.766556 0.802914
0.361968 0.767402 0.803770
0.489465 0.768248 0.804626
0.616962 0.769093 0.805483
0.744459 0.769939 0.806339
0.871956 0.770784 0.807195
0.979680 0.771499 0.807919
0.020800 0.898967 0.804393
0.109828 0.899557 0.804991
0.237325 0.900403 0.805847
0.364822 0.901249 0.806704
0.492318 0.902094 0.807560
0.619815 0.902940 0.808416
0.747312 0.903785 0.809272
0.874809 0.904631 0.810129
0.982533 0.905345 0.810852
0.022808 0.993155 0.806457
0.111836 0.993746 0.807055
0.239332 0.994591 0.807911
0.366829 0.995437 0.808768
0.494326 0.996282 0.809624
0.621823 0.997128 0.810480
0.749320 0.997973 0.811337
0.876817 0.998819 0.812193
0.984540 0.999533 0.812916
0.001967 0.001997 0.920030
0.090995 0.002587 0.920628
0.218492 0.003433 0.921485
0.345988 0.004279 0.922341
0.473485 0.005124 0.923197
0.600982 0.005970 0.924053
0.728479 0.006815 0.924910
0.855976 0.007661 0.925766
0.963699 0.008375 0.926489
0.003975 0.096185 0.922095
0.093002 0.096776 0.922692
0.220499 0.097621 0.923549
0.347996 0.098467 0.924405
0.475493 0.099312 0.925261
0.602990 0.100158 0.926118
0.730487 0.101003 0.926974
0.857984 0.101849 0.927830
0.965707 0.102563 0.928554
0.006828 0.230032 0.925028
0.095856 0.230622 0.925626
0.223352 0.231468 0.926482
0.350849 0.232313 0.927338
0.478346 0.233159 0.928195
0.605843 0.234004 0.929051
0.733340 0.234850 0.929907
0.860837 0.235696 0.930763
0.968560 0.236410 0.931487
0.009681 0.363879 0.927961
0.098709 0.364469 0.928559
0.226206 0.365314 0.929415
0.353702 0.366160 0.930272
0.481199 0.367006 0.931128
0.608696 0.367851 0.931984
0.736193 0.368697 0.932841
0.863690 0.369542 0.933697
0.971413 0.370257 0.934420
0.012534 0.497725 0.930895
0.101562 0.498315 0.931493
0.229059 0.499161 0.932349
0.356555 0.500007 0.933205
0.484052 0.500852 0.934061
0.611549 0.501698 0.934918
0.739046 0.502543 0.935774
0.866543 0.503389 0.936630
0.974267 0.504103 0.937354
0.015387 0.631572 0.933828
0.104415 0.632162 0.934426
0.231912 0.633008 0.935282
0.359409 0.633853 0.936138
0.486905 0.634699 0.936995
0.614402 0.635544 0.937851
0.741899 0.636390 0.938707
0.869396 0.637235 0.939563
0.977120 0.637950 0.940287
0.018240 0.765418 0.936761
0.107268 0.766009 0.937359
0.234765 0.766854 0.938215
0.362262 0.767700 0.939072
0.489759 0.768545 0.939928
0.617255 0.769391 0.940784
0.744752 0.770236 0.941641
0.872249 0.771082 0.942497
0.979973 0.771796 0.943220
0.021094 0.899265 0.939695
0.110121 0.899855 0.940293
0.237618 0.900701 0.941149
0.365115 0.901546 0.942005
0.492612 0.902392 0.942861
0.620109 0.903237 0.943718
0.747605 0.904083 0.944574
0.875102 0.904928 0.945430
0.982826 0.905643 0.946154
0.023101 0.993453 0.941759
0.112129 0.994043 0.942357
0.239626 0.994889 0.943213
0.367123 0.995735 0.944069
0.494619 0.996580 0.944926
0.622116 0.997426 0.945782
0.749613 0.998271 0.946638
0.877110 0.999117 0.947494
0.984834 0.999831 0.948218
0.002134 0.002166 0.996813
0.091161 0.002756 0.997410
0.218658 0.003602 0.998267
0.346155 0.004447 0.999123
0.473652 0.005293 0.999979
0.601148 0.006139 1.000000
0.728645 0.006984 1.000000
0.856142 0.007830 1.000000
0.963866 0.008544 1.000000
0.004141 0.096354 0.998877
0.093169 0.096945 0.999475
0.220666 0.097790 1.000000
0.348163 0.098636 1.000000
0.475659 0.099481 1.000000
0.603156 0.100327 1.000000
0.730653 0.101172 1.000000
0.858150 0.102018 1.000000
0.965874 0.102732 1.000000
0.006994 0.230201 1.000000
0.096022 0.230791 1.000000
0.223519 0.231637 1.000000
0.351016 0.232482 1.000000
0.478512 0.233328 1.000000
0.606009 0.234173 1.000000
0.733506 0.235019 1.000000
0.861003 0.235864 1.000000
0.968727 0.236579 1.000000
0.009847 0.364047 1.000000
0.098875 0.364638 1.000000
0.226372 0.365483 1.000000
0.353869 0.366329 1.000000
0.481366 0.367174 1.000000
0.608862 0.368020 1.000000
0.736359 0.368866 1.000000
0.863856 0.369711 1.000000
0.971580 0.370425 1.000000
0.012701 0.497894 1.000000
0.101728 0.498484 1.000000
0.229225 0.499330 1.000000
0.356722 0.500175 1.000000
0.484219 0.501021 1.000000
0.611716 0.501867 1.000000
0.739212 0.502712 1.000000
0.866709 0.503558 1.000000
0.974433 0.504272 1.000000
0.015554 0.631741 1.000000
0.104581 0.632331 1.000000
0.232078 0.633177 1.000000
0.359575 0.634022 1.000000
0.487072 0.634868 1.000000
0.614569 0.635713 1.000000
0.742066 0.636559 1.000000
0.869562 0.637404 1.000000
0.977286 0.638119 1.000000
0.018407 0.765587 1.000000
0.107434 0.766178 1.000000
0.234931 0.767023 1.000000
0.362428 0.767869 1.000000
0.489925 0.768714 1.000000
0.617422 0.769560 1.000000
0.744919 0.770405 1.000000
0.872416 0.771251 1.000000
0.980139 0.771965 1.000000
0.021260 0.899434 1.000000
0.110287 0.900024 1.000000
0.237784 0.900870 1.000000
0.365281 0.901715 1.000000
0.492778 0.902561 1.000000
0.620275 0.903406 1.000000
0.747772 0.904252 1.000000
0.875269 0.905097 1.000000
0.982992 0.905812 1.000000
0.023268 0.993622 1.000000
0.112295 0.994212 1.000000
0.239792 0.995058 1.000000
0.367289 0.995903 1.000000
0.494786 0.996749 1.000000
0.622283 0.997595 1.000000
0.749780 0.998440 1.000000
0.877276 0.999286 1.000000
0.985000 1.000000 1.000000
