plugin/runtime/presets/luts/cool-clear/cool-clear.cube
# akari-video catalog LUT: cool-clear
LUT_3D_SIZE 5
0.000000 0.000000 0.012300
0.216524 0.001436 0.013754
0.471518 0.003127 0.015467
0.726512 0.004818 0.017179
0.961732 0.006378 0.018759
0.004861 0.228035 0.017298
0.221385 0.229471 0.018752
0.476379 0.231162 0.020464
0.731373 0.232853 0.022177
0.966593 0.234413 0.023757
0.010567 0.495728 0.023164
0.227091 0.497164 0.024618
0.482085 0.498855 0.026331
0.737079 0.500546 0.028044
0.972299 0.502106 0.029623
0.016273 0.763421 0.029031
0.232798 0.764857 0.030485
0.487791 0.766548 0.032198
0.742785 0.768239 0.033910
0.978006 0.769799 0.035490
0.021134 0.991456 0.034028
0.237659 0.992892 0.035483
0.492652 0.994583 0.037195
0.747646 0.996274 0.038908
0.982866 0.997834 0.040487
0.000501 0.000509 0.243523
0.217025 0.001945 0.244977
0.472019 0.003636 0.246689
0.727013 0.005327 0.248402
0.962233 0.006887 0.249982
0.005362 0.228544 0.248520
0.221886 0.229980 0.249974
0.476880 0.231671 0.251687
0.731874 0.233362 0.253399
0.967094 0.234922 0.254979
0.011068 0.496237 0.254387
0.227593 0.497673 0.255841
0.482586 0.499364 0.257554
0.737580 0.501055 0.259266
0.972800 0.502615 0.260846
0.016774 0.763930 0.260254
0.233299 0.765366 0.261708
0.488293 0.767057 0.263420
0.743286 0.768748 0.265133
0.978507 0.770308 0.266713
0.021635 0.991965 0.265251
0.238160 0.993401 0.266705
0.493153 0.995092 0.268418
0.748147 0.996783 0.270130
0.983368 0.998343 0.271710
0.001087 0.001104 0.514126
0.217612 0.002540 0.515580
0.472606 0.004231 0.517292
0.727599 0.005922 0.519005
0.962820 0.007482 0.520585
0.005948 0.229139 0.519123
0.222473 0.230575 0.520577
0.477466 0.232266 0.522290
0.732460 0.233957 0.524003
0.967681 0.235517 0.525582
0.011655 0.496832 0.524990
0.228179 0.498268 0.526444
0.483173 0.499959 0.528157
0.738166 0.501650 0.529869
0.973387 0.503210 0.531449
0.017361 0.764525 0.530857
0.233885 0.765961 0.532311
0.488879 0.767652 0.534023
0.743873 0.769343 0.535736
0.979093 0.770903 0.537316
0.022222 0.992560 0.535854
0.238746 0.993996 0.537308
0.493740 0.995687 0.539021
0.748733 0.997378 0.540733
0.983954 0.998938 0.542313
0.001674 0.001699 0.784729
0.218198 0.003135 0.786183
0.473192 0.004826 0.787896
0.728186 0.006517 0.789608
0.963406 0.008077 0.791188
0.006535 0.229734 0.789726
0.223059 0.231170 0.791181
0.478053 0.232861 0.792893
0.733047 0.234552 0.794606
0.968267 0.236112 0.796185
0.012241 0.497427 0.795593
0.228765 0.498863 0.797047
0.483759 0.500554 0.798760
0.738753 0.502245 0.800472
0.973973 0.503805 0.802052
0.017947 0.765121 0.801460
0.234472 0.766556 0.802914
0.489465 0.768248 0.804626
0.744459 0.769939 0.806339
0.979680 0.771499 0.807919
0.022808 0.993155 0.806457
0.239332 0.994591 0.807911
0.494326 0.996282 0.809624
0.749320 0.997973 0.811337
0.984540 0.999533 0.812916
0.002134 0.002166 0.996813
0.218658 0.003602 0.998267
0.473652 0.005293 0.999979
0.728645 0.006984 1.000000
0.963866 0.008544 1.000000
0.006994 0.230201 1.000000
0.223519 0.231637 1.000000
0.478512 0.233328 1.000000
0.733506 0.235019 1.000000
0.968727 0.236579 1.000000
0.012701 0.497894 1.000000
0.229225 0.499330 1.000000
0.484219 0.501021 1.000000
0.739212 0.502712 1.000000
0.974433 0.504272 1.000000
0.018407 0.765587 1.000000
0.234931 0.767023 1.000000
0.489925 0.768714 1.000000
0.744919 0.770405 1.000000
0.980139 0.771965 1.000000
0.023268 0.993622 1.000000
0.239792 0.995058 1.000000
0.494786 0.996749 1.000000
0.749780 0.998440 1.000000
0.985000 1.000000 1.000000
