plugin/runtime/presets/luts/cinematic/cinematic.cube
# akari-video catalog LUT: cinematic
LUT_3D_SIZE 5
0.000000 0.000000 0.039200
0.183953 0.003616 0.042602
0.480477 0.008593 0.047284
0.777000 0.013569 0.051966
0.981874 0.017008 0.055201
0.000000 0.205215 0.050504
0.196948 0.208831 0.053906
0.493472 0.213808 0.058588
0.789995 0.218785 0.063270
0.994869 0.222223 0.066505
0.000000 0.488608 0.066114
0.214893 0.492224 0.069516
0.511416 0.497201 0.074198
0.807940 0.502177 0.078881
1.000000 0.505616 0.082116
0.017384 0.772001 0.081725
0.232838 0.775617 0.085127
0.529361 0.780593 0.089809
0.825885 0.785570 0.094491
1.000000 0.789009 0.097726
0.030379 0.977216 0.093029
0.245833 0.980832 0.096431
0.542356 0.985809 0.101113
0.838879 0.990785 0.105795
1.000000 0.994224 0.109030
0.000000 0.001198 0.219830
0.185249 0.004814 0.223232
0.481772 0.009791 0.227915
0.778296 0.014767 0.232597
0.983170 0.018206 0.235832
0.000000 0.206413 0.231135
0.198244 0.210029 0.234537
0.494767 0.215006 0.239219
0.791290 0.219983 0.243901
0.996164 0.223421 0.247136
0.000735 0.489806 0.246745
0.216189 0.493422 0.250147
0.512712 0.498399 0.254829
0.809235 0.503375 0.259511
1.000000 0.506814 0.262746
0.018680 0.773199 0.262355
0.234133 0.776815 0.265757
0.530657 0.781791 0.270439
0.827180 0.786768 0.275121
1.000000 0.790207 0.278356
0.031675 0.978414 0.273659
0.247128 0.982030 0.277061
0.543652 0.987007 0.281743
0.840175 0.991983 0.286425
1.000000 0.995422 0.289660
0.000000 0.002858 0.470139
0.187044 0.006474 0.473541
0.483568 0.011451 0.478223
0.780091 0.016427 0.482905
0.984965 0.019866 0.486140
0.000000 0.208073 0.481443
0.200039 0.211689 0.484845
0.496562 0.216666 0.489527
0.793086 0.221643 0.494209
0.997960 0.225081 0.497444
0.002530 0.491466 0.497053
0.217984 0.495082 0.500455
0.514507 0.500059 0.505137
0.811031 0.505035 0.509819
1.000000 0.508474 0.513054
0.020475 0.774858 0.512663
0.235929 0.778475 0.516065
0.532452 0.783451 0.520747
0.828976 0.788428 0.525430
1.000000 0.791866 0.528664
0.033470 0.980074 0.523967
0.248923 0.983690 0.527369
0.545447 0.988667 0.532051
0.841970 0.993643 0.536734
1.000000 0.997082 0.539969
0.000000 0.004518 0.720447
0.188839 0.008134 0.723849
0.485363 0.013111 0.728531
0.781886 0.018087 0.733213
0.986760 0.021526 0.736448
0.000000 0.209733 0.731751
0.201834 0.213349 0.735153
0.498358 0.218326 0.739835
0.794881 0.223303 0.744517
0.999755 0.226741 0.747752
0.004326 0.493126 0.747361
0.219779 0.496742 0.750763
0.516302 0.501719 0.755445
0.812826 0.506695 0.760127
1.000000 0.510134 0.763362
0.022271 0.776518 0.762971
0.237724 0.780135 0.766373
0.534247 0.785111 0.771056
0.830771 0.790088 0.775738
1.000000 0.793526 0.778973
0.035265 0.981734 0.774275
0.250719 0.985350 0.777677
0.547242 0.990327 0.782360
0.843765 0.995303 0.787042
1.000000 0.998742 0.790277
0.000000 0.005776 0.910170
0.190200 0.009392 0.913572
0.486724 0.014369 0.918254
0.783247 0.019345 0.922936
0.988121 0.022784 0.926171
0.000000 0.210991 0.921474
0.203195 0.214607 0.924876
0.499718 0.219584 0.929558
0.796242 0.224561 0.934240
1.000000 0.227999 0.937475
0.005686 0.494384 0.937084
0.221140 0.498000 0.940486
0.517663 0.502977 0.945169
0.814187 0.507953 0.949851
1.000000 0.511392 0.953086
0.023631 0.777777 0.952695
0.239085 0.781393 0.956097
0.535608 0.786369 0.960779
0.832132 0.791346 0.965461
1.000000 0.794785 0.968696
0.036626 0.982992 0.963999
0.252079 0.986608 0.967401
0.548603 0.991585 0.972083
0.845126 0.996561 0.976765
1.000000 1.000000 0.980000
