plugin/runtime/presets/luts/cinematic/cinematic.cube
# akari-video catalog LUT: cinematic
LUT_3D_SIZE 9
0.000000 0.000000 0.039200
0.035692 0.001128 0.040261
0.183953 0.003616 0.042602
0.332215 0.006104 0.044943
0.480477 0.008593 0.047284
0.628739 0.011081 0.049625
0.777000 0.013569 0.051966
0.925262 0.016058 0.054307
0.981874 0.017008 0.055201
0.000000 0.063519 0.042699
0.039714 0.064647 0.043760
0.187976 0.067135 0.046101
0.336237 0.069623 0.048442
0.484499 0.072112 0.050783
0.632761 0.074600 0.053124
0.781022 0.077089 0.055465
0.929284 0.079577 0.057806
0.985896 0.080527 0.058700
0.000000 0.205215 0.050504
0.048686 0.206343 0.051565
0.196948 0.208831 0.053906
0.345210 0.211320 0.056247
0.493472 0.213808 0.058588
0.641733 0.216296 0.060929
0.789995 0.218785 0.063270
0.938257 0.221273 0.065611
0.994869 0.222223 0.066505
0.000000 0.346912 0.058309
0.057659 0.348039 0.059370
0.205921 0.350528 0.061711
0.354182 0.353016 0.064052
0.502444 0.355504 0.066393
0.650706 0.357993 0.068734
0.798967 0.360481 0.071075
0.947229 0.362970 0.073416
1.000000 0.363920 0.074310
0.000000 0.488608 0.066114
0.066631 0.489736 0.067175
0.214893 0.492224 0.069516
0.363155 0.494712 0.071857
0.511416 0.497201 0.074198
0.659678 0.499689 0.076540
0.807940 0.502177 0.078881
0.956202 0.504666 0.081222
1.000000 0.505616 0.082116
0.008412 0.630304 0.073920
0.075604 0.631432 0.074981
0.223866 0.633920 0.077322
0.372127 0.636409 0.079663
0.520389 0.638897 0.082004
0.668651 0.641385 0.084345
0.816912 0.643874 0.086686
0.965174 0.646362 0.089027
1.000000 0.647312 0.089921
0.017384 0.772001 0.081725
0.084576 0.773128 0.082786
0.232838 0.775617 0.085127
0.381100 0.778105 0.087468
0.529361 0.780593 0.089809
0.677623 0.783082 0.092150
0.825885 0.785570 0.094491
0.974146 0.788058 0.096832
1.000000 0.789009 0.097726
0.026357 0.913697 0.089530
0.093549 0.914825 0.090591
0.241810 0.917313 0.092932
0.390072 0.919801 0.095273
0.538334 0.922290 0.097614
0.686596 0.924778 0.099955
0.834857 0.927266 0.102296
0.983119 0.929755 0.104637
1.000000 0.930705 0.105531
0.030379 0.977216 0.093029
0.097571 0.978344 0.094090
0.245833 0.980832 0.096431
0.394094 0.983320 0.098772
0.542356 0.985809 0.101113
0.690618 0.988297 0.103454
0.838879 0.990785 0.105795
0.987141 0.993274 0.108136
1.000000 0.994224 0.109030
0.000000 0.000368 0.094676
0.036090 0.001496 0.095737
0.184351 0.003984 0.098078
0.332613 0.006472 0.100419
0.480875 0.008961 0.102761
0.629136 0.011449 0.105102
0.777398 0.013937 0.107443
0.925660 0.016426 0.109784
0.982272 0.017376 0.110678
0.000000 0.063887 0.098175
0.040112 0.065015 0.099236
0.188374 0.067503 0.101577
0.336635 0.069991 0.103918
0.484897 0.072480 0.106259
0.633159 0.074968 0.108600
0.781420 0.077456 0.110941
0.929682 0.079945 0.113283
0.986294 0.080895 0.114176
0.000000 0.205583 0.105980
0.049084 0.206711 0.107041
0.197346 0.209199 0.109382
0.345608 0.211688 0.111724
0.493869 0.214176 0.114065
0.642131 0.216664 0.116406
0.790393 0.219153 0.118747
0.938655 0.221641 0.121088
0.995267 0.222591 0.121982
0.000000 0.347280 0.113786
0.058057 0.348407 0.114847
0.206318 0.350896 0.117188
0.354580 0.353384 0.119529
0.502842 0.355872 0.121870
0.651104 0.358361 0.124211
0.799365 0.360849 0.126552
0.947627 0.363337 0.128893
1.000000 0.364288 0.129787
0.000000 0.488976 0.121591
0.067029 0.490104 0.122652
0.215291 0.492592 0.124993
0.363553 0.495080 0.127334
0.511814 0.497569 0.129675
0.660076 0.500057 0.132016
0.808338 0.502545 0.134357
0.956599 0.505034 0.136698
1.000000 0.505984 0.137592
0.008810 0.630672 0.129396
0.076002 0.631800 0.130457
0.224263 0.634288 0.132798
0.372525 0.636777 0.135139
0.520787 0.639265 0.137480
0.669049 0.641753 0.139821
0.817310 0.644242 0.142162
0.965572 0.646730 0.144503
1.000000 0.647680 0.145397
0.017782 0.772369 0.137201
0.084974 0.773496 0.138262
0.233236 0.775985 0.140603
0.381498 0.778473 0.142944
0.529759 0.780961 0.145285
0.678021 0.783450 0.147626
0.826283 0.785938 0.149967
0.974544 0.788426 0.152308
1.000000 0.789377 0.153202
0.026755 0.914065 0.145006
0.093947 0.915193 0.146067
0.242208 0.917681 0.148408
0.390470 0.920169 0.150749
0.538732 0.922658 0.153090
0.686993 0.925146 0.155432
0.835255 0.927634 0.157773
0.983517 0.930123 0.160114
1.000000 0.931073 0.161008
0.030777 0.977584 0.148505
0.097969 0.978712 0.149566
0.246230 0.981200 0.151907
0.394492 0.983688 0.154248
0.542754 0.986177 0.156589
0.691016 0.988665 0.158930
0.839277 0.991153 0.161271
0.987539 0.993642 0.163612
1.000000 0.994592 0.164506
0.000000 0.001198 0.219830
0.036987 0.002326 0.220891
0.185249 0.004814 0.223232
0.333511 0.007302 0.225574
0.481772 0.009791 0.227915
0.630034 0.012279 0.230256
0.778296 0.014767 0.232597
0.926558 0.017256 0.234938
0.983170 0.018206 0.235832
0.000000 0.064717 0.223329
0.041009 0.065845 0.224390
0.189271 0.068333 0.226731
0.337533 0.070821 0.229072
0.485795 0.073310 0.231413
0.634056 0.075798 0.233754
0.782318 0.078286 0.236096
0.930580 0.080775 0.238437
0.987192 0.081725 0.239330
0.000000 0.206413 0.231135
0.049982 0.207541 0.232195
0.198244 0.210029 0.234537
0.346505 0.212518 0.236878
0.494767 0.215006 0.239219
0.643029 0.217494 0.241560
0.791290 0.219983 0.243901
0.939552 0.222471 0.246242
0.996164 0.223421 0.247136
0.000000 0.348110 0.238940
0.058954 0.349237 0.240001
0.207216 0.351726 0.242342
0.355478 0.354214 0.244683
0.503739 0.356702 0.247024
0.652001 0.359191 0.249365
0.800263 0.361679 0.251706
0.948525 0.364167 0.254047
1.000000 0.365118 0.254941
0.000735 0.489806 0.246745
0.067927 0.490934 0.247806
0.216189 0.493422 0.250147
0.364450 0.495910 0.252488
0.512712 0.498399 0.254829
0.660974 0.500887 0.257170
0.809235 0.503375 0.259511
0.957497 0.505864 0.261852
1.000000 0.506814 0.262746
0.009708 0.631502 0.254550
0.076899 0.632630 0.255611
0.225161 0.635118 0.257952
0.373423 0.637607 0.260293
0.521684 0.640095 0.262634
0.669946 0.642583 0.264975
0.818208 0.645072 0.267316
0.966470 0.647560 0.269657
1.000000 0.648510 0.270551
0.018680 0.773199 0.262355
0.085872 0.774326 0.263416
0.234133 0.776815 0.265757
0.382395 0.779303 0.268098
0.530657 0.781791 0.270439
0.678919 0.784280 0.272780
0.827180 0.786768 0.275121
0.975442 0.789256 0.277462
1.000000 0.790207 0.278356
0.027652 0.914895 0.270160
0.094844 0.916023 0.271221
0.243106 0.918511 0.273562
0.391368 0.920999 0.275903
0.539629 0.923488 0.278245
0.687891 0.925976 0.280586
0.836153 0.928464 0.282927
0.984414 0.930953 0.285268
1.000000 0.931903 0.286162
0.031675 0.978414 0.273659
0.098866 0.979542 0.274720
0.247128 0.982030 0.277061
0.395390 0.984518 0.279402
0.543652 0.987007 0.281743
0.691913 0.989495 0.284084
0.840175 0.991983 0.286425
0.988437 0.994472 0.288767
1.000000 0.995422 0.289660
0.000000 0.002028 0.344985
0.037885 0.003156 0.346045
0.186147 0.005644 0.348387
0.334408 0.008132 0.350728
0.482670 0.010621 0.353069
0.630932 0.013109 0.355410
0.779193 0.015597 0.357751
0.927455 0.018086 0.360092
0.984067 0.019036 0.360986
0.000000 0.065547 0.348483
0.041907 0.066675 0.349544
0.190169 0.069163 0.351885
0.338430 0.071651 0.354226
0.486692 0.074140 0.356567
0.634954 0.076628 0.358909
0.783216 0.079116 0.361250
0.931477 0.081605 0.363591
0.988089 0.082555 0.364485
0.000000 0.207243 0.356289
0.050880 0.208371 0.357350
0.199141 0.210859 0.359691
0.347403 0.213348 0.362032
0.495665 0.215836 0.364373
0.643926 0.218324 0.366714
0.792188 0.220813 0.369055
0.940450 0.223301 0.371396
0.997062 0.224251 0.372290
0.000000 0.348940 0.364094
0.059852 0.350067 0.365155
0.208114 0.352556 0.367496
0.356375 0.355044 0.369837
0.504637 0.357532 0.372178
0.652899 0.360021 0.374519
0.801161 0.362509 0.376860
0.949422 0.364997 0.379201
1.000000 0.365948 0.380095
0.001633 0.490636 0.371899
0.068824 0.491764 0.372960
0.217086 0.494252 0.375301
0.365348 0.496740 0.377642
0.513610 0.499229 0.379983
0.661871 0.501717 0.382324
0.810133 0.504205 0.384665
0.958395 0.506694 0.387006
1.000000 0.507644 0.387900
0.010605 0.632332 0.379704
0.077797 0.633460 0.380765
0.226059 0.635948 0.383106
0.374320 0.638437 0.385447
0.522582 0.640925 0.387788
0.670844 0.643413 0.390129
0.819105 0.645902 0.392470
0.967367 0.648390 0.394811
1.000000 0.649340 0.395705
0.019578 0.774029 0.387509
0.086769 0.775156 0.388570
0.235031 0.777645 0.390911
0.383293 0.780133 0.393252
0.531555 0.782621 0.395593
0.679816 0.785110 0.397934
0.828078 0.787598 0.400275
0.976340 0.790086 0.402617
1.000000 0.791037 0.403510
0.028550 0.915725 0.395314
0.095742 0.916853 0.396375
0.244004 0.919341 0.398716
0.392265 0.921829 0.401058
0.540527 0.924318 0.403399
0.688789 0.926806 0.405740
0.837050 0.929294 0.408081
0.985312 0.931783 0.410422
1.000000 0.932733 0.411316
0.032572 0.979244 0.398813
0.099764 0.980372 0.399874
0.248026 0.982860 0.402215
0.396287 0.985348 0.404556
0.544549 0.987837 0.406897
0.692811 0.990325 0.409238
0.841073 0.992813 0.411580
0.989334 0.995302 0.413921
1.000000 0.996252 0.414814
0.000000 0.002858 0.470139
0.038783 0.003986 0.471200
0.187044 0.006474 0.473541
0.335306 0.008962 0.475882
0.483568 0.011451 0.478223
0.631829 0.013939 0.480564
0.780091 0.016427 0.482905
0.928353 0.018916 0.485246
0.984965 0.019866 0.486140
0.000000 0.066377 0.473637
0.042805 0.067505 0.474698
0.191066 0.069993 0.477039
0.339328 0.072481 0.479380
0.487590 0.074970 0.481722
0.635852 0.077458 0.484063
0.784113 0.079946 0.486404
0.932375 0.082435 0.488745
0.988987 0.083385 0.489639
0.000000 0.208073 0.481443
0.051777 0.209201 0.482504
0.200039 0.211689 0.484845
0.348301 0.214178 0.487186
0.496562 0.216666 0.489527
0.644824 0.219154 0.491868
0.793086 0.221643 0.494209
0.941347 0.224131 0.496550
0.997960 0.225081 0.497444
0.000000 0.349770 0.489248
0.060750 0.350897 0.490309
0.209011 0.353386 0.492650
0.357273 0.355874 0.494991
0.505535 0.358362 0.497332
0.653796 0.360851 0.499673
0.802058 0.363339 0.502014
0.950320 0.365827 0.504355
1.000000 0.366778 0.505249
0.002530 0.491466 0.497053
0.069722 0.492594 0.498114
0.217984 0.495082 0.500455
0.366245 0.497570 0.502796
0.514507 0.500059 0.505137
0.662769 0.502547 0.507478
0.811031 0.505035 0.509819
0.959292 0.507524 0.512160
1.000000 0.508474 0.513054
0.011503 0.633162 0.504858
0.078695 0.634290 0.505919
0.226956 0.636778 0.508260
0.375218 0.639267 0.510601
0.523480 0.641755 0.512942
0.671741 0.644243 0.515283
0.820003 0.646732 0.517624
0.968265 0.649220 0.519965
1.000000 0.650170 0.520859
0.020475 0.774858 0.512663
0.087667 0.775986 0.513724
0.235929 0.778475 0.516065
0.384190 0.780963 0.518406
0.532452 0.783451 0.520747
0.680714 0.785940 0.523088
0.828976 0.788428 0.525430
0.977237 0.790916 0.527771
1.000000 0.791866 0.528664
0.029448 0.916555 0.520469
0.096639 0.917683 0.521529
0.244901 0.920171 0.523871
0.393163 0.922659 0.526212
0.541425 0.925148 0.528553
0.689686 0.927636 0.530894
0.837948 0.930124 0.533235
0.986210 0.932613 0.535576
1.000000 0.933563 0.536470
0.033470 0.980074 0.523967
0.100662 0.981202 0.525028
0.248923 0.983690 0.527369
0.397185 0.986178 0.529710
0.545447 0.988667 0.532051
0.693708 0.991155 0.534393
0.841970 0.993643 0.536734
0.990232 0.996132 0.539075
1.000000 0.997082 0.539969
0.000000 0.003688 0.595293
0.039680 0.004816 0.596354
0.187942 0.007304 0.598695
0.336204 0.009792 0.601036
0.484465 0.012281 0.603377
0.632727 0.014769 0.605718
0.780989 0.017257 0.608059
0.929250 0.019746 0.610400
0.985863 0.020696 0.611294
0.000000 0.067207 0.598791
0.043702 0.068335 0.599852
0.191964 0.070823 0.602193
0.340226 0.073311 0.604535
0.488487 0.075800 0.606876
0.636749 0.078288 0.609217
0.785011 0.080776 0.611558
0.933273 0.083265 0.613899
0.989885 0.084215 0.614793
0.000000 0.208903 0.606597
0.052675 0.210031 0.607658
0.200936 0.212519 0.609999
0.349198 0.215008 0.612340
0.497460 0.217496 0.614681
0.645722 0.219984 0.617022
0.793983 0.222473 0.619363
0.942245 0.224961 0.621704
0.998857 0.225911 0.622598
0.000000 0.350600 0.614402
0.061647 0.351727 0.615463
0.209909 0.354216 0.617804
0.358171 0.356704 0.620145
0.506432 0.359192 0.622486
0.654694 0.361681 0.624827
0.802956 0.364169 0.627168
0.951217 0.366657 0.629509
1.000000 0.367608 0.630403
0.003428 0.492296 0.622207
0.070620 0.493424 0.623268
0.218881 0.495912 0.625609
0.367143 0.498400 0.627950
0.515405 0.500889 0.630291
0.663667 0.503377 0.632632
0.811928 0.505865 0.634973
0.960190 0.508354 0.637314
1.000000 0.509304 0.638208
0.012400 0.633992 0.630012
0.079592 0.635120 0.631073
0.227854 0.637608 0.633414
0.376116 0.640097 0.635755
0.524377 0.642585 0.638096
0.672639 0.645073 0.640437
0.820901 0.647562 0.642778
0.969162 0.650050 0.645119
1.000000 0.651000 0.646013
0.021373 0.775688 0.637817
0.088565 0.776816 0.638878
0.236826 0.779305 0.641219
0.385088 0.781793 0.643560
0.533350 0.784281 0.645901
0.681611 0.786770 0.648243
0.829873 0.789258 0.650584
0.978135 0.791746 0.652925
1.000000 0.792696 0.653818
0.030345 0.917385 0.645623
0.097537 0.918513 0.646684
0.245799 0.921001 0.649025
0.394061 0.923489 0.651366
0.542322 0.925978 0.653707
0.690584 0.928466 0.656048
0.838846 0.930954 0.658389
0.987107 0.933443 0.660730
1.000000 0.934393 0.661624
0.034367 0.980904 0.649121
0.101559 0.982032 0.650182
0.249821 0.984520 0.652523
0.398083 0.987008 0.654864
0.546344 0.989497 0.657206
0.694606 0.991985 0.659547
0.842868 0.994473 0.661888
0.991129 0.996962 0.664229
1.000000 0.997912 0.665123
0.000000 0.004518 0.720447
0.040578 0.005646 0.721508
0.188839 0.008134 0.723849
0.337101 0.010622 0.726190
0.485363 0.013111 0.728531
0.633625 0.015599 0.730872
0.781886 0.018087 0.733213
0.930148 0.020576 0.735554
0.986760 0.021526 0.736448
0.000000 0.068037 0.723946
0.044600 0.069165 0.725006
0.192862 0.071653 0.727348
0.341123 0.074141 0.729689
0.489385 0.076630 0.732030
0.637647 0.079118 0.734371
0.785908 0.081606 0.736712
0.934170 0.084095 0.739053
0.990782 0.085045 0.739947
0.000000 0.209733 0.731751
0.053572 0.210861 0.732812
0.201834 0.213349 0.735153
0.350096 0.215838 0.737494
0.498358 0.218326 0.739835
0.646619 0.220814 0.742176
0.794881 0.223303 0.744517
0.943143 0.225791 0.746858
0.999755 0.226741 0.747752
0.000000 0.351429 0.739556
0.062545 0.352557 0.740617
0.210807 0.355046 0.742958
0.359068 0.357534 0.745299
0.507330 0.360022 0.747640
0.655592 0.362511 0.749981
0.803853 0.364999 0.752322
0.952115 0.367487 0.754663
1.000000 0.368437 0.755557
0.004326 0.493126 0.747361
0.071517 0.494254 0.748422
0.219779 0.496742 0.750763
0.368041 0.499230 0.753104
0.516302 0.501719 0.755445
0.664564 0.504207 0.757786
0.812826 0.506695 0.760127
0.961088 0.509184 0.762468
1.000000 0.510134 0.763362
0.013298 0.634822 0.755166
0.080490 0.635950 0.756227
0.228752 0.638438 0.758568
0.377013 0.640927 0.760909
0.525275 0.643415 0.763250
0.673537 0.645903 0.765591
0.821798 0.648392 0.767932
0.970060 0.650880 0.770273
1.000000 0.651830 0.771167
0.022271 0.776518 0.762971
0.089462 0.777646 0.764032
0.237724 0.780135 0.766373
0.385986 0.782623 0.768714
0.534247 0.785111 0.771056
0.682509 0.787600 0.773397
0.830771 0.790088 0.775738
0.979033 0.792576 0.778079
1.000000 0.793526 0.778973
0.031243 0.918215 0.770777
0.098435 0.919342 0.771838
0.246696 0.921831 0.774179
0.394958 0.924319 0.776520
0.543220 0.926808 0.778861
0.691482 0.929296 0.781202
0.839743 0.931784 0.783543
0.988005 0.934273 0.785884
1.000000 0.935223 0.786778
0.035265 0.981734 0.774275
0.102457 0.982862 0.775336
0.250719 0.985350 0.777677
0.398980 0.987838 0.780019
0.547242 0.990327 0.782360
0.695504 0.992815 0.784701
0.843765 0.995303 0.787042
0.992027 0.997792 0.789383
1.000000 0.998742 0.790277
0.000000 0.005348 0.845601
0.041475 0.006476 0.846662
0.189737 0.008964 0.849003
0.337999 0.011452 0.851344
0.486261 0.013941 0.853685
0.634522 0.016429 0.856026
0.782784 0.018917 0.858367
0.931046 0.021406 0.860708
0.987658 0.022356 0.861602
0.000000 0.068867 0.849100
0.045498 0.069995 0.850161
0.193759 0.072483 0.852502
0.342021 0.074971 0.854843
0.490283 0.077460 0.857184
0.638544 0.079948 0.859525
0.786806 0.082436 0.861866
0.935068 0.084925 0.864207
0.991680 0.085875 0.865101
0.000000 0.210563 0.856905
0.054470 0.211691 0.857966
0.202732 0.214179 0.860307
0.350993 0.216668 0.862648
0.499255 0.219156 0.864989
0.647517 0.221644 0.867330
0.795779 0.224133 0.869671
0.944040 0.226621 0.872012
1.000000 0.227571 0.872906
0.000000 0.352259 0.864710
0.063442 0.353387 0.865771
0.211704 0.355876 0.868112
0.359966 0.358364 0.870453
0.508228 0.360852 0.872794
0.656489 0.363341 0.875135
0.804751 0.365829 0.877476
0.953013 0.368317 0.879817
1.000000 0.369267 0.880711
0.005223 0.493956 0.872515
0.072415 0.495084 0.873576
0.220677 0.497572 0.875917
0.368938 0.500060 0.878258
0.517200 0.502549 0.880599
0.665462 0.505037 0.882940
0.813723 0.507525 0.885281
0.961985 0.510014 0.887622
1.000000 0.510964 0.888516
0.014196 0.635652 0.880320
0.081387 0.636780 0.881381
0.229649 0.639268 0.883722
0.377911 0.641757 0.886063
0.526173 0.644245 0.888404
0.674434 0.646733 0.890745
0.822696 0.649222 0.893086
0.970958 0.651710 0.895428
1.000000 0.652660 0.896321
0.023168 0.777348 0.888125
0.090360 0.778476 0.889186
0.238622 0.780965 0.891527
0.386883 0.783453 0.893869
0.535145 0.785941 0.896210
0.683407 0.788430 0.898551
0.831668 0.790918 0.900892
0.979930 0.793406 0.903233
1.000000 0.794356 0.904127
0.032141 0.919045 0.895931
0.099332 0.920172 0.896992
0.247594 0.922661 0.899333
0.395856 0.925149 0.901674
0.544117 0.927638 0.904015
0.692379 0.930126 0.906356
0.840641 0.932614 0.908697
0.988903 0.935103 0.911038
1.000000 0.936053 0.911932
0.036163 0.982564 0.899430
0.103355 0.983692 0.900490
0.251616 0.986180 0.902832
0.399878 0.988668 0.905173
0.548140 0.991157 0.907514
0.696401 0.993645 0.909855
0.844663 0.996133 0.912196
0.992925 0.998622 0.914537
1.000000 0.999572 0.915431
0.000000 0.005776 0.910170
0.041939 0.006904 0.911231
0.190200 0.009392 0.913572
0.338462 0.011880 0.915913
0.486724 0.014369 0.918254
0.634985 0.016857 0.920595
0.783247 0.019345 0.922936
0.931509 0.021834 0.925277
0.988121 0.022784 0.926171
0.000000 0.069295 0.913669
0.045961 0.070423 0.914730
0.194222 0.072911 0.917071
0.342484 0.075399 0.919412
0.490746 0.077888 0.921753
0.639007 0.080376 0.924094
0.787269 0.082865 0.926435
0.935531 0.085353 0.928776
0.992143 0.086303 0.929670
0.000000 0.210991 0.921474
0.054933 0.212119 0.922535
0.203195 0.214607 0.924876
0.351457 0.217096 0.927217
0.499718 0.219584 0.929558
0.647980 0.222072 0.931899
0.796242 0.224561 0.934240
0.944503 0.227049 0.936581
1.000000 0.227999 0.937475
0.000000 0.352688 0.929279
0.063906 0.353815 0.930340
0.212167 0.356304 0.932681
0.360429 0.358792 0.935022
0.508691 0.361280 0.937363
0.656952 0.363769 0.939704
0.805214 0.366257 0.942045
0.953476 0.368746 0.944387
1.000000 0.369696 0.945280
0.005686 0.494384 0.937084
0.072878 0.495512 0.938145
0.221140 0.498000 0.940486
0.369401 0.500488 0.942828
0.517663 0.502977 0.945169
0.665925 0.505465 0.947510
0.814187 0.507953 0.949851
0.962448 0.510442 0.952192
1.000000 0.511392 0.953086
0.014659 0.636080 0.944890
0.081851 0.637208 0.945951
0.230112 0.639696 0.948292
0.378374 0.642185 0.950633
0.526636 0.644673 0.952974
0.674897 0.647161 0.955315
0.823159 0.649650 0.957656
0.971421 0.652138 0.959997
1.000000 0.653088 0.960891
0.023631 0.777777 0.952695
0.090823 0.778904 0.953756
0.239085 0.781393 0.956097
0.387346 0.783881 0.958438
0.535608 0.786369 0.960779
0.683870 0.788858 0.963120
0.832132 0.791346 0.965461
0.980393 0.793834 0.967802
1.000000 0.794785 0.968696
0.032604 0.919473 0.960500
0.099795 0.920601 0.961561
0.248057 0.923089 0.963902
0.396319 0.925577 0.966243
0.544581 0.928066 0.968584
0.692842 0.930554 0.970925
0.841104 0.933042 0.973266
0.989366 0.935531 0.975607
1.000000 0.936481 0.976501
0.036626 0.982992 0.963999
0.103818 0.984120 0.965060
0.252079 0.986608 0.967401
0.400341 0.989096 0.969742
0.548603 0.991585 0.972083
0.696864 0.994073 0.974424
0.845126 0.996561 0.976765
0.993388 0.999050 0.979106
1.000000 1.000000 0.980000
