plugin/runtime/presets/luts/cinematic/cinematic.cube
# akari-video catalog LUT: cinematic
LUT_3D_SIZE 33
0.000000 0.000000 0.039200
0.000000 0.000000 0.039200
0.000000 0.000000 0.039200
0.000000 0.000506 0.039676
0.035692 0.001128 0.040261
0.072757 0.001750 0.040846
0.109823 0.002372 0.041431
0.146888 0.002994 0.042017
0.183953 0.003616 0.042602
0.221019 0.004238 0.043187
0.258084 0.004860 0.043773
0.295150 0.005482 0.044358
0.332215 0.006104 0.044943
0.369281 0.006727 0.045528
0.406346 0.007349 0.046114
0.443411 0.007971 0.046699
0.480477 0.008593 0.047284
0.517542 0.009215 0.047869
0.554608 0.009837 0.048455
0.591673 0.010459 0.049040
0.628739 0.011081 0.049625
0.665804 0.011703 0.050210
0.702869 0.012325 0.050796
0.739935 0.012947 0.051381
0.777000 0.013569 0.051966
0.814066 0.014192 0.052551
0.851131 0.014814 0.053137
0.888197 0.015436 0.053722
0.925262 0.016058 0.054307
0.962327 0.016680 0.054892
0.981874 0.017008 0.055201
0.981874 0.017008 0.055201
0.981874 0.017008 0.055201
0.000000 0.000000 0.039200
0.000000 0.000000 0.039200
0.000000 0.000000 0.039200
0.000000 0.000506 0.039676
0.035692 0.001128 0.040261
0.072757 0.001750 0.040846
0.109823 0.002372 0.041431
0.146888 0.002994 0.042017
0.183953 0.003616 0.042602
0.221019 0.004238 0.043187
0.258084 0.004860 0.043773
0.295150 0.005482 0.044358
0.332215 0.006104 0.044943
0.369281 0.006727 0.045528
0.406346 0.007349 0.046114
0.443411 0.007971 0.046699
0.480477 0.008593 0.047284
0.517542 0.009215 0.047869
0.554608 0.009837 0.048455
0.591673 0.010459 0.049040
0.628739 0.011081 0.049625
0.665804 0.011703 0.050210
0.702869 0.012325 0.050796
0.739935 0.012947 0.051381
0.777000 0.013569 0.051966
0.814066 0.014192 0.052551
0.851131 0.014814 0.053137
0.888197 0.015436 0.053722
0.925262 0.016058 0.054307
0.962327 0.016680 0.054892
0.981874 0.017008 0.055201
0.981874 0.017008 0.055201
0.981874 0.017008 0.055201
0.000000 0.000000 0.039200
0.000000 0.000000 0.039200
0.000000 0.000000 0.039200
0.000000 0.000506 0.039676
0.035692 0.001128 0.040261
0.072757 0.001750 0.040846
0.109823 0.002372 0.041431
0.146888 0.002994 0.042017
0.183953 0.003616 0.042602
0.221019 0.004238 0.043187
0.258084 0.004860 0.043773
0.295150 0.005482 0.044358
0.332215 0.006104 0.044943
0.369281 0.006727 0.045528
0.406346 0.007349 0.046114
0.443411 0.007971 0.046699
0.480477 0.008593 0.047284
0.517542 0.009215 0.047869
0.554608 0.009837 0.048455
0.591673 0.010459 0.049040
0.628739 0.011081 0.049625
0.665804 0.011703 0.050210
0.702869 0.012325 0.050796
0.739935 0.012947 0.051381
0.777000 0.013569 0.051966
0.814066 0.014192 0.052551
0.851131 0.014814 0.053137
0.888197 0.015436 0.053722
0.925262 0.016058 0.054307
0.962327 0.016680 0.054892
0.981874 0.017008 0.055201
0.981874 0.017008 0.055201
0.981874 0.017008 0.055201
0.000000 0.028095 0.040748
0.000000 0.028095 0.040748
0.000000 0.028095 0.040748
0.000405 0.028601 0.041223
0.037471 0.029223 0.041809
0.074536 0.029845 0.042394
0.111602 0.030467 0.042979
0.148667 0.031089 0.043564
0.185733 0.031711 0.044150
0.222798 0.032333 0.044735
0.259863 0.032955 0.045320
0.296929 0.033577 0.045905
0.333994 0.034199 0.046491
0.371060 0.034821 0.047076
0.408125 0.035444 0.047661
0.445190 0.036066 0.048246
0.482256 0.036688 0.048832
0.519321 0.037310 0.049417
0.556387 0.037932 0.050002
0.593452 0.038554 0.050587
0.630518 0.039176 0.051173
0.667583 0.039798 0.051758
0.704648 0.040420 0.052343
0.741714 0.041042 0.052928
0.778779 0.041664 0.053514
0.815845 0.042287 0.054099
0.852910 0.042909 0.054684
0.889976 0.043531 0.055270
0.927041 0.044153 0.055855
0.964106 0.044775 0.056440
0.983653 0.045103 0.056749
0.983653 0.045103 0.056749
0.983653 0.045103 0.056749
0.000000 0.063519 0.042699
0.000000 0.063519 0.042699
0.000000 0.063519 0.042699
0.002648 0.064025 0.043175
0.039714 0.064647 0.043760
0.076779 0.065269 0.044345
0.113845 0.065891 0.044930
0.150910 0.066513 0.045516
0.187976 0.067135 0.046101
0.225041 0.067757 0.046686
0.262106 0.068379 0.047271
0.299172 0.069001 0.047857
0.336237 0.069623 0.048442
0.373303 0.070246 0.049027
0.410368 0.070868 0.049612
0.447434 0.071490 0.050198
0.484499 0.072112 0.050783
0.521564 0.072734 0.051368
0.558630 0.073356 0.051953
0.595695 0.073978 0.052539
0.632761 0.074600 0.053124
0.669826 0.075222 0.053709
0.706892 0.075844 0.054295
0.743957 0.076466 0.054880
0.781022 0.077089 0.055465
0.818088 0.077711 0.056050
0.855153 0.078333 0.056636
0.892219 0.078955 0.057221
0.929284 0.079577 0.057806
0.966350 0.080199 0.058391
0.985896 0.080527 0.058700
0.985896 0.080527 0.058700
0.985896 0.080527 0.058700
0.000000 0.098943 0.044650
0.000000 0.098943 0.044650
0.000000 0.098943 0.044650
0.004892 0.099449 0.045126
0.041957 0.100071 0.045711
0.079022 0.100693 0.046296
0.116088 0.101315 0.046882
0.153153 0.101937 0.047467
0.190219 0.102559 0.048052
0.227284 0.103181 0.048637
0.264350 0.103803 0.049223
0.301415 0.104425 0.049808
0.338480 0.105048 0.050393
0.375546 0.105670 0.050978
0.412611 0.106292 0.051564
0.449677 0.106914 0.052149
0.486742 0.107536 0.052734
0.523808 0.108158 0.053320
0.560873 0.108780 0.053905
0.597938 0.109402 0.054490
0.635004 0.110024 0.055075
0.672069 0.110646 0.055661
0.709135 0.111268 0.056246
0.746200 0.111891 0.056831
0.783266 0.112513 0.057416
0.820331 0.113135 0.058002
0.857396 0.113757 0.058587
0.894462 0.114379 0.059172
0.931527 0.115001 0.059757
0.968593 0.115623 0.060343
0.988139 0.115951 0.060651
0.988139 0.115951 0.060651
0.988139 0.115951 0.060651
0.000000 0.134367 0.046601
0.000000 0.134367 0.046601
0.000000 0.134367 0.046601
0.007135 0.134873 0.047077
0.044200 0.135495 0.047662
0.081266 0.136117 0.048248
0.118331 0.136739 0.048833
0.155396 0.137361 0.049418
0.192462 0.137983 0.050003
0.229527 0.138605 0.050589
0.266593 0.139227 0.051174
0.303658 0.139850 0.051759
0.340724 0.140472 0.052345
0.377789 0.141094 0.052930
0.414854 0.141716 0.053515
0.451920 0.142338 0.054100
0.488985 0.142960 0.054686
0.526051 0.143582 0.055271
0.563116 0.144204 0.055856
0.600182 0.144826 0.056441
0.637247 0.145448 0.057027
0.674312 0.146070 0.057612
0.711378 0.146693 0.058197
0.748443 0.147315 0.058782
0.785509 0.147937 0.059368
0.822574 0.148559 0.059953
0.859640 0.149181 0.060538
0.896705 0.149803 0.061123
0.933770 0.150425 0.061709
0.970836 0.151047 0.062294
0.990383 0.151375 0.062603
0.990383 0.151375 0.062603
0.990383 0.151375 0.062603
0.000000 0.169791 0.048553
0.000000 0.169791 0.048553
0.000000 0.169791 0.048553
0.009378 0.170297 0.049028
0.046443 0.170919 0.049614
0.083509 0.171541 0.050199
0.120574 0.172163 0.050784
0.157640 0.172785 0.051369
0.194705 0.173407 0.051955
0.231770 0.174029 0.052540
0.268836 0.174652 0.053125
0.305901 0.175274 0.053711
0.342967 0.175896 0.054296
0.380032 0.176518 0.054881
0.417098 0.177140 0.055466
0.454163 0.177762 0.056052
0.491228 0.178384 0.056637
0.528294 0.179006 0.057222
0.565359 0.179628 0.057807
0.602425 0.180250 0.058393
0.639490 0.180872 0.058978
0.676556 0.181495 0.059563
0.713621 0.182117 0.060148
0.750686 0.182739 0.060734
0.787752 0.183361 0.061319
0.824817 0.183983 0.061904
0.861883 0.184605 0.062489
0.898948 0.185227 0.063075
0.936013 0.185849 0.063660
0.973079 0.186471 0.064245
0.992626 0.186799 0.064554
0.992626 0.186799 0.064554
0.992626 0.186799 0.064554
0.000000 0.205215 0.050504
0.000000 0.205215 0.050504
0.000000 0.205215 0.050504
0.011621 0.205721 0.050980
0.048686 0.206343 0.051565
0.085752 0.206965 0.052150
0.122817 0.207587 0.052736
0.159883 0.208209 0.053321
0.196948 0.208831 0.053906
0.234014 0.209454 0.054491
0.271079 0.210076 0.055077
0.308144 0.210698 0.055662
0.345210 0.211320 0.056247
0.382275 0.211942 0.056832
0.419341 0.212564 0.057418
0.456406 0.213186 0.058003
0.493472 0.213808 0.058588
0.530537 0.214430 0.059173
0.567602 0.215052 0.059759
0.604668 0.215674 0.060344
0.641733 0.216296 0.060929
0.678799 0.216919 0.061514
0.715864 0.217541 0.062100
0.752929 0.218163 0.062685
0.789995 0.218785 0.063270
0.827060 0.219407 0.063855
0.864126 0.220029 0.064441
0.901191 0.220651 0.065026
0.938257 0.221273 0.065611
0.975322 0.221895 0.066197
0.994869 0.222223 0.066505
0.994869 0.222223 0.066505
0.994869 0.222223 0.066505
0.000000 0.240639 0.052455
0.000000 0.240639 0.052455
0.000000 0.240639 0.052455
0.013864 0.241145 0.052931
0.050930 0.241767 0.053516
0.087995 0.242389 0.054102
0.125060 0.243011 0.054687
0.162126 0.243633 0.055272
0.199191 0.244256 0.055857
0.236257 0.244878 0.056443
0.273322 0.245500 0.057028
0.310387 0.246122 0.057613
0.347453 0.246744 0.058198
0.384518 0.247366 0.058784
0.421584 0.247988 0.059369
0.458649 0.248610 0.059954
0.495715 0.249232 0.060539
0.532780 0.249854 0.061125
0.569845 0.250476 0.061710
0.606911 0.251098 0.062295
0.643976 0.251721 0.062880
0.681042 0.252343 0.063466
0.718107 0.252965 0.064051
0.755173 0.253587 0.064636
0.792238 0.254209 0.065222
0.829303 0.254831 0.065807
0.866369 0.255453 0.066392
0.903434 0.256075 0.066977
0.940500 0.256697 0.067563
0.977565 0.257319 0.068148
0.997112 0.257647 0.068456
0.997112 0.257647 0.068456
0.997112 0.257647 0.068456
0.000000 0.276064 0.054407
0.000000 0.276064 0.054407
0.000000 0.276064 0.054407
0.016107 0.276569 0.054882
0.053173 0.277191 0.055468
0.090238 0.277813 0.056053
0.127303 0.278435 0.056638
0.164369 0.279058 0.057223
0.201434 0.279680 0.057809
0.238500 0.280302 0.058394
0.275565 0.280924 0.058979
0.312631 0.281546 0.059564
0.349696 0.282168 0.060150
0.386761 0.282790 0.060735
0.423827 0.283412 0.061320
0.460892 0.284034 0.061905
0.497958 0.284656 0.062491
0.535023 0.285278 0.063076
0.572089 0.285900 0.063661
0.609154 0.286523 0.064247
0.646219 0.287145 0.064832
0.683285 0.287767 0.065417
0.720350 0.288389 0.066002
0.757416 0.289011 0.066588
0.794481 0.289633 0.067173
0.831547 0.290255 0.067758
0.868612 0.290877 0.068343
0.905677 0.291499 0.068929
0.942743 0.292121 0.069514
0.979808 0.292743 0.070099
0.999355 0.293072 0.070408
0.999355 0.293072 0.070408
0.999355 0.293072 0.070408
0.000000 0.311488 0.056358
0.000000 0.311488 0.056358
0.000000 0.311488 0.056358
0.018350 0.311993 0.056834
0.055416 0.312615 0.057419
0.092481 0.313237 0.058004
0.129547 0.313859 0.058589
0.166612 0.314482 0.059175
0.203677 0.315104 0.059760
0.240743 0.315726 0.060345
0.277808 0.316348 0.060930
0.314874 0.316970 0.061516
0.351939 0.317592 0.062101
0.389005 0.318214 0.062686
0.426070 0.318836 0.063272
0.463135 0.319458 0.063857
0.500201 0.320080 0.064442
0.537266 0.320702 0.065027
0.574332 0.321325 0.065613
0.611397 0.321947 0.066198
0.648463 0.322569 0.066783
0.685528 0.323191 0.067368
0.722593 0.323813 0.067954
0.759659 0.324435 0.068539
0.796724 0.325057 0.069124
0.833790 0.325679 0.069709
0.870855 0.326301 0.070295
0.907921 0.326923 0.070880
0.944986 0.327545 0.071465
0.982051 0.328168 0.072050
1.000000 0.328496 0.072359
1.000000 0.328496 0.072359
1.000000 0.328496 0.072359
0.000000 0.346912 0.058309
0.000000 0.346912 0.058309
0.000000 0.346912 0.058309
0.020593 0.347417 0.058785
0.057659 0.348039 0.059370
0.094724 0.348661 0.059955
0.131790 0.349284 0.060541
0.168855 0.349906 0.061126
0.205921 0.350528 0.061711
0.242986 0.351150 0.062296
0.280051 0.351772 0.062882
0.317117 0.352394 0.063467
0.354182 0.353016 0.064052
0.391248 0.353638 0.064638
0.428313 0.354260 0.065223
0.465379 0.354882 0.065808
0.502444 0.355504 0.066393
0.539509 0.356127 0.066979
0.576575 0.356749 0.067564
0.613640 0.357371 0.068149
0.650706 0.357993 0.068734
0.687771 0.358615 0.069320
0.724837 0.359237 0.069905
0.761902 0.359859 0.070490
0.798967 0.360481 0.071075
0.836033 0.361103 0.071661
0.873098 0.361725 0.072246
0.910164 0.362347 0.072831
0.947229 0.362970 0.073416
0.984295 0.363592 0.074002
1.000000 0.363920 0.074310
1.000000 0.363920 0.074310
1.000000 0.363920 0.074310
0.000000 0.382336 0.060261
0.000000 0.382336 0.060261
0.000000 0.382336 0.060261
0.022837 0.382841 0.060736
0.059902 0.383463 0.061321
0.096967 0.384086 0.061907
0.134033 0.384708 0.062492
0.171098 0.385330 0.063077
0.208164 0.385952 0.063663
0.245229 0.386574 0.064248
0.282295 0.387196 0.064833
0.319360 0.387818 0.065418
0.356425 0.388440 0.066004
0.393491 0.389062 0.066589
0.430556 0.389684 0.067174
0.467622 0.390306 0.067759
0.504687 0.390929 0.068345
0.541753 0.391551 0.068930
0.578818 0.392173 0.069515
0.615883 0.392795 0.070100
0.652949 0.393417 0.070686
0.690014 0.394039 0.071271
0.727080 0.394661 0.071856
0.764145 0.395283 0.072441
0.801210 0.395905 0.073027
0.838276 0.396527 0.073612
0.875341 0.397149 0.074197
0.912407 0.397772 0.074782
0.949472 0.398394 0.075368
0.986538 0.399016 0.075953
1.000000 0.399344 0.076262
1.000000 0.399344 0.076262
1.000000 0.399344 0.076262
0.000000 0.417760 0.062212
0.000000 0.417760 0.062212
0.000000 0.417760 0.062212
0.025080 0.418265 0.062688
0.062145 0.418888 0.063273
0.099211 0.419510 0.063858
0.136276 0.420132 0.064443
0.173341 0.420754 0.065029
0.210407 0.421376 0.065614
0.247472 0.421998 0.066199
0.284538 0.422620 0.066784
0.321603 0.423242 0.067370
0.358669 0.423864 0.067955
0.395734 0.424486 0.068540
0.432799 0.425108 0.069125
0.469865 0.425731 0.069711
0.506930 0.426353 0.070296
0.543996 0.426975 0.070881
0.581061 0.427597 0.071466
0.618126 0.428219 0.072052
0.655192 0.428841 0.072637
0.692257 0.429463 0.073222
0.729323 0.430085 0.073807
0.766388 0.430707 0.074393
0.803454 0.431329 0.074978
0.840519 0.431951 0.075563
0.877584 0.432574 0.076149
0.914650 0.433196 0.076734
0.951715 0.433818 0.077319
0.988781 0.434440 0.077904
1.000000 0.434768 0.078213
1.000000 0.434768 0.078213
1.000000 0.434768 0.078213
0.000000 0.453184 0.064163
0.000000 0.453184 0.064163
0.000000 0.453184 0.064163
0.027323 0.453690 0.064639
0.064388 0.454312 0.065224
0.101454 0.454934 0.065809
0.138519 0.455556 0.066395
0.175584 0.456178 0.066980
0.212650 0.456800 0.067565
0.249715 0.457422 0.068150
0.286781 0.458044 0.068736
0.323846 0.458666 0.069321
0.360912 0.459288 0.069906
0.397977 0.459910 0.070491
0.435042 0.460533 0.071077
0.472108 0.461155 0.071662
0.509173 0.461777 0.072247
0.546239 0.462399 0.072832
0.583304 0.463021 0.073418
0.620370 0.463643 0.074003
0.657435 0.464265 0.074588
0.694500 0.464887 0.075174
0.731566 0.465509 0.075759
0.768631 0.466131 0.076344
0.805697 0.466753 0.076929
0.842762 0.467376 0.077515
0.879828 0.467998 0.078100
0.916893 0.468620 0.078685
0.953958 0.469242 0.079270
0.991024 0.469864 0.079856
1.000000 0.470192 0.080164
1.000000 0.470192 0.080164
1.000000 0.470192 0.080164
0.000000 0.488608 0.066114
0.000000 0.488608 0.066114
0.000000 0.488608 0.066114
0.029566 0.489114 0.066590
0.066631 0.489736 0.067175
0.103697 0.490358 0.067761
0.140762 0.490980 0.068346
0.177828 0.491602 0.068931
0.214893 0.492224 0.069516
0.251958 0.492846 0.070102
0.289024 0.493468 0.070687
0.326089 0.494090 0.071272
0.363155 0.494712 0.071857
0.400220 0.495335 0.072443
0.437286 0.495957 0.073028
0.474351 0.496579 0.073613
0.511416 0.497201 0.074198
0.548482 0.497823 0.074784
0.585547 0.498445 0.075369
0.622613 0.499067 0.075954
0.659678 0.499689 0.076540
0.696744 0.500311 0.077125
0.733809 0.500933 0.077710
0.770874 0.501555 0.078295
0.807940 0.502177 0.078881
0.845005 0.502800 0.079466
0.882071 0.503422 0.080051
0.919136 0.504044 0.080636
0.956202 0.504666 0.081222
0.993267 0.505288 0.081807
1.000000 0.505616 0.082116
1.000000 0.505616 0.082116
1.000000 0.505616 0.082116
0.001683 0.524032 0.068066
0.001683 0.524032 0.068066
0.001683 0.524032 0.068066
0.031809 0.524538 0.068541
0.068874 0.525160 0.069127
0.105940 0.525782 0.069712
0.143005 0.526404 0.070297
0.180071 0.527026 0.070882
0.217136 0.527648 0.071468
0.254202 0.528270 0.072053
0.291267 0.528892 0.072638
0.328332 0.529514 0.073223
0.365398 0.530137 0.073809
0.402463 0.530759 0.074394
0.439529 0.531381 0.074979
0.476594 0.532003 0.075565
0.513660 0.532625 0.076150
0.550725 0.533247 0.076735
0.587790 0.533869 0.077320
0.624856 0.534491 0.077906
0.661921 0.535113 0.078491
0.698987 0.535735 0.079076
0.736052 0.536357 0.079661
0.773118 0.536979 0.080247
0.810183 0.537602 0.080832
0.847248 0.538224 0.081417
0.884314 0.538846 0.082002
0.921379 0.539468 0.082588
0.958445 0.540090 0.083173
0.995510 0.540712 0.083758
1.000000 0.541040 0.084067
1.000000 0.541040 0.084067
1.000000 0.541040 0.084067
0.003926 0.559456 0.070017
0.003926 0.559456 0.070017
0.003926 0.559456 0.070017
0.034052 0.559962 0.070493
0.071118 0.560584 0.071078
0.108183 0.561206 0.071663
0.145248 0.561828 0.072248
0.182314 0.562450 0.072834
0.219379 0.563072 0.073419
0.256445 0.563694 0.074004
0.293510 0.564316 0.074590
0.330576 0.564938 0.075175
0.367641 0.565561 0.075760
0.404706 0.566183 0.076345
0.441772 0.566805 0.076931
0.478837 0.567427 0.077516
0.515903 0.568049 0.078101
0.552968 0.568671 0.078686
0.590034 0.569293 0.079272
0.627099 0.569915 0.079857
0.664164 0.570537 0.080442
0.701230 0.571159 0.081027
0.738295 0.571781 0.081613
0.775361 0.572404 0.082198
0.812426 0.573026 0.082783
0.849492 0.573648 0.083368
0.886557 0.574270 0.083954
0.923622 0.574892 0.084539
0.960688 0.575514 0.085124
0.997753 0.576136 0.085709
1.000000 0.576464 0.086018
1.000000 0.576464 0.086018
1.000000 0.576464 0.086018
0.006169 0.594880 0.071968
0.006169 0.594880 0.071968
0.006169 0.594880 0.071968
0.036295 0.595386 0.072444
0.073361 0.596008 0.073029
0.110426 0.596630 0.073615
0.147492 0.597252 0.074200
0.184557 0.597874 0.074785
0.221622 0.598496 0.075370
0.258688 0.599118 0.075956
0.295753 0.599740 0.076541
0.332819 0.600363 0.077126
0.369884 0.600985 0.077711
0.406950 0.601607 0.078297
0.444015 0.602229 0.078882
0.481080 0.602851 0.079467
0.518146 0.603473 0.080052
0.555211 0.604095 0.080638
0.592277 0.604717 0.081223
0.629342 0.605339 0.081808
0.666407 0.605961 0.082393
0.703473 0.606583 0.082979
0.740538 0.607206 0.083564
0.777604 0.607828 0.084149
0.814669 0.608450 0.084734
0.851735 0.609072 0.085320
0.888800 0.609694 0.085905
0.925865 0.610316 0.086490
0.962931 0.610938 0.087076
0.999996 0.611560 0.087661
1.000000 0.611888 0.087969
1.000000 0.611888 0.087969
1.000000 0.611888 0.087969
0.008412 0.630304 0.073920
0.008412 0.630304 0.073920
0.008412 0.630304 0.073920
0.038538 0.630810 0.074395
0.075604 0.631432 0.074981
0.112669 0.632054 0.075566
0.149735 0.632676 0.076151
0.186800 0.633298 0.076736
0.223866 0.633920 0.077322
0.260931 0.634542 0.077907
0.297996 0.635165 0.078492
0.335062 0.635787 0.079077
0.372127 0.636409 0.079663
0.409193 0.637031 0.080248
0.446258 0.637653 0.080833
0.483323 0.638275 0.081418
0.520389 0.638897 0.082004
0.557454 0.639519 0.082589
0.594520 0.640141 0.083174
0.631585 0.640763 0.083759
0.668651 0.641385 0.084345
0.705716 0.642008 0.084930
0.742781 0.642630 0.085515
0.779847 0.643252 0.086101
0.816912 0.643874 0.086686
0.853978 0.644496 0.087271
0.891043 0.645118 0.087856
0.928109 0.645740 0.088442
0.965174 0.646362 0.089027
1.000000 0.646984 0.089612
1.000000 0.647312 0.089921
1.000000 0.647312 0.089921
1.000000 0.647312 0.089921
0.010655 0.665728 0.075871
0.010655 0.665728 0.075871
0.010655 0.665728 0.075871
0.040781 0.666234 0.076347
0.077847 0.666856 0.076932
0.114912 0.667478 0.077517
0.151978 0.668100 0.078102
0.189043 0.668722 0.078688
0.226109 0.669344 0.079273
0.263174 0.669967 0.079858
0.300239 0.670589 0.080443
0.337305 0.671211 0.081029
0.374370 0.671833 0.081614
0.411436 0.672455 0.082199
0.448501 0.673077 0.082784
0.485567 0.673699 0.083370
0.522632 0.674321 0.083955
0.559697 0.674943 0.084540
0.596763 0.675565 0.085125
0.633828 0.676187 0.085711
0.670894 0.676810 0.086296
0.707959 0.677432 0.086881
0.745025 0.678054 0.087467
0.782090 0.678676 0.088052
0.819155 0.679298 0.088637
0.856221 0.679920 0.089222
0.893286 0.680542 0.089808
0.930352 0.681164 0.090393
0.967417 0.681786 0.090978
1.000000 0.682408 0.091563
1.000000 0.682736 0.091872
1.000000 0.682736 0.091872
1.000000 0.682736 0.091872
0.012898 0.701152 0.077822
0.012898 0.701152 0.077822
0.012898 0.701152 0.077822
0.043025 0.701658 0.078298
0.080090 0.702280 0.078883
0.117155 0.702902 0.079468
0.154221 0.703524 0.080054
0.191286 0.704146 0.080639
0.228352 0.704769 0.081224
0.265417 0.705391 0.081809
0.302483 0.706013 0.082395
0.339548 0.706635 0.082980
0.376613 0.707257 0.083565
0.413679 0.707879 0.084150
0.450744 0.708501 0.084736
0.487810 0.709123 0.085321
0.524875 0.709745 0.085906
0.561941 0.710367 0.086492
0.599006 0.710989 0.087077
0.636071 0.711612 0.087662
0.673137 0.712234 0.088247
0.710202 0.712856 0.088833
0.747268 0.713478 0.089418
0.784333 0.714100 0.090003
0.821399 0.714722 0.090588
0.858464 0.715344 0.091174
0.895529 0.715966 0.091759
0.932595 0.716588 0.092344
0.969660 0.717210 0.092929
1.000000 0.717832 0.093515
1.000000 0.718160 0.093823
1.000000 0.718160 0.093823
1.000000 0.718160 0.093823
0.015141 0.736577 0.079773
0.015141 0.736577 0.079773
0.015141 0.736577 0.079773
0.045268 0.737082 0.080249
0.082333 0.737704 0.080834
0.119399 0.738326 0.081420
0.156464 0.738948 0.082005
0.193529 0.739571 0.082590
0.230595 0.740193 0.083175
0.267660 0.740815 0.083761
0.304726 0.741437 0.084346
0.341791 0.742059 0.084931
0.378857 0.742681 0.085517
0.415922 0.743303 0.086102
0.452987 0.743925 0.086687
0.490053 0.744547 0.087272
0.527118 0.745169 0.087858
0.564184 0.745791 0.088443
0.601249 0.746414 0.089028
0.638315 0.747036 0.089613
0.675380 0.747658 0.090199
0.712445 0.748280 0.090784
0.749511 0.748902 0.091369
0.786576 0.749524 0.091954
0.823642 0.750146 0.092540
0.860707 0.750768 0.093125
0.897773 0.751390 0.093710
0.934838 0.752012 0.094295
0.971903 0.752634 0.094881
1.000000 0.753256 0.095466
1.000000 0.753585 0.095775
1.000000 0.753585 0.095775
1.000000 0.753585 0.095775
0.017384 0.772001 0.081725
0.017384 0.772001 0.081725
0.017384 0.772001 0.081725
0.047511 0.772506 0.082200
0.084576 0.773128 0.082786
0.121642 0.773750 0.083371
0.158707 0.774373 0.083956
0.195773 0.774995 0.084542
0.232838 0.775617 0.085127
0.269903 0.776239 0.085712
0.306969 0.776861 0.086297
0.344034 0.777483 0.086883
0.381100 0.778105 0.087468
0.418165 0.778727 0.088053
0.455231 0.779349 0.088638
0.492296 0.779971 0.089224
0.529361 0.780593 0.089809
0.566427 0.781216 0.090394
0.603492 0.781838 0.090979
0.640558 0.782460 0.091565
0.677623 0.783082 0.092150
0.714689 0.783704 0.092735
0.751754 0.784326 0.093320
0.788819 0.784948 0.093906
0.825885 0.785570 0.094491
0.862950 0.786192 0.095076
0.900016 0.786814 0.095661
0.937081 0.787436 0.096247
0.974146 0.788058 0.096832
1.000000 0.788681 0.097417
1.000000 0.789009 0.097726
1.000000 0.789009 0.097726
1.000000 0.789009 0.097726
0.019628 0.807425 0.083676
0.019628 0.807425 0.083676
0.019628 0.807425 0.083676
0.049754 0.807930 0.084152
0.086819 0.808552 0.084737
0.123885 0.809175 0.085322
0.160950 0.809797 0.085908
0.198016 0.810419 0.086493
0.235081 0.811041 0.087078
0.272147 0.811663 0.087663
0.309212 0.812285 0.088249
0.346277 0.812907 0.088834
0.383343 0.813529 0.089419
0.420408 0.814151 0.090004
0.457474 0.814773 0.090590
0.494539 0.815395 0.091175
0.531604 0.816018 0.091760
0.568670 0.816640 0.092345
0.605735 0.817262 0.092931
0.642801 0.817884 0.093516
0.679866 0.818506 0.094101
0.716932 0.819128 0.094686
0.753997 0.819750 0.095272
0.791062 0.820372 0.095857
0.828128 0.820994 0.096442
0.865193 0.821616 0.097027
0.902259 0.822238 0.097613
0.939324 0.822860 0.098198
0.976390 0.823483 0.098783
1.000000 0.824105 0.099369
1.000000 0.824433 0.099677
1.000000 0.824433 0.099677
1.000000 0.824433 0.099677
0.021871 0.842849 0.085627
0.021871 0.842849 0.085627
0.021871 0.842849 0.085627
0.051997 0.843354 0.086103
0.089063 0.843977 0.086688
0.126128 0.844599 0.087274
0.163193 0.845221 0.087859
0.200259 0.845843 0.088444
0.237324 0.846465 0.089029
0.274390 0.847087 0.089615
0.311455 0.847709 0.090200
0.348520 0.848331 0.090785
0.385586 0.848953 0.091370
0.422651 0.849575 0.091956
0.459717 0.850197 0.092541
0.496782 0.850819 0.093126
0.533848 0.851442 0.093711
0.570913 0.852064 0.094297
0.607978 0.852686 0.094882
0.645044 0.853308 0.095467
0.682109 0.853930 0.096052
0.719175 0.854552 0.096638
0.756240 0.855174 0.097223
0.793306 0.855796 0.097808
0.830371 0.856418 0.098394
0.867436 0.857040 0.098979
0.904502 0.857662 0.099564
0.941567 0.858285 0.100149
