presets/luts/film-warm/film-warm.cube
# akari-video catalog LUT: film-warm
LUT_3D_SIZE 33
0.056963 0.050141 0.043436
0.086853 0.050331 0.043619
0.116744 0.050520 0.043803
0.146635 0.050710 0.043986
0.176526 0.050900 0.044169
0.206417 0.051090 0.044352
0.236307 0.051279 0.044535
0.266198 0.051469 0.044718
0.296089 0.051659 0.044902
0.325980 0.051848 0.045085
0.355871 0.052038 0.045268
0.385761 0.052228 0.045451
0.415652 0.052418 0.045634
0.445543 0.052607 0.045817
0.475434 0.052797 0.046001
0.505325 0.052987 0.046184
0.535215 0.053176 0.046367
0.565106 0.053366 0.046550
0.594997 0.053556 0.046733
0.624888 0.053746 0.046916
0.654779 0.053935 0.047100
0.684669 0.054125 0.047283
0.714560 0.054315 0.047466
0.744451 0.054504 0.047649
0.774342 0.054694 0.047832
0.804233 0.054884 0.048015
0.834123 0.055074 0.048199
0.864014 0.055263 0.048382
0.893905 0.055453 0.048565
0.923796 0.055643 0.048748
0.953687 0.055832 0.048931
0.983577 0.056022 0.049114
0.996555 0.056105 0.049194
0.057608 0.079111 0.044042
0.087499 0.079300 0.044225
0.117389 0.079490 0.044408
0.147280 0.079680 0.044591
0.177171 0.079870 0.044774
0.207062 0.080059 0.044957
0.236953 0.080249 0.045141
0.266843 0.080439 0.045324
0.296734 0.080628 0.045507
0.326625 0.080818 0.045690
0.356516 0.081008 0.045873
0.386407 0.081198 0.046056
0.416297 0.081387 0.046240
0.446188 0.081577 0.046423
0.476079 0.081767 0.046606
0.505970 0.081956 0.046789
0.535861 0.082146 0.046972
0.565751 0.082336 0.047155
0.595642 0.082526 0.047339
0.625533 0.082715 0.047522
0.655424 0.082905 0.047705
0.685315 0.083095 0.047888
0.715205 0.083284 0.048071
0.745096 0.083474 0.048254
0.774987 0.083664 0.048438
0.804878 0.083854 0.048621
0.834769 0.084043 0.048804
0.864659 0.084233 0.048987
0.894550 0.084423 0.049170
0.924441 0.084612 0.049353
0.954332 0.084802 0.049537
0.984223 0.084992 0.049720
0.997201 0.085074 0.049799
0.058253 0.108080 0.044647
0.088144 0.108270 0.044830
0.118035 0.108460 0.045013
0.147925 0.108649 0.045196
0.177816 0.108839 0.045380
0.207707 0.109029 0.045563
0.237598 0.109219 0.045746
0.267489 0.109408 0.045929
0.297379 0.109598 0.046112
0.327270 0.109788 0.046295
0.357161 0.109977 0.046479
0.387052 0.110167 0.046662
0.416943 0.110357 0.046845
0.446833 0.110547 0.047028
0.476724 0.110736 0.047211
0.506615 0.110926 0.047394
0.536506 0.111116 0.047578
0.566397 0.111305 0.047761
0.596287 0.111495 0.047944
0.626178 0.111685 0.048127
0.656069 0.111875 0.048310
0.685960 0.112064 0.048493
0.715851 0.112254 0.048677
0.745741 0.112444 0.048860
0.775632 0.112633 0.049043
0.805523 0.112823 0.049226
0.835414 0.113013 0.049409
0.865305 0.113203 0.049592
0.895195 0.113392 0.049776
0.925086 0.113582 0.049959
0.954977 0.113772 0.050142
0.984868 0.113961 0.050325
0.997846 0.114044 0.050405
0.058898 0.137050 0.045252
0.088789 0.137240 0.045435
0.118680 0.137429 0.045618
0.148571 0.137619 0.045802
0.178461 0.137809 0.045985
0.208352 0.137999 0.046168
0.238243 0.138188 0.046351
0.268134 0.138378 0.046534
0.298025 0.138568 0.046717
0.327915 0.138757 0.046901
0.357806 0.138947 0.047084
0.387697 0.139137 0.047267
0.417588 0.139327 0.047450
0.447479 0.139516 0.047633
0.477369 0.139706 0.047816
0.507260 0.139896 0.048000
0.537151 0.140085 0.048183
0.567042 0.140275 0.048366
0.596933 0.140465 0.048549
0.626823 0.140655 0.048732
0.656714 0.140844 0.048916
0.686605 0.141034 0.049099
0.716496 0.141224 0.049282
0.746387 0.141413 0.049465
0.776277 0.141603 0.049648
0.806168 0.141793 0.049831
0.836059 0.141983 0.050015
0.865950 0.142172 0.050198
0.895841 0.142362 0.050381
0.925731 0.142552 0.050564
0.955622 0.142741 0.050747
0.985513 0.142931 0.050930
0.998491 0.143014 0.051010
0.059543 0.166020 0.045857
0.089434 0.166209 0.046041
0.119325 0.166399 0.046224
0.149216 0.166589 0.046407
0.179107 0.166779 0.046590
0.208997 0.166968 0.046773
0.238888 0.167158 0.046956
0.268779 0.167348 0.047140
0.298670 0.167537 0.047323
0.328561 0.167727 0.047506
0.358451 0.167917 0.047689
0.388342 0.168107 0.047872
0.418233 0.168296 0.048055
0.448124 0.168486 0.048239
0.478015 0.168676 0.048422
0.507905 0.168865 0.048605
0.537796 0.169055 0.048788
0.567687 0.169245 0.048971
0.597578 0.169435 0.049154
0.627469 0.169624 0.049338
0.657359 0.169814 0.049521
0.687250 0.170004 0.049704
0.717141 0.170193 0.049887
0.747032 0.170383 0.050070
0.776923 0.170573 0.050253
0.806813 0.170763 0.050437
0.836704 0.170952 0.050620
0.866595 0.171142 0.050803
0.896486 0.171332 0.050986
0.926377 0.171521 0.051169
0.956267 0.171711 0.051352
0.986158 0.171901 0.051536
0.999136 0.171983 0.051615
0.060189 0.194989 0.046463
0.090079 0.195179 0.046646
0.119970 0.195369 0.046829
0.149861 0.195558 0.047012
0.179752 0.195748 0.047195
0.209643 0.195938 0.047379
0.239534 0.196128 0.047562
0.269424 0.196317 0.047745
0.299315 0.196507 0.047928
0.329206 0.196697 0.048111
0.359097 0.196886 0.048294
0.388988 0.197076 0.048478
0.418878 0.197266 0.048661
0.448769 0.197456 0.048844
0.478660 0.197645 0.049027
0.508551 0.197835 0.049210
0.538442 0.198025 0.049393
0.568332 0.198214 0.049577
0.598223 0.198404 0.049760
0.628114 0.198594 0.049943
0.658005 0.198784 0.050126
0.687896 0.198973 0.050309
0.717786 0.199163 0.050492
0.747677 0.199353 0.050676
0.777568 0.199542 0.050859
0.807459 0.199732 0.051042
0.837350 0.199922 0.051225
0.867240 0.200112 0.051408
0.897131 0.200301 0.051591
0.927022 0.200491 0.051775
0.956913 0.200681 0.051958
0.986804 0.200870 0.052141
0.999782 0.200953 0.052220
0.060834 0.223959 0.047068
0.090725 0.224149 0.047251
0.120616 0.224338 0.047434
0.150506 0.224528 0.047618
0.180397 0.224718 0.047801
0.210288 0.224908 0.047984
0.240179 0.225097 0.048167
0.270070 0.225287 0.048350
0.299960 0.225477 0.048533
0.329851 0.225666 0.048717
0.359742 0.225856 0.048900
0.389633 0.226046 0.049083
0.419524 0.226236 0.049266
0.449414 0.226425 0.049449
0.479305 0.226615 0.049632
0.509196 0.226805 0.049816
0.539087 0.226994 0.049999
0.568978 0.227184 0.050182
0.598868 0.227374 0.050365
0.628759 0.227564 0.050548
0.658650 0.227753 0.050731
0.688541 0.227943 0.050915
0.718432 0.228133 0.051098
0.748322 0.228322 0.051281
0.778213 0.228512 0.051464
0.808104 0.228702 0.051647
0.837995 0.228892 0.051830
0.867886 0.229081 0.052014
0.897776 0.229271 0.052197
0.927667 0.229461 0.052380
0.957558 0.229650 0.052563
0.987449 0.229840 0.052746
1.000000 0.229923 0.052826
0.061479 0.252929 0.047673
0.091370 0.253118 0.047856
0.121261 0.253308 0.048040
0.151152 0.253498 0.048223
0.181042 0.253687 0.048406
0.210933 0.253877 0.048589
0.240824 0.254067 0.048772
0.270715 0.254257 0.048955
0.300606 0.254446 0.049139
0.330496 0.254636 0.049322
0.360387 0.254826 0.049505
0.390278 0.255016 0.049688
0.420169 0.255205 0.049871
0.450060 0.255395 0.050055
0.479950 0.255585 0.050238
0.509841 0.255774 0.050421
0.539732 0.255964 0.050604
0.569623 0.256154 0.050787
0.599514 0.256344 0.050970
0.629404 0.256533 0.051154
0.659295 0.256723 0.051337
0.689186 0.256913 0.051520
0.719077 0.257102 0.051703
0.748968 0.257292 0.051886
0.778858 0.257482 0.052069
0.808749 0.257672 0.052253
0.838640 0.257861 0.052436
0.868531 0.258051 0.052619
0.898422 0.258241 0.052802
0.928312 0.258430 0.052985
0.958203 0.258620 0.053168
0.988094 0.258810 0.053352
1.000000 0.258892 0.053431
0.062124 0.281898 0.048279
0.092015 0.282088 0.048462
0.121906 0.282278 0.048645
0.151797 0.282467 0.048828
0.181688 0.282657 0.049011
0.211578 0.282847 0.049194
0.241469 0.283037 0.049378
0.271360 0.283226 0.049561
0.301251 0.283416 0.049744
0.331142 0.283606 0.049927
0.361032 0.283795 0.050110
0.390923 0.283985 0.050293
0.420814 0.284175 0.050477
0.450705 0.284365 0.050660
0.480596 0.284554 0.050843
0.510486 0.284744 0.051026
0.540377 0.284934 0.051209
0.570268 0.285123 0.051392
0.600159 0.285313 0.051576
0.630050 0.285503 0.051759
0.659940 0.285693 0.051942
0.689831 0.285882 0.052125
0.719722 0.286072 0.052308
0.749613 0.286262 0.052491
0.779504 0.286451 0.052675
0.809394 0.286641 0.052858
0.839285 0.286831 0.053041
0.869176 0.287021 0.053224
0.899067 0.287210 0.053407
0.928958 0.287400 0.053591
0.958848 0.287590 0.053774
0.988739 0.287779 0.053957
1.000000 0.287862 0.054036
0.062770 0.310868 0.048884
0.092660 0.311058 0.049067
0.122551 0.311247 0.049250
0.152442 0.311437 0.049433
0.182333 0.311627 0.049617
0.212224 0.311817 0.049800
0.242114 0.312006 0.049983
0.272005 0.312196 0.050166
0.301896 0.312386 0.050349
0.331787 0.312575 0.050532
0.361678 0.312765 0.050716
0.391568 0.312955 0.050899
0.421459 0.313145 0.051082
0.451350 0.313334 0.051265
0.481241 0.313524 0.051448
0.511132 0.313714 0.051631
0.541022 0.313903 0.051815
0.570913 0.314093 0.051998
0.600804 0.314283 0.052181
0.630695 0.314473 0.052364
0.660586 0.314662 0.052547
0.690476 0.314852 0.052730
0.720367 0.315042 0.052914
0.750258 0.315231 0.053097
0.780149 0.315421 0.053280
0.810040 0.315611 0.053463
0.839930 0.315801 0.053646
0.869821 0.315990 0.053829
0.899712 0.316180 0.054013
0.929603 0.316370 0.054196
0.959494 0.316559 0.054379
0.989384 0.316749 0.054562
1.000000 0.316832 0.054642
0.063415 0.339838 0.049489
0.093306 0.340027 0.049672
0.123196 0.340217 0.049856
0.153087 0.340407 0.050039
0.182978 0.340596 0.050222
0.212869 0.340786 0.050405
0.242760 0.340976 0.050588
0.272650 0.341166 0.050771
0.302541 0.341355 0.050955
0.332432 0.341545 0.051138
0.362323 0.341735 0.051321
0.392214 0.341924 0.051504
0.422105 0.342114 0.051687
0.451995 0.342304 0.051870
0.481886 0.342494 0.052054
0.511777 0.342683 0.052237
0.541668 0.342873 0.052420
0.571559 0.343063 0.052603
0.601449 0.343253 0.052786
0.631340 0.343442 0.052969
0.661231 0.343632 0.053153
0.691122 0.343822 0.053336
0.721013 0.344011 0.053519
0.750903 0.344201 0.053702
0.780794 0.344391 0.053885
0.810685 0.344581 0.054068
0.840576 0.344770 0.054252
0.870467 0.344960 0.054435
0.900357 0.345150 0.054618
0.930248 0.345339 0.054801
0.960139 0.345529 0.054984
0.990030 0.345719 0.055167
1.000000 0.345801 0.055247
0.064060 0.368807 0.050095
0.093951 0.368997 0.050278
0.123842 0.369187 0.050461
0.153733 0.369376 0.050644
0.183623 0.369566 0.050827
0.213514 0.369756 0.051010
0.243405 0.369946 0.051194
0.273296 0.370135 0.051377
0.303187 0.370325 0.051560
0.333077 0.370515 0.051743
0.362968 0.370704 0.051926
0.392859 0.370894 0.052109
0.422750 0.371084 0.052293
0.452641 0.371274 0.052476
0.482531 0.371463 0.052659
0.512422 0.371653 0.052842
0.542313 0.371843 0.053025
0.572204 0.372032 0.053208
0.602095 0.372222 0.053392
0.631985 0.372412 0.053575
0.661876 0.372602 0.053758
0.691767 0.372791 0.053941
0.721658 0.372981 0.054124
0.751549 0.373171 0.054307
0.781439 0.373360 0.054491
0.811330 0.373550 0.054674
0.841221 0.373740 0.054857
0.871112 0.373930 0.055040
0.901003 0.374119 0.055223
0.930893 0.374309 0.055406
0.960784 0.374499 0.055590
0.990675 0.374688 0.055773
1.000000 0.374771 0.055852
0.064705 0.397777 0.050700
0.094596 0.397967 0.050883
0.124487 0.398156 0.051066
0.154378 0.398346 0.051249
0.184269 0.398536 0.051432
0.214159 0.398726 0.051616
0.244050 0.398915 0.051799
0.273941 0.399105 0.051982
0.303832 0.399295 0.052165
0.333723 0.399484 0.052348
0.363613 0.399674 0.052531
0.393504 0.399864 0.052715
0.423395 0.400054 0.052898
0.453286 0.400243 0.053081
0.483177 0.400433 0.053264
0.513067 0.400623 0.053447
0.542958 0.400812 0.053630
0.572849 0.401002 0.053814
0.602740 0.401192 0.053997
0.632631 0.401382 0.054180
0.662521 0.401571 0.054363
0.692412 0.401761 0.054546
0.722303 0.401951 0.054730
0.752194 0.402140 0.054913
0.782085 0.402330 0.055096
0.811975 0.402520 0.055279
0.841866 0.402710 0.055462
0.871757 0.402899 0.055645
0.901648 0.403089 0.055829
0.931539 0.403279 0.056012
0.961429 0.403468 0.056195
0.991320 0.403658 0.056378
1.000000 0.403740 0.056458
0.065351 0.426747 0.051305
0.095241 0.426936 0.051488
0.125132 0.427126 0.051671
0.155023 0.427316 0.051855
0.184914 0.427505 0.052038
0.214805 0.427695 0.052221
0.244695 0.427885 0.052404
0.274586 0.428075 0.052587
0.304477 0.428264 0.052770
0.334368 0.428454 0.052954
0.364259 0.428644 0.053137
0.394149 0.428833 0.053320
0.424040 0.429023 0.053503
0.453931 0.429213 0.053686
0.483822 0.429403 0.053869
0.513713 0.429592 0.054053
0.543603 0.429782 0.054236
0.573494 0.429972 0.054419
0.603385 0.430161 0.054602
0.633276 0.430351 0.054785
0.663167 0.430541 0.054968
0.693057 0.430731 0.055152
0.722948 0.430920 0.055335
0.752839 0.431110 0.055518
0.782730 0.431300 0.055701
0.812621 0.431489 0.055884
0.842511 0.431679 0.056067
0.872402 0.431869 0.056251
0.902293 0.432059 0.056434
0.932184 0.432248 0.056617
0.962075 0.432438 0.056800
0.991965 0.432628 0.056983
1.000000 0.432710 0.057063
0.065996 0.455716 0.051910
0.095887 0.455906 0.052094
0.125777 0.456096 0.052277
0.155668 0.456285 0.052460
0.185559 0.456475 0.052643
0.215450 0.456665 0.052826
0.245341 0.456855 0.053009
0.275231 0.457044 0.053193
0.305122 0.457234 0.053376
0.335013 0.457424 0.053559
0.364904 0.457613 0.053742
0.394795 0.457803 0.053925
0.424685 0.457993 0.054108
0.454576 0.458183 0.054292
0.484467 0.458372 0.054475
0.514358 0.458562 0.054658
0.544249 0.458752 0.054841
0.574139 0.458941 0.055024
0.604030 0.459131 0.055207
0.633921 0.459321 0.055391
0.663812 0.459511 0.055574
0.693703 0.459700 0.055757
0.723593 0.459890 0.055940
0.753484 0.460080 0.056123
0.783375 0.460269 0.056306
0.813266 0.460459 0.056490
0.843157 0.460649 0.056673
0.873047 0.460839 0.056856
0.902938 0.461028 0.057039
0.932829 0.461218 0.057222
0.962720 0.461408 0.057405
0.992611 0.461597 0.057589
1.000000 0.461680 0.057668
0.066641 0.484686 0.052516
0.096532 0.484876 0.052699
0.126423 0.485065 0.052882
0.156313 0.485255 0.053065
0.186204 0.485445 0.053248
0.216095 0.485635 0.053432
0.245986 0.485824 0.053615
0.275877 0.486014 0.053798
0.305767 0.486204 0.053981
0.335658 0.486393 0.054164
0.365549 0.486583 0.054347
0.395440 0.486773 0.054531
0.425331 0.486963 0.054714
0.455221 0.487152 0.054897
0.485112 0.487342 0.055080
0.515003 0.487532 0.055263
0.544894 0.487721 0.055446
0.574785 0.487911 0.055630
0.604676 0.488101 0.055813
0.634566 0.488291 0.055996
0.664457 0.488480 0.056179
0.694348 0.488670 0.056362
0.724239 0.488860 0.056545
0.754130 0.489049 0.056729
0.784020 0.489239 0.056912
0.813911 0.489429 0.057095
0.843802 0.489619 0.057278
0.873693 0.489808 0.057461
0.903584 0.489998 0.057644
0.933474 0.490188 0.057828
0.963365 0.490377 0.058011
0.993256 0.490567 0.058194
1.000000 0.490649 0.058273
0.067286 0.513656 0.053121
0.097177 0.513845 0.053304
0.127068 0.514035 0.053487
0.156959 0.514225 0.053670
0.186850 0.514414 0.053854
0.216740 0.514604 0.054037
0.246631 0.514794 0.054220
0.276522 0.514984 0.054403
0.306413 0.515173 0.054586
0.336304 0.515363 0.054769
0.366194 0.515553 0.054953
0.396085 0.515742 0.055136
0.425976 0.515932 0.055319
0.455867 0.516122 0.055502
0.485758 0.516312 0.055685
0.515648 0.516501 0.055869
0.545539 0.516691 0.056052
0.575430 0.516881 0.056235
0.605321 0.517070 0.056418
0.635212 0.517260 0.056601
0.665102 0.517450 0.056784
0.694993 0.517640 0.056968
0.724884 0.517829 0.057151
0.754775 0.518019 0.057334
0.784666 0.518209 0.057517
0.814556 0.518398 0.057700
0.844447 0.518588 0.057883
0.874338 0.518778 0.058067
0.904229 0.518968 0.058250
0.934120 0.519157 0.058433
0.964010 0.519347 0.058616
0.993901 0.519537 0.058799
1.000000 0.519619 0.058879
0.067932 0.542625 0.053726
0.097822 0.542815 0.053909
0.127713 0.543005 0.054093
0.157604 0.543194 0.054276
0.187495 0.543384 0.054459
0.217386 0.543574 0.054642
0.247276 0.543764 0.054825
0.277167 0.543953 0.055008
0.307058 0.544143 0.055192
0.336949 0.544333 0.055375
0.366840 0.544522 0.055558
0.396730 0.544712 0.055741
0.426621 0.544902 0.055924
0.456512 0.545092 0.056107
0.486403 0.545281 0.056291
0.516294 0.545471 0.056474
0.546184 0.545661 0.056657
0.576075 0.545850 0.056840
0.605966 0.546040 0.057023
0.635857 0.546230 0.057206
0.665748 0.546420 0.057390
0.695638 0.546609 0.057573
0.725529 0.546799 0.057756
0.755420 0.546989 0.057939
0.785311 0.547178 0.058122
0.815202 0.547368 0.058305
0.845092 0.547558 0.058489
0.874983 0.547748 0.058672
0.904874 0.547937 0.058855
0.934765 0.548127 0.059038
0.964656 0.548317 0.059221
0.994546 0.548506 0.059405
1.000000 0.548589 0.059484
0.068577 0.571595 0.054332
0.098468 0.571785 0.054515
0.128358 0.571974 0.054698
0.158249 0.572164 0.054881
0.188140 0.572354 0.055064
0.218031 0.572544 0.055247
0.247922 0.572733 0.055431
0.277812 0.572923 0.055614
0.307703 0.573113 0.055797
0.337594 0.573302 0.055980
0.367485 0.573492 0.056163
0.397376 0.573682 0.056346
0.427266 0.573872 0.056530
0.457157 0.574061 0.056713
0.487048 0.574251 0.056896
0.516939 0.574441 0.057079
0.546830 0.574630 0.057262
0.576720 0.574820 0.057445
0.606611 0.575010 0.057629
0.636502 0.575200 0.057812
0.666393 0.575389 0.057995
0.696284 0.575579 0.058178
0.726174 0.575769 0.058361
0.756065 0.575958 0.058544
0.785956 0.576148 0.058728
0.815847 0.576338 0.058911
0.845738 0.576528 0.059094
0.875628 0.576717 0.059277
0.905519 0.576907 0.059460
0.935410 0.577097 0.059643
0.965301 0.577286 0.059827
0.995192 0.577476 0.060010
1.000000 0.577558 0.060089
0.069222 0.600565 0.054937
0.099113 0.600754 0.055120
0.129004 0.600944 0.055303
0.158894 0.601134 0.055486
0.188785 0.601323 0.055670
0.218676 0.601513 0.055853
0.248567 0.601703 0.056036
0.278458 0.601893 0.056219
0.308348 0.602082 0.056402
0.338239 0.602272 0.056585
0.368130 0.602462 0.056769
0.398021 0.602651 0.056952
0.427912 0.602841 0.057135
0.457802 0.603031 0.057318
0.487693 0.603221 0.057501
0.517584 0.603410 0.057684
0.547475 0.603600 0.057868
0.577366 0.603790 0.058051
0.607256 0.603979 0.058234
0.637147 0.604169 0.058417
0.667038 0.604359 0.058600
0.696929 0.604549 0.058783
0.726820 0.604738 0.058967
0.756710 0.604928 0.059150
0.786601 0.605118 0.059333
0.816492 0.605307 0.059516
0.846383 0.605497 0.059699
0.876274 0.605687 0.059882
0.906164 0.605877 0.060066
0.936055 0.606066 0.060249
0.965946 0.606256 0.060432
0.995837 0.606446 0.060615
1.000000 0.606528 0.060695
0.069867 0.629534 0.055542
0.099758 0.629724 0.055725
0.129649 0.629914 0.055908
0.159540 0.630103 0.056092
0.189430 0.630293 0.056275
0.219321 0.630483 0.056458
0.249212 0.630673 0.056641
0.279103 0.630862 0.056824
0.308994 0.631052 0.057008
0.338884 0.631242 0.057191
0.368775 0.631431 0.057374
0.398666 0.631621 0.057557
0.428557 0.631811 0.057740
0.458448 0.632001 0.057923
0.488338 0.632190 0.058107
0.518229 0.632380 0.058290
0.548120 0.632570 0.058473
0.578011 0.632759 0.058656
0.607902 0.632949 0.058839
0.637792 0.633139 0.059022
0.667683 0.633329 0.059206
0.697574 0.633518 0.059389
0.727465 0.633708 0.059572
0.757356 0.633898 0.059755
0.787247 0.634087 0.059938
0.817137 0.634277 0.060121
0.847028 0.634467 0.060305
0.876919 0.634657 0.060488
0.906810 0.634846 0.060671
0.936701 0.635036 0.060854
0.966591 0.635226 0.061037
0.996482 0.635415 0.061220
1.000000 0.635498 0.061300
0.070513 0.658504 0.056147
0.100403 0.658694 0.056331
0.130294 0.658883 0.056514
0.160185 0.659073 0.056697
0.190076 0.659263 0.056880
0.219967 0.659452 0.057063
0.249857 0.659642 0.057246
0.279748 0.659832 0.057430
0.309639 0.660022 0.057613
0.339530 0.660211 0.057796
0.369421 0.660401 0.057979
0.399311 0.660591 0.058162
0.429202 0.660780 0.058345
0.459093 0.660970 0.058529
0.488984 0.661160 0.058712
0.518875 0.661350 0.058895
0.548765 0.661539 0.059078
0.578656 0.661729 0.059261
0.608547 0.661919 0.059444
0.638438 0.662109 0.059628
0.668329 0.662298 0.059811
0.698219 0.662488 0.059994
0.728110 0.662678 0.060177
0.758001 0.662867 0.060360
0.787892 0.663057 0.060544
0.817783 0.663247 0.060727
0.847673 0.663437 0.060910
0.877564 0.663626 0.061093
0.907455 0.663816 0.061276
0.937346 0.664006 0.061459
0.967237 0.664195 0.061643
0.997127 0.664385 0.061826
1.000000 0.664467 0.061905
0.071158 0.687474 0.056753
0.101049 0.687663 0.056936
0.130939 0.687853 0.057119
0.160830 0.688043 0.057302
0.190721 0.688232 0.057485
0.220612 0.688422 0.057669
0.250503 0.688612 0.057852
0.280393 0.688802 0.058035
0.310284 0.688991 0.058218
0.340175 0.689181 0.058401
0.370066 0.689371 0.058584
0.399957 0.689560 0.058768
0.429847 0.689750 0.058951
0.459738 0.689940 0.059134
0.489629 0.690130 0.059317
0.519520 0.690319 0.059500
0.549411 0.690509 0.059683
0.579301 0.690699 0.059867
0.609192 0.690888 0.060050
0.639083 0.691078 0.060233
0.668974 0.691268 0.060416
0.698865 0.691458 0.060599
0.728755 0.691647 0.060782
0.758646 0.691837 0.060966
0.788537 0.692027 0.061149
0.818428 0.692216 0.061332
0.848319 0.692406 0.061515
0.878209 0.692596 0.061698
0.908100 0.692786 0.061881
0.937991 0.692975 0.062065
0.967882 0.693165 0.062248
0.997773 0.693355 0.062431
1.000000 0.693437 0.062511
0.071803 0.716443 0.057358
0.101694 0.716633 0.057541
0.131585 0.716823 0.057724
0.161475 0.717012 0.057908
0.191366 0.717202 0.058091
0.221257 0.717392 0.058274
0.251148 0.717582 0.058457
0.281039 0.717771 0.058640
0.310929 0.717961 0.058823
0.340820 0.718151 0.059007
0.370711 0.718340 0.059190
0.400602 0.718530 0.059373
0.430493 0.718720 0.059556
0.460383 0.718910 0.059739
0.490274 0.719099 0.059922
0.520165 0.719289 0.060106
0.550056 0.719479 0.060289
0.579947 0.719668 0.060472
0.609837 0.719858 0.060655
0.639728 0.720048 0.060838
0.669619 0.720238 0.061021
0.699510 0.720427 0.061205
0.729401 0.720617 0.061388
0.759291 0.720807 0.061571
0.789182 0.720996 0.061754
0.819073 0.721186 0.061937
0.848964 0.721376 0.062120
0.878855 0.721566 0.062304
0.908745 0.721755 0.062487
0.938636 0.721945 0.062670
0.968527 0.722135 0.062853
0.998418 0.722324 0.063036
1.000000 0.722407 0.063116
0.072448 0.745413 0.057963
0.102339 0.745603 0.058147
0.132230 0.745792 0.058330
0.162121 0.745982 0.058513
0.192011 0.746172 0.058696
0.221902 0.746361 0.058879
0.251793 0.746551 0.059062
0.281684 0.746741 0.059246
0.311575 0.746931 0.059429
0.341465 0.747120 0.059612
0.371356 0.747310 0.059795
0.401247 0.747500 0.059978
0.431138 0.747689 0.060161
0.461029 0.747879 0.060345
0.490919 0.748069 0.060528
0.520810 0.748259 0.060711
0.550701 0.748448 0.060894
0.580592 0.748638 0.061077
0.610483 0.748828 0.061260
0.640373 0.749017 0.061444
0.670264 0.749207 0.061627
0.700155 0.749397 0.061810
0.730046 0.749587 0.061993
0.759937 0.749776 0.062176
0.789827 0.749966 0.062359
0.819718 0.750156 0.062543
0.849609 0.750346 0.062726
0.879500 0.750535 0.062909
0.909391 0.750725 0.063092
0.939281 0.750915 0.063275
0.969172 0.751104 0.063458
0.999063 0.751294 0.063642
1.000000 0.751376 0.063721
0.073093 0.774383 0.058569
0.102984 0.774572 0.058752
0.132875 0.774762 0.058935
0.162766 0.774952 0.059118
0.192657 0.775141 0.059301
0.222547 0.775331 0.059484
0.252438 0.775521 0.059668
0.282329 0.775711 0.059851
0.312220 0.775900 0.060034
0.342111 0.776090 0.060217
0.372001 0.776280 0.060400
0.401892 0.776469 0.060583
0.431783 0.776659 0.060767
0.461674 0.776849 0.060950
0.491565 0.777039 0.061133
0.521455 0.777228 0.061316
0.551346 0.777418 0.061499
0.581237 0.777608 0.061683
0.611128 0.777797 0.061866
0.641019 0.777987 0.062049
0.670909 0.778177 0.062232
0.700800 0.778367 0.062415
0.730691 0.778556 0.062598
0.760582 0.778746 0.062782
0.790473 0.778936 0.062965
0.820363 0.779125 0.063148
0.850254 0.779315 0.063331
0.880145 0.779505 0.063514
0.910036 0.779695 0.063697
0.939927 0.779884 0.063881
0.969818 0.780074 0.064064
0.999708 0.780264 0.064247
1.000000 0.780346 0.064326
0.073739 0.803352 0.059174
0.103630 0.803542 0.059357
0.133520 0.803732 0.059540
0.163411 0.803921 0.059723
0.193302 0.804111 0.059907
0.223193 0.804301 0.060090
0.253084 0.804491 0.060273
0.282974 0.804680 0.060456
0.312865 0.804870 0.060639
0.342756 0.805060 0.060822
0.372647 0.805249 0.061006
0.402538 0.805439 0.061189
0.432428 0.805629 0.061372
0.462319 0.805819 0.061555
0.492210 0.806008 0.061738
0.522101 0.806198 0.061921
0.551992 0.806388 0.062105
0.581882 0.806577 0.062288
0.611773 0.806767 0.062471
0.641664 0.806957 0.062654
0.671555 0.807147 0.062837
0.701446 0.807336 0.063020
0.731336 0.807526 0.063204
0.761227 0.807716 0.063387
0.791118 0.807905 0.063570
0.821009 0.808095 0.063753
0.850900 0.808285 0.063936
0.880790 0.808475 0.064119
