presets/luts/film-warm/film-warm.cube
# akari-video catalog LUT: film-warm
LUT_3D_SIZE 5
0.056963 0.050141 0.043436
0.296089 0.051659 0.044902
0.535215 0.053176 0.046367
0.774342 0.054694 0.047832
0.996555 0.056105 0.049194
0.062124 0.281898 0.048279
0.301251 0.283416 0.049744
0.540377 0.284934 0.051209
0.779504 0.286451 0.052675
1.000000 0.287862 0.054036
0.067286 0.513656 0.053121
0.306413 0.515173 0.054586
0.545539 0.516691 0.056052
0.784666 0.518209 0.057517
1.000000 0.519619 0.058879
0.072448 0.745413 0.057963
0.311575 0.746931 0.059429
0.550701 0.748448 0.060894
0.789827 0.749966 0.062359
1.000000 0.751376 0.063721
0.077610 0.977170 0.062806
0.316737 0.978688 0.064271
0.555863 0.980206 0.065736
0.794989 0.981723 0.067202
1.000000 0.983134 0.068563
0.057474 0.050638 0.258893
0.296601 0.052156 0.260359
0.535727 0.053674 0.261824
0.774853 0.055191 0.263289
0.997067 0.056602 0.264651
0.062636 0.282396 0.263736
0.301763 0.283913 0.265201
0.540889 0.285431 0.266666
0.780015 0.286949 0.268132
1.000000 0.288359 0.269493
0.067798 0.514153 0.268578
0.306924 0.515671 0.270043
0.546051 0.517188 0.271509
0.785177 0.518706 0.272974
1.000000 0.520116 0.274336
0.072960 0.745910 0.273420
0.312086 0.747428 0.274886
0.551213 0.748946 0.276351
0.790339 0.750463 0.277816
1.000000 0.751874 0.279178
0.078122 0.977667 0.278263
0.317248 0.979185 0.279728
0.556375 0.980703 0.281193
0.795501 0.982221 0.282659
1.000000 0.983631 0.284020
0.057986 0.051135 0.474350
0.297112 0.052653 0.475816
0.536239 0.054171 0.477281
0.775365 0.055689 0.478746
0.997579 0.057099 0.480108
0.063148 0.282893 0.479193
0.302274 0.284410 0.480658
0.541401 0.285928 0.482123
0.780527 0.287446 0.483589
1.000000 0.288856 0.484950
0.068310 0.514650 0.484035
0.307436 0.516168 0.485500
0.546563 0.517685 0.486966
0.785689 0.519203 0.488431
1.000000 0.520614 0.489793
0.073472 0.746407 0.488877
0.312598 0.747925 0.490343
0.551724 0.749443 0.491808
0.790851 0.750960 0.493273
1.000000 0.752371 0.494635
0.078634 0.978165 0.493720
0.317760 0.979682 0.495185
0.556886 0.981200 0.496650
0.796013 0.982718 0.498116
1.000000 0.984128 0.499477
0.058498 0.051633 0.689807
0.297624 0.053150 0.691273
0.536750 0.054668 0.692738
0.775877 0.056186 0.694203
0.998091 0.057596 0.695565
0.063660 0.283390 0.694650
0.302786 0.284908 0.696115
0.541912 0.286425 0.697580
0.781039 0.287943 0.699046
1.000000 0.289353 0.700407
0.068821 0.515147 0.699492
0.307948 0.516665 0.700957
0.547074 0.518183 0.702423
0.786201 0.519700 0.703888
1.000000 0.521111 0.705250
0.073983 0.746905 0.704334
0.313110 0.748422 0.705800
0.552236 0.749940 0.707265
0.791363 0.751458 0.708730
1.000000 0.752868 0.710092
0.079145 0.978662 0.709177
0.318272 0.980180 0.710642
0.557398 0.981697 0.712107
0.796525 0.983215 0.713573
1.000000 0.984625 0.714934
0.059009 0.052130 0.905264
0.298136 0.053648 0.906730
0.537262 0.055165 0.908195
0.776389 0.056683 0.909660
0.998602 0.058093 0.911022
0.064171 0.283887 0.910107
0.303298 0.285405 0.911572
0.542424 0.286923 0.913037
0.781551 0.288440 0.914503
1.000000 0.289851 0.915864
0.069333 0.515644 0.914949
0.308460 0.517162 0.916414
0.547586 0.518680 0.917880
0.786712 0.520198 0.919345
1.000000 0.521608 0.920707
0.074495 0.747402 0.919791
0.313622 0.748919 0.921257
0.552748 0.750437 0.922722
0.791874 0.751955 0.924187
1.000000 0.753365 0.925549
0.079657 0.979159 0.924634
0.318783 0.980677 0.926099
0.557910 0.982194 0.927564
0.797036 0.983712 0.929030
1.000000 0.985123 0.930391
