presets/luts/film-warm/film-warm.cube
# akari-video catalog LUT: film-warm
LUT_3D_SIZE 9
0.056963 0.050141 0.043436
0.176526 0.050900 0.044169
0.296089 0.051659 0.044902
0.415652 0.052418 0.045634
0.535215 0.053176 0.046367
0.654779 0.053935 0.047100
0.774342 0.054694 0.047832
0.893905 0.055453 0.048565
0.996555 0.056105 0.049194
0.059543 0.166020 0.045857
0.179107 0.166779 0.046590
0.298670 0.167537 0.047323
0.418233 0.168296 0.048055
0.537796 0.169055 0.048788
0.657359 0.169814 0.049521
0.776923 0.170573 0.050253
0.896486 0.171332 0.050986
0.999136 0.171983 0.051615
0.062124 0.281898 0.048279
0.181688 0.282657 0.049011
0.301251 0.283416 0.049744
0.420814 0.284175 0.050477
0.540377 0.284934 0.051209
0.659940 0.285693 0.051942
0.779504 0.286451 0.052675
0.899067 0.287210 0.053407
1.000000 0.287862 0.054036
0.064705 0.397777 0.050700
0.184269 0.398536 0.051432
0.303832 0.399295 0.052165
0.423395 0.400054 0.052898
0.542958 0.400812 0.053630
0.662521 0.401571 0.054363
0.782085 0.402330 0.055096
0.901648 0.403089 0.055829
1.000000 0.403740 0.056458
0.067286 0.513656 0.053121
0.186850 0.514414 0.053854
0.306413 0.515173 0.054586
0.425976 0.515932 0.055319
0.545539 0.516691 0.056052
0.665102 0.517450 0.056784
0.784666 0.518209 0.057517
0.904229 0.518968 0.058250
1.000000 0.519619 0.058879
0.069867 0.629534 0.055542
0.189430 0.630293 0.056275
0.308994 0.631052 0.057008
0.428557 0.631811 0.057740
0.548120 0.632570 0.058473
0.667683 0.633329 0.059206
0.787247 0.634087 0.059938
0.906810 0.634846 0.060671
1.000000 0.635498 0.061300
0.072448 0.745413 0.057963
0.192011 0.746172 0.058696
0.311575 0.746931 0.059429
0.431138 0.747689 0.060161
0.550701 0.748448 0.060894
0.670264 0.749207 0.061627
0.789827 0.749966 0.062359
0.909391 0.750725 0.063092
1.000000 0.751376 0.063721
0.075029 0.861292 0.060385
0.194592 0.862050 0.061117
0.314156 0.862809 0.061850
0.433719 0.863568 0.062583
0.553282 0.864327 0.063315
0.672845 0.865086 0.064048
0.792408 0.865845 0.064781
0.911972 0.866604 0.065513
1.000000 0.867255 0.066142
0.077610 0.977170 0.062806
0.197173 0.977929 0.063538
0.316737 0.978688 0.064271
0.436300 0.979447 0.065004
0.555863 0.980206 0.065736
0.675426 0.980965 0.066469
0.794989 0.981723 0.067202
0.914553 0.982482 0.067934
1.000000 0.983134 0.068563
0.057218 0.050390 0.151165
0.176782 0.051148 0.151897
0.296345 0.051907 0.152630
0.415908 0.052666 0.153363
0.535471 0.053425 0.154095
0.655034 0.054184 0.154828
0.774598 0.054943 0.155561
0.894161 0.055702 0.156293
0.996811 0.056353 0.156923
0.059799 0.166268 0.153586
0.179363 0.167027 0.154319
0.298926 0.167786 0.155051
0.418489 0.168545 0.155784
0.538052 0.169304 0.156517
0.657615 0.170063 0.157249
0.777179 0.170821 0.157982
0.896742 0.171580 0.158715
0.999392 0.172232 0.159344
0.062380 0.282147 0.156007
0.181943 0.282906 0.156740
0.301507 0.283665 0.157472
0.421070 0.284423 0.158205
0.540633 0.285182 0.158938
0.660196 0.285941 0.159670
0.779759 0.286700 0.160403
0.899323 0.287459 0.161136
1.000000 0.288110 0.161765
0.064961 0.398026 0.158428
0.184524 0.398784 0.159161
0.304088 0.399543 0.159894
0.423651 0.400302 0.160626
0.543214 0.401061 0.161359
0.662777 0.401820 0.162092
0.782340 0.402579 0.162824
0.901904 0.403338 0.163557
1.000000 0.403989 0.164186
0.067542 0.513904 0.160849
0.187105 0.514663 0.161582
0.306669 0.515422 0.162315
0.426232 0.516181 0.163048
0.545795 0.516940 0.163780
0.665358 0.517699 0.164513
0.784921 0.518457 0.165246
0.904485 0.519216 0.165978
1.000000 0.519868 0.166607
0.070123 0.629783 0.163271
0.189686 0.630542 0.164003
0.309250 0.631301 0.164736
0.428813 0.632059 0.165469
0.548376 0.632818 0.166201
0.667939 0.633577 0.166934
0.787502 0.634336 0.167667
0.907066 0.635095 0.168399
1.000000 0.635746 0.169028
0.072704 0.745662 0.165692
0.192267 0.746420 0.166425
0.311831 0.747179 0.167157
0.431394 0.747938 0.167890
0.550957 0.748697 0.168623
0.670520 0.749456 0.169355
0.790083 0.750215 0.170088
0.909647 0.750974 0.170821
1.000000 0.751625 0.171450
0.075285 0.861540 0.168113
0.194848 0.862299 0.168846
0.314411 0.863058 0.169578
0.433975 0.863817 0.170311
0.553538 0.864576 0.171044
0.673101 0.865334 0.171776
0.792664 0.866093 0.172509
0.912227 0.866852 0.173242
1.000000 0.867504 0.173871
0.077866 0.977419 0.170534
0.197429 0.978178 0.171267
0.316992 0.978937 0.172000
0.436556 0.979695 0.172732
0.556119 0.980454 0.173465
0.675682 0.981213 0.174198
0.795245 0.981972 0.174930
0.914808 0.982731 0.175663
1.000000 0.983382 0.176292
0.057474 0.050638 0.258893
0.177037 0.051397 0.259626
0.296601 0.052156 0.260359
0.416164 0.052915 0.261091
0.535727 0.053674 0.261824
0.655290 0.054433 0.262557
0.774853 0.055191 0.263289
0.894417 0.055950 0.264022
0.997067 0.056602 0.264651
0.060055 0.166517 0.261314
0.179618 0.167276 0.262047
0.299182 0.168035 0.262780
0.418745 0.168793 0.263512
0.538308 0.169552 0.264245
0.657871 0.170311 0.264978
0.777434 0.171070 0.265710
0.896998 0.171829 0.266443
0.999648 0.172480 0.267072
0.062636 0.282396 0.263736
0.182199 0.283154 0.264468
0.301763 0.283913 0.265201
0.421326 0.284672 0.265934
0.540889 0.285431 0.266666
0.660452 0.286190 0.267399
0.780015 0.286949 0.268132
0.899579 0.287708 0.268864
1.000000 0.288359 0.269493
0.065217 0.398274 0.266157
0.184780 0.399033 0.266889
0.304343 0.399792 0.267622
0.423907 0.400551 0.268355
0.543470 0.401310 0.269088
0.663033 0.402068 0.269820
0.782596 0.402827 0.270553
0.902160 0.403586 0.271286
1.000000 0.404238 0.271915
0.067798 0.514153 0.268578
0.187361 0.514912 0.269311
0.306924 0.515671 0.270043
0.426488 0.516429 0.270776
0.546051 0.517188 0.271509
0.665614 0.517947 0.272241
0.785177 0.518706 0.272974
0.904740 0.519465 0.273707
1.000000 0.520116 0.274336
0.070379 0.630031 0.270999
0.189942 0.630790 0.271732
0.309505 0.631549 0.272465
0.429069 0.632308 0.273197
0.548632 0.633067 0.273930
0.668195 0.633826 0.274663
0.787758 0.634585 0.275395
0.907321 0.635343 0.276128
1.000000 0.635995 0.276757
0.072960 0.745910 0.273420
0.192523 0.746669 0.274153
0.312086 0.747428 0.274886
0.431650 0.748187 0.275618
0.551213 0.748946 0.276351
0.670776 0.749704 0.277084
0.790339 0.750463 0.277816
0.909902 0.751222 0.278549
1.000000 0.751874 0.279178
0.075541 0.861789 0.275842
0.195104 0.862548 0.276574
0.314667 0.863306 0.277307
0.434231 0.864065 0.278040
0.553794 0.864824 0.278772
0.673357 0.865583 0.279505
0.792920 0.866342 0.280238
0.912483 0.867101 0.280970
1.000000 0.867752 0.281599
0.078122 0.977667 0.278263
0.197685 0.978426 0.278995
0.317248 0.979185 0.279728
0.436811 0.979944 0.280461
0.556375 0.980703 0.281193
0.675938 0.981462 0.281926
0.795501 0.982221 0.282659
0.915064 0.982979 0.283391
1.000000 0.983631 0.284020
0.057730 0.050887 0.366622
0.177293 0.051646 0.367354
0.296856 0.052405 0.368087
0.416420 0.053163 0.368820
0.535983 0.053922 0.369552
0.655546 0.054681 0.370285
0.775109 0.055440 0.371018
0.894673 0.056199 0.371750
0.997323 0.056850 0.372380
0.060311 0.166765 0.369043
0.179874 0.167524 0.369776
0.299437 0.168283 0.370508
0.419001 0.169042 0.371241
0.538564 0.169801 0.371974
0.658127 0.170560 0.372706
0.777690 0.171319 0.373439
0.897253 0.172077 0.374172
0.999904 0.172729 0.374801
0.062892 0.282644 0.371464
0.182455 0.283403 0.372197
0.302018 0.284162 0.372929
0.421582 0.284921 0.373662
0.541145 0.285680 0.374395
0.660708 0.286438 0.375127
0.780271 0.287197 0.375860
0.899834 0.287956 0.376593
1.000000 0.288608 0.377222
0.065473 0.398523 0.373885
0.185036 0.399282 0.374618
0.304599 0.400040 0.375351
0.424163 0.400799 0.376083
0.543726 0.401558 0.376816
0.663289 0.402317 0.377549
0.782852 0.403076 0.378281
0.902415 0.403835 0.379014
1.000000 0.404486 0.379643
0.068054 0.514401 0.376306
0.187617 0.515160 0.377039
0.307180 0.515919 0.377772
0.426744 0.516678 0.378505
0.546307 0.517437 0.379237
0.665870 0.518196 0.379970
0.785433 0.518955 0.380703
0.904996 0.519713 0.381435
1.000000 0.520365 0.382064
0.070635 0.630280 0.378728
0.190198 0.631039 0.379460
0.309761 0.631798 0.380193
0.429324 0.632557 0.380926
0.548888 0.633315 0.381658
0.668451 0.634074 0.382391
0.788014 0.634833 0.383124
0.907577 0.635592 0.383856
1.000000 0.636244 0.384485
0.073216 0.746159 0.381149
0.192779 0.746918 0.381882
0.312342 0.747676 0.382614
0.431905 0.748435 0.383347
0.551469 0.749194 0.384080
0.671032 0.749953 0.384812
0.790595 0.750712 0.385545
0.910158 0.751471 0.386278
1.000000 0.752122 0.386907
0.075797 0.862037 0.383570
0.195360 0.862796 0.384303
0.314923 0.863555 0.385035
0.434486 0.864314 0.385768
0.554050 0.865073 0.386501
0.673613 0.865832 0.387233
0.793176 0.866591 0.387966
0.912739 0.867349 0.388699
1.000000 0.868001 0.389328
0.078378 0.977916 0.385991
0.197941 0.978675 0.386724
0.317504 0.979434 0.387457
0.437067 0.980193 0.388189
0.556631 0.980951 0.388922
0.676194 0.981710 0.389655
0.795757 0.982469 0.390387
0.915320 0.983228 0.391120
1.000000 0.983880 0.391749
0.057986 0.051135 0.474350
0.177549 0.051894 0.475083
0.297112 0.052653 0.475816
0.416676 0.053412 0.476548
0.536239 0.054171 0.477281
0.655802 0.054930 0.478014
0.775365 0.055689 0.478746
0.894928 0.056447 0.479479
0.997579 0.057099 0.480108
0.060567 0.167014 0.476771
0.180130 0.167773 0.477504
0.299693 0.168532 0.478237
0.419257 0.169291 0.478969
0.538820 0.170049 0.479702
0.658383 0.170808 0.480435
0.777946 0.171567 0.481167
0.897509 0.172326 0.481900
1.000000 0.172978 0.482529
0.063148 0.282893 0.479193
0.182711 0.283652 0.479925
0.302274 0.284410 0.480658
0.421837 0.285169 0.481391
0.541401 0.285928 0.482123
0.660964 0.286687 0.482856
0.780527 0.287446 0.483589
0.900090 0.288205 0.484321
1.000000 0.288856 0.484950
0.065729 0.398771 0.481614
0.185292 0.399530 0.482346
0.304855 0.400289 0.483079
0.424418 0.401048 0.483812
0.543982 0.401807 0.484545
0.663545 0.402566 0.485277
0.783108 0.403325 0.486010
0.902671 0.404083 0.486743
1.000000 0.404735 0.487372
0.068310 0.514650 0.484035
0.187873 0.515409 0.484768
0.307436 0.516168 0.485500
0.426999 0.516927 0.486233
0.546563 0.517685 0.486966
0.666126 0.518444 0.487698
0.785689 0.519203 0.488431
0.905252 0.519962 0.489164
1.000000 0.520614 0.489793
0.070891 0.630529 0.486456
0.190454 0.631288 0.487189
0.310017 0.632046 0.487922
0.429580 0.632805 0.488654
0.549144 0.633564 0.489387
0.668707 0.634323 0.490120
0.788270 0.635082 0.490852
0.907833 0.635841 0.491585
1.000000 0.636492 0.492214
0.073472 0.746407 0.488877
0.193035 0.747166 0.489610
0.312598 0.747925 0.490343
0.432161 0.748684 0.491075
0.551724 0.749443 0.491808
0.671288 0.750202 0.492541
0.790851 0.750960 0.493273
0.910414 0.751719 0.494006
1.000000 0.752371 0.494635
0.076053 0.862286 0.491299
0.195616 0.863045 0.492031
0.315179 0.863804 0.492764
0.434742 0.864563 0.493497
0.554305 0.865321 0.494229
0.673869 0.866080 0.494962
0.793432 0.866839 0.495695
0.912995 0.867598 0.496427
1.000000 0.868249 0.497056
0.078634 0.978165 0.493720
0.198197 0.978923 0.494452
0.317760 0.979682 0.495185
0.437323 0.980441 0.495918
0.556886 0.981200 0.496650
0.676450 0.981959 0.497383
0.796013 0.982718 0.498116
0.915576 0.983477 0.498848
1.000000 0.984128 0.499477
0.058242 0.051384 0.582079
0.177805 0.052143 0.582811
0.297368 0.052902 0.583544
0.416931 0.053661 0.584277
0.536495 0.054419 0.585009
0.656058 0.055178 0.585742
0.775621 0.055937 0.586475
0.895184 0.056696 0.587207
0.997835 0.057348 0.587837
0.060823 0.167263 0.584500
0.180386 0.168022 0.585233
0.299949 0.168780 0.585965
0.419512 0.169539 0.586698
0.539076 0.170298 0.587431
0.658639 0.171057 0.588163
0.778202 0.171816 0.588896
0.897765 0.172575 0.589629
1.000000 0.173226 0.590258
0.063404 0.283141 0.586921
0.182967 0.283900 0.587654
0.302530 0.284659 0.588386
0.422093 0.285418 0.589119
0.541657 0.286177 0.589852
0.661220 0.286936 0.590585
0.780783 0.287694 0.591317
0.900346 0.288453 0.592050
1.000000 0.289105 0.592679
0.065985 0.399020 0.589342
0.185548 0.399779 0.590075
0.305111 0.400538 0.590808
0.424674 0.401297 0.591540
0.544237 0.402055 0.592273
0.663801 0.402814 0.593006
0.783364 0.403573 0.593738
0.902927 0.404332 0.594471
1.000000 0.404983 0.595100
0.068566 0.514899 0.591763
0.188129 0.515657 0.592496
0.307692 0.516416 0.593229
0.427255 0.517175 0.593962
0.546818 0.517934 0.594694
0.666382 0.518693 0.595427
0.785945 0.519452 0.596160
0.905508 0.520211 0.596892
1.000000 0.520862 0.597521
0.071147 0.630777 0.594185
0.190710 0.631536 0.594917
0.310273 0.632295 0.595650
0.429836 0.633054 0.596383
0.549399 0.633813 0.597115
0.668963 0.634572 0.597848
0.788526 0.635330 0.598581
0.908089 0.636089 0.599313
1.000000 0.636741 0.599942
0.073728 0.746656 0.596606
0.193291 0.747415 0.597339
0.312854 0.748174 0.598071
0.432417 0.748932 0.598804
0.551980 0.749691 0.599537
0.671544 0.750450 0.600269
0.791107 0.751209 0.601002
0.910670 0.751968 0.601735
1.000000 0.752619 0.602364
0.076308 0.862535 0.599027
0.195872 0.863293 0.599760
0.315435 0.864052 0.600492
0.434998 0.864811 0.601225
0.554561 0.865570 0.601958
0.674125 0.866329 0.602690
0.793688 0.867088 0.603423
0.913251 0.867847 0.604156
1.000000 0.868498 0.604785
0.078889 0.978413 0.601448
0.198453 0.979172 0.602181
0.318016 0.979931 0.602914
0.437579 0.980690 0.603646
0.557142 0.981449 0.604379
0.676705 0.982208 0.605112
0.796269 0.982966 0.605844
0.915832 0.983725 0.606577
1.000000 0.984377 0.607206
0.058498 0.051633 0.689807
0.178061 0.052391 0.690540
0.297624 0.053150 0.691273
0.417187 0.053909 0.692005
0.536750 0.054668 0.692738
0.656314 0.055427 0.693471
0.775877 0.056186 0.694203
0.895440 0.056945 0.694936
0.998091 0.057596 0.695565
0.061079 0.167511 0.692228
0.180642 0.168270 0.692961
0.300205 0.169029 0.693694
0.419768 0.169788 0.694426
0.539331 0.170547 0.695159
0.658895 0.171306 0.695892
0.778458 0.172064 0.696625
0.898021 0.172823 0.697357
1.000000 0.173475 0.697986
0.063660 0.283390 0.694650
0.183223 0.284149 0.695382
0.302786 0.284908 0.696115
0.422349 0.285666 0.696848
0.541912 0.286425 0.697580
0.661476 0.287184 0.698313
0.781039 0.287943 0.699046
0.900602 0.288702 0.699778
1.000000 0.289353 0.700407
0.066241 0.399269 0.697071
0.185804 0.400027 0.697803
0.305367 0.400786 0.698536
0.424930 0.401545 0.699269
0.544493 0.402304 0.700002
0.664057 0.403063 0.700734
0.783620 0.403822 0.701467
0.903183 0.404581 0.702200
1.000000 0.405232 0.702829
0.068821 0.515147 0.699492
0.188385 0.515906 0.700225
0.307948 0.516665 0.700957
0.427511 0.517424 0.701690
0.547074 0.518183 0.702423
0.666638 0.518942 0.703155
0.786201 0.519700 0.703888
0.905764 0.520459 0.704621
1.000000 0.521111 0.705250
0.071402 0.631026 0.701913
0.190966 0.631785 0.702646
0.310529 0.632544 0.703379
0.430092 0.633302 0.704111
0.549655 0.634061 0.704844
0.669218 0.634820 0.705577
0.788782 0.635579 0.706309
0.908345 0.636338 0.707042
1.000000 0.636989 0.707671
0.073983 0.746905 0.704334
0.193547 0.747663 0.705067
0.313110 0.748422 0.705800
0.432673 0.749181 0.706532
0.552236 0.749940 0.707265
0.671799 0.750699 0.707998
0.791363 0.751458 0.708730
0.910926 0.752217 0.709463
1.000000 0.752868 0.710092
0.076564 0.862783 0.706756
0.196128 0.863542 0.707488
0.315691 0.864301 0.708221
0.435254 0.865060 0.708954
0.554817 0.865819 0.709686
0.674380 0.866577 0.710419
0.793944 0.867336 0.711152
0.913507 0.868095 0.711884
1.000000 0.868747 0.712513
0.079145 0.978662 0.709177
0.198709 0.979421 0.709909
0.318272 0.980180 0.710642
0.437835 0.980938 0.711375
0.557398 0.981697 0.712107
0.676961 0.982456 0.712840
0.796525 0.983215 0.713573
0.916088 0.983974 0.714305
1.000000 0.984625 0.714934
0.058754 0.051881 0.797536
0.178317 0.052640 0.798268
0.297880 0.053399 0.799001
0.417443 0.054158 0.799734
0.537006 0.054917 0.800466
0.656570 0.055676 0.801199
0.776133 0.056434 0.801932
0.895696 0.057193 0.802664
0.998346 0.057845 0.803294
0.061334 0.167760 0.799957
0.180898 0.168519 0.800690
0.300461 0.169278 0.801422
0.420024 0.170036 0.802155
0.539587 0.170795 0.802888
0.659150 0.171554 0.803620
0.778714 0.172313 0.804353
0.898277 0.173072 0.805086
1.000000 0.173723 0.805715
0.063915 0.283638 0.802378
0.183479 0.284397 0.803111
0.303042 0.285156 0.803843
0.422605 0.285915 0.804576
0.542168 0.286674 0.805309
0.661731 0.287433 0.806042
0.781295 0.288192 0.806774
0.900858 0.288951 0.807507
1.000000 0.289602 0.808136
0.066496 0.399517 0.804799
0.186060 0.400276 0.805532
0.305623 0.401035 0.806265
0.425186 0.401794 0.806997
0.544749 0.402553 0.807730
0.664312 0.403311 0.808463
0.783876 0.404070 0.809195
0.903439 0.404829 0.809928
1.000000 0.405481 0.810557
0.069077 0.515396 0.807221
0.188641 0.516155 0.807953
0.308204 0.516914 0.808686
0.427767 0.517672 0.809419
0.547330 0.518431 0.810151
0.666893 0.519190 0.810884
0.786457 0.519949 0.811617
0.906020 0.520708 0.812349
1.000000 0.521359 0.812978
0.071658 0.631274 0.809642
0.191221 0.632033 0.810374
0.310785 0.632792 0.811107
0.430348 0.633551 0.811840
0.549911 0.634310 0.812572
0.669474 0.635069 0.813305
0.789038 0.635828 0.814038
0.908601 0.636586 0.814770
1.000000 0.637238 0.815399
0.074239 0.747153 0.812063
0.193802 0.747912 0.812796
0.313366 0.748671 0.813528
0.432929 0.749430 0.814261
0.552492 0.750189 0.814994
0.672055 0.750947 0.815726
0.791618 0.751706 0.816459
0.911182 0.752465 0.817192
1.000000 0.753117 0.817821
0.076820 0.863032 0.814484
0.196383 0.863791 0.815217
0.315947 0.864549 0.815949
0.435510 0.865308 0.816682
0.555073 0.866067 0.817415
0.674636 0.866826 0.818147
0.794199 0.867585 0.818880
0.913763 0.868344 0.819613
1.000000 0.868995 0.820242
0.079401 0.978910 0.816905
0.198964 0.979669 0.817638
0.318528 0.980428 0.818371
0.438091 0.981187 0.819103
0.557654 0.981946 0.819836
0.677217 0.982705 0.820569
0.796780 0.983464 0.821301
0.916344 0.984222 0.822034
1.000000 0.984874 0.822663
0.059009 0.052130 0.905264
0.178573 0.052889 0.905997
0.298136 0.053648 0.906730
0.417699 0.054406 0.907462
0.537262 0.055165 0.908195
0.656825 0.055924 0.908928
0.776389 0.056683 0.909660
0.895952 0.057442 0.910393
0.998602 0.058093 0.911022
0.061590 0.168008 0.907685
0.181154 0.168767 0.908418
0.300717 0.169526 0.909151
0.420280 0.170285 0.909883
0.539843 0.171044 0.910616
0.659406 0.171803 0.911349
0.778970 0.172562 0.912082
0.898533 0.173320 0.912814
1.000000 0.173972 0.913443
0.064171 0.283887 0.910107
0.183734 0.284646 0.910839
0.303298 0.285405 0.911572
0.422861 0.286164 0.912305
0.542424 0.286923 0.913037
0.661987 0.287681 0.913770
0.781551 0.288440 0.914503
0.901114 0.289199 0.915235
1.000000 0.289851 0.915864
0.066752 0.399766 0.912528
0.186315 0.400525 0.913261
0.305879 0.401283 0.913993
0.425442 0.402042 0.914726
0.545005 0.402801 0.915459
0.664568 0.403560 0.916191
0.784131 0.404319 0.916924
0.903695 0.405078 0.917657
1.000000 0.405729 0.918286
0.069333 0.515644 0.914949
0.188896 0.516403 0.915682
0.308460 0.517162 0.916414
0.428023 0.517921 0.917147
0.547586 0.518680 0.917880
0.667149 0.519439 0.918612
0.786712 0.520198 0.919345
0.906276 0.520956 0.920078
1.000000 0.521608 0.920707
0.071914 0.631523 0.917370
0.191477 0.632282 0.918103
0.311041 0.633041 0.918836
0.430604 0.633800 0.919568
0.550167 0.634558 0.920301
0.669730 0.635317 0.921034
0.789293 0.636076 0.921766
0.908857 0.636835 0.922499
1.000000 0.637487 0.923128
0.074495 0.747402 0.919791
0.194058 0.748161 0.920524
0.313622 0.748919 0.921257
0.433185 0.749678 0.921989
0.552748 0.750437 0.922722
0.672311 0.751196 0.923455
0.791874 0.751955 0.924187
0.911438 0.752714 0.924920
1.000000 0.753365 0.925549
0.077076 0.863280 0.922213
0.196639 0.864039 0.922945
0.316202 0.864798 0.923678
0.435766 0.865557 0.924411
0.555329 0.866316 0.925143
0.674892 0.867075 0.925876
0.794455 0.867834 0.926609
0.914018 0.868592 0.927341
1.000000 0.869244 0.927970
0.079657 0.979159 0.924634
0.199220 0.979918 0.925366
0.318783 0.980677 0.926099
0.438347 0.981436 0.926832
0.557910 0.982194 0.927564
0.677473 0.982953 0.928297
0.797036 0.983712 0.929030
0.916599 0.984471 0.929762
1.000000 0.985123 0.930391
