plugin/runtime/presets/luts/mono/mono.cube
# akari-video catalog LUT: mono
LUT_3D_SIZE 33
0.000000 0.000000 0.000000
0.000000 0.000000 0.000000
0.000000 0.000000 0.000000
0.002658 0.002658 0.002658
0.010630 0.010630 0.010630
0.018603 0.018603 0.018603
0.026575 0.026575 0.026575
0.034548 0.034548 0.034548
0.042520 0.042520 0.042520
0.050493 0.050493 0.050493
0.058465 0.058465 0.058465
0.066438 0.066438 0.066438
0.074410 0.074410 0.074410
0.082383 0.082383 0.082383
0.090355 0.090355 0.090355
0.098328 0.098328 0.098328
0.106300 0.106300 0.106300
0.114272 0.114272 0.114272
0.122245 0.122245 0.122245
0.130218 0.130218 0.130218
0.138190 0.138190 0.138190
0.146163 0.146163 0.146163
0.154135 0.154135 0.154135
0.162107 0.162107 0.162107
0.170080 0.170080 0.170080
0.178053 0.178053 0.178053
0.186025 0.186025 0.186025
0.193998 0.193998 0.193998
0.201970 0.201970 0.201970
0.209943 0.209943 0.209943
0.212600 0.212600 0.212600
0.212600 0.212600 0.212600
0.212600 0.212600 0.212600
0.000000 0.000000 0.000000
0.000000 0.000000 0.000000
0.000000 0.000000 0.000000
0.002658 0.002658 0.002658
0.010630 0.010630 0.010630
0.018603 0.018603 0.018603
0.026575 0.026575 0.026575
0.034548 0.034548 0.034548
0.042520 0.042520 0.042520
0.050493 0.050493 0.050493
0.058465 0.058465 0.058465
0.066438 0.066438 0.066438
0.074410 0.074410 0.074410
0.082383 0.082383 0.082383
0.090355 0.090355 0.090355
0.098328 0.098328 0.098328
0.106300 0.106300 0.106300
0.114272 0.114272 0.114272
0.122245 0.122245 0.122245
0.130218 0.130218 0.130218
0.138190 0.138190 0.138190
0.146163 0.146163 0.146163
0.154135 0.154135 0.154135
0.162107 0.162107 0.162107
0.170080 0.170080 0.170080
0.178053 0.178053 0.178053
0.186025 0.186025 0.186025
0.193998 0.193998 0.193998
0.201970 0.201970 0.201970
0.209943 0.209943 0.209943
0.212600 0.212600 0.212600
0.212600 0.212600 0.212600
0.212600 0.212600 0.212600
0.000000 0.000000 0.000000
0.000000 0.000000 0.000000
0.000000 0.000000 0.000000
0.002658 0.002658 0.002658
0.010630 0.010630 0.010630
0.018603 0.018603 0.018603
0.026575 0.026575 0.026575
0.034548 0.034548 0.034548
0.042520 0.042520 0.042520
0.050493 0.050493 0.050493
0.058465 0.058465 0.058465
0.066438 0.066438 0.066438
0.074410 0.074410 0.074410
0.082383 0.082383 0.082383
0.090355 0.090355 0.090355
0.098328 0.098328 0.098328
0.106300 0.106300 0.106300
0.114272 0.114272 0.114272
0.122245 0.122245 0.122245
0.130218 0.130218 0.130218
0.138190 0.138190 0.138190
0.146163 0.146163 0.146163
0.154135 0.154135 0.154135
0.162107 0.162107 0.162107
0.170080 0.170080 0.170080
0.178053 0.178053 0.178053
0.186025 0.186025 0.186025
0.193998 0.193998 0.193998
0.201970 0.201970 0.201970
0.209943 0.209943 0.209943
0.212600 0.212600 0.212600
0.212600 0.212600 0.212600
0.212600 0.212600 0.212600
0.008940 0.008940 0.008940
0.008940 0.008940 0.008940
0.008940 0.008940 0.008940
0.011598 0.011598 0.011598
0.019570 0.019570 0.019570
0.027543 0.027543 0.027543
0.035515 0.035515 0.035515
0.043488 0.043488 0.043488
0.051460 0.051460 0.051460
0.059433 0.059433 0.059433
0.067405 0.067405 0.067405
0.075378 0.075378 0.075378
0.083350 0.083350 0.083350
0.091323 0.091323 0.091323
0.099295 0.099295 0.099295
0.107268 0.107268 0.107268
0.115240 0.115240 0.115240
0.123213 0.123213 0.123213
0.131185 0.131185 0.131185
0.139158 0.139158 0.139158
0.147130 0.147130 0.147130
0.155103 0.155103 0.155103
0.163075 0.163075 0.163075
0.171047 0.171047 0.171047
0.179020 0.179020 0.179020
0.186993 0.186993 0.186993
0.194965 0.194965 0.194965
0.202938 0.202938 0.202938
0.210910 0.210910 0.210910
0.218883 0.218883 0.218883
0.221540 0.221540 0.221540
0.221540 0.221540 0.221540
0.221540 0.221540 0.221540
0.035760 0.035760 0.035760
0.035760 0.035760 0.035760
0.035760 0.035760 0.035760
0.038418 0.038418 0.038418
0.046390 0.046390 0.046390
0.054363 0.054363 0.054363
0.062335 0.062335 0.062335
0.070308 0.070308 0.070308
0.078280 0.078280 0.078280
0.086253 0.086253 0.086253
0.094225 0.094225 0.094225
0.102198 0.102198 0.102198
0.110170 0.110170 0.110170
0.118143 0.118143 0.118143
0.126115 0.126115 0.126115
0.134088 0.134088 0.134088
0.142060 0.142060 0.142060
0.150033 0.150033 0.150033
0.158005 0.158005 0.158005
0.165978 0.165978 0.165978
0.173950 0.173950 0.173950
0.181923 0.181923 0.181923
0.189895 0.189895 0.189895
0.197868 0.197868 0.197868
0.205840 0.205840 0.205840
0.213813 0.213813 0.213813
0.221785 0.221785 0.221785
0.229758 0.229758 0.229758
0.237730 0.237730 0.237730
0.245703 0.245703 0.245703
0.248360 0.248360 0.248360
0.248360 0.248360 0.248360
0.248360 0.248360 0.248360
0.062580 0.062580 0.062580
0.062580 0.062580 0.062580
0.062580 0.062580 0.062580
0.065238 0.065238 0.065238
0.073210 0.073210 0.073210
0.081183 0.081183 0.081183
0.089155 0.089155 0.089155
0.097128 0.097128 0.097128
0.105100 0.105100 0.105100
0.113073 0.113073 0.113073
0.121045 0.121045 0.121045
0.129018 0.129018 0.129018
0.136990 0.136990 0.136990
0.144963 0.144963 0.144963
0.152935 0.152935 0.152935
0.160908 0.160908 0.160908
0.168880 0.168880 0.168880
0.176853 0.176853 0.176853
0.184825 0.184825 0.184825
0.192798 0.192798 0.192798
0.200770 0.200770 0.200770
0.208742 0.208742 0.208742
0.216715 0.216715 0.216715
0.224687 0.224687 0.224687
0.232660 0.232660 0.232660
0.240633 0.240633 0.240633
0.248605 0.248605 0.248605
0.256578 0.256578 0.256578
0.264550 0.264550 0.264550
0.272523 0.272523 0.272523
0.275180 0.275180 0.275180
0.275180 0.275180 0.275180
0.275180 0.275180 0.275180
0.089400 0.089400 0.089400
0.089400 0.089400 0.089400
0.089400 0.089400 0.089400
0.092058 0.092058 0.092058
0.100030 0.100030 0.100030
0.108003 0.108003 0.108003
0.115975 0.115975 0.115975
0.123948 0.123948 0.123948
0.131920 0.131920 0.131920
0.139893 0.139893 0.139893
0.147865 0.147865 0.147865
0.155838 0.155838 0.155838
0.163810 0.163810 0.163810
0.171783 0.171783 0.171783
0.179755 0.179755 0.179755
0.187727 0.187727 0.187727
0.195700 0.195700 0.195700
0.203672 0.203672 0.203672
0.211645 0.211645 0.211645
0.219618 0.219618 0.219618
0.227590 0.227590 0.227590
0.235563 0.235563 0.235563
0.243535 0.243535 0.243535
0.251507 0.251507 0.251507
0.259480 0.259480 0.259480
0.267452 0.267452 0.267452
0.275425 0.275425 0.275425
0.283398 0.283398 0.283398
0.291370 0.291370 0.291370
0.299343 0.299343 0.299343
0.302000 0.302000 0.302000
0.302000 0.302000 0.302000
0.302000 0.302000 0.302000
0.116220 0.116220 0.116220
0.116220 0.116220 0.116220
0.116220 0.116220 0.116220
0.118878 0.118878 0.118878
0.126850 0.126850 0.126850
0.134823 0.134823 0.134823
0.142795 0.142795 0.142795
0.150768 0.150768 0.150768
0.158740 0.158740 0.158740
0.166713 0.166713 0.166713
0.174685 0.174685 0.174685
0.182658 0.182658 0.182658
0.190630 0.190630 0.190630
0.198603 0.198603 0.198603
0.206575 0.206575 0.206575
0.214548 0.214548 0.214548
0.222520 0.222520 0.222520
0.230493 0.230493 0.230493
0.238465 0.238465 0.238465
0.246438 0.246438 0.246438
0.254410 0.254410 0.254410
0.262383 0.262383 0.262383
0.270355 0.270355 0.270355
0.278328 0.278328 0.278328
0.286300 0.286300 0.286300
0.294273 0.294273 0.294273
0.302245 0.302245 0.302245
0.310218 0.310218 0.310218
0.318190 0.318190 0.318190
0.326163 0.326163 0.326163
0.328820 0.328820 0.328820
0.328820 0.328820 0.328820
0.328820 0.328820 0.328820
0.143040 0.143040 0.143040
0.143040 0.143040 0.143040
0.143040 0.143040 0.143040
0.145698 0.145698 0.145698
0.153670 0.153670 0.153670
0.161642 0.161642 0.161642
0.169615 0.169615 0.169615
0.177588 0.177588 0.177588
0.185560 0.185560 0.185560
0.193532 0.193532 0.193532
0.201505 0.201505 0.201505
0.209478 0.209478 0.209478
0.217450 0.217450 0.217450
0.225423 0.225423 0.225423
0.233395 0.233395 0.233395
0.241368 0.241368 0.241368
0.249340 0.249340 0.249340
0.257312 0.257312 0.257312
0.265285 0.265285 0.265285
0.273258 0.273258 0.273258
0.281230 0.281230 0.281230
0.289203 0.289203 0.289203
0.297175 0.297175 0.297175
0.305148 0.305148 0.305148
0.313120 0.313120 0.313120
0.321093 0.321093 0.321093
0.329065 0.329065 0.329065
0.337037 0.337037 0.337037
0.345010 0.345010 0.345010
0.352983 0.352983 0.352983
0.355640 0.355640 0.355640
0.355640 0.355640 0.355640
0.355640 0.355640 0.355640
0.169860 0.169860 0.169860
0.169860 0.169860 0.169860
0.169860 0.169860 0.169860
0.172517 0.172517 0.172517
0.180490 0.180490 0.180490
0.188462 0.188462 0.188462
0.196435 0.196435 0.196435
0.204407 0.204407 0.204407
0.212380 0.212380 0.212380
0.220352 0.220352 0.220352
0.228325 0.228325 0.228325
0.236297 0.236297 0.236297
0.244270 0.244270 0.244270
0.252242 0.252242 0.252242
0.260215 0.260215 0.260215
0.268188 0.268188 0.268188
0.276160 0.276160 0.276160
0.284133 0.284133 0.284133
0.292105 0.292105 0.292105
0.300077 0.300077 0.300077
0.308050 0.308050 0.308050
0.316022 0.316022 0.316022
0.323995 0.323995 0.323995
0.331967 0.331967 0.331967
0.339940 0.339940 0.339940
0.347912 0.347912 0.347912
0.355885 0.355885 0.355885
0.363858 0.363858 0.363858
0.371830 0.371830 0.371830
0.379803 0.379803 0.379803
0.382460 0.382460 0.382460
0.382460 0.382460 0.382460
0.382460 0.382460 0.382460
0.196680 0.196680 0.196680
0.196680 0.196680 0.196680
0.196680 0.196680 0.196680
0.199338 0.199338 0.199338
0.207310 0.207310 0.207310
0.215282 0.215282 0.215282
0.223255 0.223255 0.223255
0.231228 0.231228 0.231228
0.239200 0.239200 0.239200
0.247172 0.247172 0.247172
0.255145 0.255145 0.255145
0.263118 0.263118 0.263118
0.271090 0.271090 0.271090
0.279062 0.279062 0.279062
0.287035 0.287035 0.287035
0.295007 0.295007 0.295007
0.302980 0.302980 0.302980
0.310952 0.310952 0.310952
0.318925 0.318925 0.318925
0.326898 0.326898 0.326898
0.334870 0.334870 0.334870
0.342842 0.342842 0.342842
0.350815 0.350815 0.350815
0.358787 0.358787 0.358787
0.366760 0.366760 0.366760
0.374733 0.374733 0.374733
0.382705 0.382705 0.382705
0.390678 0.390678 0.390678
0.398650 0.398650 0.398650
0.406622 0.406622 0.406622
0.409280 0.409280 0.409280
0.409280 0.409280 0.409280
0.409280 0.409280 0.409280
0.223500 0.223500 0.223500
0.223500 0.223500 0.223500
0.223500 0.223500 0.223500
0.226157 0.226157 0.226157
0.234130 0.234130 0.234130
0.242102 0.242102 0.242102
0.250075 0.250075 0.250075
0.258047 0.258047 0.258047
0.266020 0.266020 0.266020
0.273992 0.273992 0.273992
0.281965 0.281965 0.281965
0.289937 0.289937 0.289937
0.297910 0.297910 0.297910
0.305883 0.305883 0.305883
0.313855 0.313855 0.313855
0.321827 0.321827 0.321827
0.329800 0.329800 0.329800
0.337772 0.337772 0.337772
0.345745 0.345745 0.345745
0.353718 0.353718 0.353718
0.361690 0.361690 0.361690
0.369663 0.369663 0.369663
0.377635 0.377635 0.377635
0.385607 0.385607 0.385607
0.393580 0.393580 0.393580
0.401552 0.401552 0.401552
0.409525 0.409525 0.409525
0.417497 0.417497 0.417497
0.425470 0.425470 0.425470
0.433443 0.433443 0.433443
0.436100 0.436100 0.436100
0.436100 0.436100 0.436100
0.436100 0.436100 0.436100
0.250320 0.250320 0.250320
0.250320 0.250320 0.250320
0.250320 0.250320 0.250320
0.252977 0.252977 0.252977
0.260950 0.260950 0.260950
0.268923 0.268923 0.268923
0.276895 0.276895 0.276895
0.284867 0.284867 0.284867
0.292840 0.292840 0.292840
0.300812 0.300812 0.300812
0.308785 0.308785 0.308785
0.316758 0.316758 0.316758
0.324730 0.324730 0.324730
0.332703 0.332703 0.332703
0.340675 0.340675 0.340675
0.348647 0.348647 0.348647
0.356620 0.356620 0.356620
0.364592 0.364592 0.364592
0.372565 0.372565 0.372565
0.380537 0.380537 0.380537
0.388510 0.388510 0.388510
0.396482 0.396482 0.396482
0.404455 0.404455 0.404455
0.412427 0.412427 0.412427
0.420400 0.420400 0.420400
0.428372 0.428372 0.428372
0.436345 0.436345 0.436345
0.444318 0.444318 0.444318
0.452290 0.452290 0.452290
0.460263 0.460263 0.460263
0.462920 0.462920 0.462920
0.462920 0.462920 0.462920
0.462920 0.462920 0.462920
0.277140 0.277140 0.277140
0.277140 0.277140 0.277140
0.277140 0.277140 0.277140
0.279797 0.279797 0.279797
0.287770 0.287770 0.287770
0.295743 0.295743 0.295743
0.303715 0.303715 0.303715
0.311688 0.311688 0.311688
0.319660 0.319660 0.319660
0.327632 0.327632 0.327632
0.335605 0.335605 0.335605
0.343577 0.343577 0.343577
0.351550 0.351550 0.351550
0.359523 0.359523 0.359523
0.367495 0.367495 0.367495
0.375468 0.375468 0.375468
0.383440 0.383440 0.383440
0.391412 0.391412 0.391412
0.399385 0.399385 0.399385
0.407358 0.407358 0.407358
0.415330 0.415330 0.415330
0.423303 0.423303 0.423303
0.431275 0.431275 0.431275
0.439248 0.439248 0.439248
0.447220 0.447220 0.447220
0.455192 0.455192 0.455192
0.463165 0.463165 0.463165
0.471137 0.471137 0.471137
0.479110 0.479110 0.479110
0.487083 0.487083 0.487083
0.489740 0.489740 0.489740
0.489740 0.489740 0.489740
0.489740 0.489740 0.489740
0.303960 0.303960 0.303960
0.303960 0.303960 0.303960
0.303960 0.303960 0.303960
0.306617 0.306617 0.306617
0.314590 0.314590 0.314590
0.322562 0.322562 0.322562
0.330535 0.330535 0.330535
0.338507 0.338507 0.338507
0.346480 0.346480 0.346480
0.354452 0.354452 0.354452
0.362425 0.362425 0.362425
0.370397 0.370397 0.370397
0.378370 0.378370 0.378370
0.386342 0.386342 0.386342
0.394315 0.394315 0.394315
0.402287 0.402287 0.402287
0.410260 0.410260 0.410260
0.418232 0.418232 0.418232
0.426205 0.426205 0.426205
0.434177 0.434177 0.434177
0.442150 0.442150 0.442150
0.450122 0.450122 0.450122
0.458095 0.458095 0.458095
0.466067 0.466067 0.466067
0.474040 0.474040 0.474040
0.482012 0.482012 0.482012
0.489985 0.489985 0.489985
0.497957 0.497957 0.497957
0.505930 0.505930 0.505930
0.513902 0.513902 0.513902
0.516560 0.516560 0.516560
0.516560 0.516560 0.516560
0.516560 0.516560 0.516560
0.330780 0.330780 0.330780
0.330780 0.330780 0.330780
0.330780 0.330780 0.330780
0.333437 0.333437 0.333437
0.341410 0.341410 0.341410
0.349383 0.349383 0.349383
0.357355 0.357355 0.357355
0.365328 0.365328 0.365328
0.373300 0.373300 0.373300
0.381273 0.381273 0.381273
0.389245 0.389245 0.389245
0.397218 0.397218 0.397218
0.405190 0.405190 0.405190
0.413163 0.413163 0.413163
0.421135 0.421135 0.421135
0.429108 0.429108 0.429108
0.437080 0.437080 0.437080
0.445053 0.445053 0.445053
0.453025 0.453025 0.453025
0.460998 0.460998 0.460998
0.468970 0.468970 0.468970
0.476943 0.476943 0.476943
0.484915 0.484915 0.484915
0.492888 0.492888 0.492888
0.500860 0.500860 0.500860
0.508833 0.508833 0.508833
0.516805 0.516805 0.516805
0.524778 0.524778 0.524778
0.532750 0.532750 0.532750
0.540722 0.540722 0.540722
0.543380 0.543380 0.543380
0.543380 0.543380 0.543380
0.543380 0.543380 0.543380
0.357600 0.357600 0.357600
0.357600 0.357600 0.357600
0.357600 0.357600 0.357600
0.360257 0.360257 0.360257
0.368230 0.368230 0.368230
0.376202 0.376202 0.376202
0.384175 0.384175 0.384175
0.392147 0.392147 0.392147
0.400120 0.400120 0.400120
0.408092 0.408092 0.408092
0.416065 0.416065 0.416065
0.424037 0.424037 0.424037
0.432010 0.432010 0.432010
0.439982 0.439982 0.439982
0.447955 0.447955 0.447955
0.455927 0.455927 0.455927
0.463900 0.463900 0.463900
0.471872 0.471872 0.471872
0.479845 0.479845 0.479845
0.487818 0.487818 0.487818
0.495790 0.495790 0.495790
0.503763 0.503763 0.503763
0.511735 0.511735 0.511735
0.519707 0.519707 0.519707
0.527680 0.527680 0.527680
0.535652 0.535652 0.535652
0.543625 0.543625 0.543625
0.551597 0.551597 0.551597
0.559570 0.559570 0.559570
0.567543 0.567543 0.567543
0.570200 0.570200 0.570200
0.570200 0.570200 0.570200
0.570200 0.570200 0.570200
0.384420 0.384420 0.384420
0.384420 0.384420 0.384420
0.384420 0.384420 0.384420
0.387077 0.387077 0.387077
0.395050 0.395050 0.395050
0.403022 0.403022 0.403022
0.410995 0.410995 0.410995
0.418967 0.418967 0.418967
0.426940 0.426940 0.426940
0.434912 0.434912 0.434912
0.442885 0.442885 0.442885
0.450857 0.450857 0.450857
0.458830 0.458830 0.458830
0.466802 0.466802 0.466802
0.474775 0.474775 0.474775
0.482747 0.482747 0.482747
0.490720 0.490720 0.490720
0.498692 0.498692 0.498692
0.506665 0.506665 0.506665
0.514637 0.514637 0.514637
0.522610 0.522610 0.522610
0.530582 0.530582 0.530582
0.538555 0.538555 0.538555
0.546527 0.546527 0.546527
0.554500 0.554500 0.554500
0.562472 0.562472 0.562472
0.570445 0.570445 0.570445
0.578417 0.578417 0.578417
0.586390 0.586390 0.586390
0.594362 0.594362 0.594362
0.597020 0.597020 0.597020
0.597020 0.597020 0.597020
0.597020 0.597020 0.597020
0.411240 0.411240 0.411240
0.411240 0.411240 0.411240
0.411240 0.411240 0.411240
0.413897 0.413897 0.413897
0.421870 0.421870 0.421870
0.429842 0.429842 0.429842
0.437815 0.437815 0.437815
0.445787 0.445787 0.445787
0.453760 0.453760 0.453760
0.461732 0.461732 0.461732
0.469705 0.469705 0.469705
0.477677 0.477677 0.477677
0.485650 0.485650 0.485650
0.493622 0.493622 0.493622
0.501595 0.501595 0.501595
0.509567 0.509567 0.509567
0.517540 0.517540 0.517540
0.525512 0.525512 0.525512
0.533485 0.533485 0.533485
0.541457 0.541457 0.541457
0.549430 0.549430 0.549430
0.557402 0.557402 0.557402
0.565375 0.565375 0.565375
0.573347 0.573347 0.573347
0.581320 0.581320 0.581320
0.589292 0.589292 0.589292
0.597265 0.597265 0.597265
0.605237 0.605237 0.605237
0.613210 0.613210 0.613210
0.621182 0.621182 0.621182
0.623840 0.623840 0.623840
0.623840 0.623840 0.623840
0.623840 0.623840 0.623840
0.438060 0.438060 0.438060
0.438060 0.438060 0.438060
0.438060 0.438060 0.438060
0.440717 0.440717 0.440717
0.448690 0.448690 0.448690
0.456663 0.456663 0.456663
0.464635 0.464635 0.464635
0.472608 0.472608 0.472608
0.480580 0.480580 0.480580
0.488553 0.488553 0.488553
0.496525 0.496525 0.496525
0.504498 0.504498 0.504498
0.512470 0.512470 0.512470
0.520443 0.520443 0.520443
0.528415 0.528415 0.528415
0.536388 0.536388 0.536388
0.544360 0.544360 0.544360
0.552333 0.552333 0.552333
0.560305 0.560305 0.560305
0.568277 0.568277 0.568277
0.576250 0.576250 0.576250
0.584222 0.584222 0.584222
0.592195 0.592195 0.592195
0.600167 0.600167 0.600167
0.608140 0.608140 0.608140
0.616113 0.616113 0.616113
0.624085 0.624085 0.624085
0.632058 0.632058 0.632058
0.640030 0.640030 0.640030
0.648003 0.648003 0.648003
0.650660 0.650660 0.650660
0.650660 0.650660 0.650660
0.650660 0.650660 0.650660
0.464880 0.464880 0.464880
0.464880 0.464880 0.464880
0.464880 0.464880 0.464880
0.467537 0.467537 0.467537
0.475510 0.475510 0.475510
0.483482 0.483482 0.483482
0.491455 0.491455 0.491455
0.499427 0.499427 0.499427
0.507400 0.507400 0.507400
0.515373 0.515373 0.515373
0.523345 0.523345 0.523345
0.531317 0.531317 0.531317
0.539290 0.539290 0.539290
0.547262 0.547262 0.547262
0.555235 0.555235 0.555235
0.563207 0.563207 0.563207
0.571180 0.571180 0.571180
0.579152 0.579152 0.579152
0.587125 0.587125 0.587125
0.595097 0.595097 0.595097
0.603070 0.603070 0.603070
0.611042 0.611042 0.611042
0.619015 0.619015 0.619015
0.626987 0.626987 0.626987
0.634960 0.634960 0.634960
0.642932 0.642932 0.642932
0.650905 0.650905 0.650905
0.658878 0.658878 0.658878
0.666850 0.666850 0.666850
0.674822 0.674822 0.674822
0.677480 0.677480 0.677480
0.677480 0.677480 0.677480
0.677480 0.677480 0.677480
0.491700 0.491700 0.491700
0.491700 0.491700 0.491700
0.491700 0.491700 0.491700
0.494357 0.494357 0.494357
0.502330 0.502330 0.502330
0.510302 0.510302 0.510302
0.518275 0.518275 0.518275
0.526247 0.526247 0.526247
0.534220 0.534220 0.534220
0.542192 0.542192 0.542192
0.550165 0.550165 0.550165
0.558137 0.558137 0.558137
0.566110 0.566110 0.566110
0.574082 0.574082 0.574082
0.582055 0.582055 0.582055
0.590027 0.590027 0.590027
0.598000 0.598000 0.598000
0.605973 0.605973 0.605973
0.613945 0.613945 0.613945
0.621918 0.621918 0.621918
0.629890 0.629890 0.629890
0.637862 0.637862 0.637862
0.645835 0.645835 0.645835
0.653807 0.653807 0.653807
0.661780 0.661780 0.661780
0.669752 0.669752 0.669752
0.677725 0.677725 0.677725
0.685697 0.685697 0.685697
0.693670 0.693670 0.693670
0.701642 0.701642 0.701642
0.704300 0.704300 0.704300
0.704300 0.704300 0.704300
0.704300 0.704300 0.704300
0.518520 0.518520 0.518520
0.518520 0.518520 0.518520
0.518520 0.518520 0.518520
0.521177 0.521177 0.521177
0.529150 0.529150 0.529150
0.537122 0.537122 0.537122
0.545095 0.545095 0.545095
0.553068 0.553068 0.553068
0.561040 0.561040 0.561040
0.569013 0.569013 0.569013
0.576985 0.576985 0.576985
0.584958 0.584958 0.584958
0.592930 0.592930 0.592930
0.600903 0.600903 0.600903
0.608875 0.608875 0.608875
0.616847 0.616847 0.616847
0.624820 0.624820 0.624820
0.632792 0.632792 0.632792
0.640765 0.640765 0.640765
0.648737 0.648737 0.648737
0.656710 0.656710 0.656710
0.664682 0.664682 0.664682
0.672655 0.672655 0.672655
0.680627 0.680627 0.680627
0.688600 0.688600 0.688600
0.696573 0.696573 0.696573
0.704545 0.704545 0.704545
0.712518 0.712518 0.712518
0.720490 0.720490 0.720490
0.728463 0.728463 0.728463
0.731120 0.731120 0.731120
0.731120 0.731120 0.731120
0.731120 0.731120 0.731120
0.545340 0.545340 0.545340
0.545340 0.545340 0.545340
0.545340 0.545340 0.545340
0.547997 0.547997 0.547997
0.555970 0.555970 0.555970
0.563942 0.563942 0.563942
0.571915 0.571915 0.571915
0.579887 0.579887 0.579887
0.587860 0.587860 0.587860
0.595832 0.595832 0.595832
0.603805 0.603805 0.603805
0.611777 0.611777 0.611777
0.619750 0.619750 0.619750
0.627722 0.627722 0.627722
0.635695 0.635695 0.635695
0.643667 0.643667 0.643667
0.651640 0.651640 0.651640
0.659612 0.659612 0.659612
0.667585 0.667585 0.667585
0.675557 0.675557 0.675557
0.683530 0.683530 0.683530
0.691502 0.691502 0.691502
0.699475 0.699475 0.699475
0.707447 0.707447 0.707447
0.715420 0.715420 0.715420
0.723392 0.723392 0.723392
0.731365 0.731365 0.731365
0.739337 0.739337 0.739337
0.747310 0.747310 0.747310
0.755282 0.755282 0.755282
0.757940 0.757940 0.757940
0.757940 0.757940 0.757940
0.757940 0.757940 0.757940
0.572160 0.572160 0.572160
0.572160 0.572160 0.572160
0.572160 0.572160 0.572160
0.574817 0.574817 0.574817
0.582790 0.582790 0.582790
0.590762 0.590762 0.590762
0.598735 0.598735 0.598735
0.606707 0.606707 0.606707
0.614680 0.614680 0.614680
0.622653 0.622653 0.622653
0.630625 0.630625 0.630625
0.638598 0.638598 0.638598
0.646570 0.646570 0.646570
0.654543 0.654543 0.654543
0.662515 0.662515 0.662515
0.670488 0.670488 0.670488
0.678460 0.678460 0.678460
0.686433 0.686433 0.686433
0.694405 0.694405 0.694405
0.702377 0.702377 0.702377
0.710350 0.710350 0.710350
0.718322 0.718322 0.718322
0.726295 0.726295 0.726295
0.734267 0.734267 0.734267
0.742240 0.742240 0.742240
0.750212 0.750212 0.750212
0.758185 0.758185 0.758185
0.766158 0.766158 0.766158
0.774130 0.774130 0.774130
0.782103 0.782103 0.782103
0.784760 0.784760 0.784760
0.784760 0.784760 0.784760
0.784760 0.784760 0.784760
0.598980 0.598980 0.598980
0.598980 0.598980 0.598980
0.598980 0.598980 0.598980
0.601637 0.601637 0.601637
0.609610 0.609610 0.609610
0.617582 0.617582 0.617582
0.625555 0.625555 0.625555
0.633527 0.633527 0.633527
0.641500 0.641500 0.641500
0.649472 0.649472 0.649472
0.657445 0.657445 0.657445
0.665417 0.665417 0.665417
0.673390 0.673390 0.673390
0.681362 0.681362 0.681362
0.689335 0.689335 0.689335
0.697307 0.697307 0.697307
0.705280 0.705280 0.705280
0.713252 0.713252 0.713252
0.721225 0.721225 0.721225
0.729197 0.729197 0.729197
0.737170 0.737170 0.737170
0.745142 0.745142 0.745142
0.753115 0.753115 0.753115
0.761087 0.761087 0.761087
0.769060 0.769060 0.769060
0.777032 0.777032 0.777032
0.785005 0.785005 0.785005
0.792977 0.792977 0.792977
0.800950 0.800950 0.800950
0.808922 0.808922 0.808922
0.811580 0.811580 0.811580
0.811580 0.811580 0.811580
0.811580 0.811580 0.811580
0.625800 0.625800 0.625800
0.625800 0.625800 0.625800
0.625800 0.625800 0.625800
0.628457 0.628457 0.628457
0.636430 0.636430 0.636430
0.644402 0.644402 0.644402
0.652375 0.652375 0.652375
0.660347 0.660347 0.660347
0.668320 0.668320 0.668320
0.676292 0.676292 0.676292
0.684265 0.684265 0.684265
0.692237 0.692237 0.692237
0.700210 0.700210 0.700210
0.708182 0.708182 0.708182
0.716155 0.716155 0.716155
0.724127 0.724127 0.724127
0.732100 0.732100 0.732100
0.740072 0.740072 0.740072
0.748045 0.748045 0.748045
0.756017 0.756017 0.756017
0.763990 0.763990 0.763990
0.771962 0.771962 0.771962
0.779935 0.779935 0.779935
0.787907 0.787907 0.787907
0.795880 0.795880 0.795880
0.803852 0.803852 0.803852
0.811825 0.811825 0.811825
0.819797 0.819797 0.819797
0.827770 0.827770 0.827770
