plugin/runtime/presets/luts/mono/mono.cube
# akari-video catalog LUT: mono
LUT_3D_SIZE 5
0.000000 0.000000 0.000000
0.042520 0.042520 0.042520
0.106300 0.106300 0.106300
0.170080 0.170080 0.170080
0.212600 0.212600 0.212600
0.143040 0.143040 0.143040
0.185560 0.185560 0.185560
0.249340 0.249340 0.249340
0.313120 0.313120 0.313120
0.355640 0.355640 0.355640
0.357600 0.357600 0.357600
0.400120 0.400120 0.400120
0.463900 0.463900 0.463900
0.527680 0.527680 0.527680
0.570200 0.570200 0.570200
0.572160 0.572160 0.572160
0.614680 0.614680 0.614680
0.678460 0.678460 0.678460
0.742240 0.742240 0.742240
0.784760 0.784760 0.784760
0.715200 0.715200 0.715200
0.757720 0.757720 0.757720
0.821500 0.821500 0.821500
0.885280 0.885280 0.885280
0.927800 0.927800 0.927800
0.014440 0.014440 0.014440
0.056960 0.056960 0.056960
0.120740 0.120740 0.120740
0.184520 0.184520 0.184520
0.227040 0.227040 0.227040
0.157480 0.157480 0.157480
0.200000 0.200000 0.200000
0.263780 0.263780 0.263780
0.327560 0.327560 0.327560
0.370080 0.370080 0.370080
0.372040 0.372040 0.372040
0.414560 0.414560 0.414560
0.478340 0.478340 0.478340
0.542120 0.542120 0.542120
0.584640 0.584640 0.584640
0.586600 0.586600 0.586600
0.629120 0.629120 0.629120
0.692900 0.692900 0.692900
0.756680 0.756680 0.756680
0.799200 0.799200 0.799200
0.729640 0.729640 0.729640
0.772160 0.772160 0.772160
0.835940 0.835940 0.835940
0.899720 0.899720 0.899720
0.942240 0.942240 0.942240
0.036100 0.036100 0.036100
0.078620 0.078620 0.078620
0.142400 0.142400 0.142400
0.206180 0.206180 0.206180
0.248700 0.248700 0.248700
0.179140 0.179140 0.179140
0.221660 0.221660 0.221660
0.285440 0.285440 0.285440
0.349220 0.349220 0.349220
0.391740 0.391740 0.391740
0.393700 0.393700 0.393700
0.436220 0.436220 0.436220
0.500000 0.500000 0.500000
0.563780 0.563780 0.563780
0.606300 0.606300 0.606300
0.608260 0.608260 0.608260
0.650780 0.650780 0.650780
0.714560 0.714560 0.714560
0.778340 0.778340 0.778340
0.820860 0.820860 0.820860
0.751300 0.751300 0.751300
0.793820 0.793820 0.793820
0.857600 0.857600 0.857600
0.921380 0.921380 0.921380
0.963900 0.963900 0.963900
0.057760 0.057760 0.057760
0.100280 0.100280 0.100280
0.164060 0.164060 0.164060
0.227840 0.227840 0.227840
0.270360 0.270360 0.270360
0.200800 0.200800 0.200800
0.243320 0.243320 0.243320
0.307100 0.307100 0.307100
0.370880 0.370880 0.370880
0.413400 0.413400 0.413400
0.415360 0.415360 0.415360
0.457880 0.457880 0.457880
0.521660 0.521660 0.521660
0.585440 0.585440 0.585440
0.627960 0.627960 0.627960
0.629920 0.629920 0.629920
0.672440 0.672440 0.672440
0.736220 0.736220 0.736220
0.800000 0.800000 0.800000
0.842520 0.842520 0.842520
0.772960 0.772960 0.772960
0.815480 0.815480 0.815480
0.879260 0.879260 0.879260
0.943040 0.943040 0.943040
0.985560 0.985560 0.985560
0.072200 0.072200 0.072200
0.114720 0.114720 0.114720
0.178500 0.178500 0.178500
0.242280 0.242280 0.242280
0.284800 0.284800 0.284800
0.215240 0.215240 0.215240
0.257760 0.257760 0.257760
0.321540 0.321540 0.321540
0.385320 0.385320 0.385320
0.427840 0.427840 0.427840
0.429800 0.429800 0.429800
0.472320 0.472320 0.472320
0.536100 0.536100 0.536100
0.599880 0.599880 0.599880
0.642400 0.642400 0.642400
0.644360 0.644360 0.644360
0.686880 0.686880 0.686880
0.750660 0.750660 0.750660
0.814440 0.814440 0.814440
0.856960 0.856960 0.856960
0.787400 0.787400 0.787400
0.829920 0.829920 0.829920
0.893700 0.893700 0.893700
0.957480 0.957480 0.957480
1.000000 1.000000 1.000000
