plugin/runtime/presets/luts/mono/mono.cube
# akari-video catalog LUT: mono
LUT_3D_SIZE 9
0.000000 0.000000 0.000000
0.010630 0.010630 0.010630
0.042520 0.042520 0.042520
0.074410 0.074410 0.074410
0.106300 0.106300 0.106300
0.138190 0.138190 0.138190
0.170080 0.170080 0.170080
0.201970 0.201970 0.201970
0.212600 0.212600 0.212600
0.035760 0.035760 0.035760
0.046390 0.046390 0.046390
0.078280 0.078280 0.078280
0.110170 0.110170 0.110170
0.142060 0.142060 0.142060
0.173950 0.173950 0.173950
0.205840 0.205840 0.205840
0.237730 0.237730 0.237730
0.248360 0.248360 0.248360
0.143040 0.143040 0.143040
0.153670 0.153670 0.153670
0.185560 0.185560 0.185560
0.217450 0.217450 0.217450
0.249340 0.249340 0.249340
0.281230 0.281230 0.281230
0.313120 0.313120 0.313120
0.345010 0.345010 0.345010
0.355640 0.355640 0.355640
0.250320 0.250320 0.250320
0.260950 0.260950 0.260950
0.292840 0.292840 0.292840
0.324730 0.324730 0.324730
0.356620 0.356620 0.356620
0.388510 0.388510 0.388510
0.420400 0.420400 0.420400
0.452290 0.452290 0.452290
0.462920 0.462920 0.462920
0.357600 0.357600 0.357600
0.368230 0.368230 0.368230
0.400120 0.400120 0.400120
0.432010 0.432010 0.432010
0.463900 0.463900 0.463900
0.495790 0.495790 0.495790
0.527680 0.527680 0.527680
0.559570 0.559570 0.559570
0.570200 0.570200 0.570200
0.464880 0.464880 0.464880
0.475510 0.475510 0.475510
0.507400 0.507400 0.507400
0.539290 0.539290 0.539290
0.571180 0.571180 0.571180
0.603070 0.603070 0.603070
0.634960 0.634960 0.634960
0.666850 0.666850 0.666850
0.677480 0.677480 0.677480
0.572160 0.572160 0.572160
0.582790 0.582790 0.582790
0.614680 0.614680 0.614680
0.646570 0.646570 0.646570
0.678460 0.678460 0.678460
0.710350 0.710350 0.710350
0.742240 0.742240 0.742240
0.774130 0.774130 0.774130
0.784760 0.784760 0.784760
0.679440 0.679440 0.679440
0.690070 0.690070 0.690070
0.721960 0.721960 0.721960
0.753850 0.753850 0.753850
0.785740 0.785740 0.785740
0.817630 0.817630 0.817630
0.849520 0.849520 0.849520
0.881410 0.881410 0.881410
0.892040 0.892040 0.892040
0.715200 0.715200 0.715200
0.725830 0.725830 0.725830
0.757720 0.757720 0.757720
0.789610 0.789610 0.789610
0.821500 0.821500 0.821500
0.853390 0.853390 0.853390
0.885280 0.885280 0.885280
0.917170 0.917170 0.917170
0.927800 0.927800 0.927800
0.003610 0.003610 0.003610
0.014240 0.014240 0.014240
0.046130 0.046130 0.046130
0.078020 0.078020 0.078020
0.109910 0.109910 0.109910
0.141800 0.141800 0.141800
0.173690 0.173690 0.173690
0.205580 0.205580 0.205580
0.216210 0.216210 0.216210
0.039370 0.039370 0.039370
0.050000 0.050000 0.050000
0.081890 0.081890 0.081890
0.113780 0.113780 0.113780
0.145670 0.145670 0.145670
0.177560 0.177560 0.177560
0.209450 0.209450 0.209450
0.241340 0.241340 0.241340
0.251970 0.251970 0.251970
0.146650 0.146650 0.146650
0.157280 0.157280 0.157280
0.189170 0.189170 0.189170
0.221060 0.221060 0.221060
0.252950 0.252950 0.252950
0.284840 0.284840 0.284840
0.316730 0.316730 0.316730
0.348620 0.348620 0.348620
0.359250 0.359250 0.359250
0.253930 0.253930 0.253930
0.264560 0.264560 0.264560
0.296450 0.296450 0.296450
0.328340 0.328340 0.328340
0.360230 0.360230 0.360230
0.392120 0.392120 0.392120
0.424010 0.424010 0.424010
0.455900 0.455900 0.455900
0.466530 0.466530 0.466530
0.361210 0.361210 0.361210
0.371840 0.371840 0.371840
0.403730 0.403730 0.403730
0.435620 0.435620 0.435620
0.467510 0.467510 0.467510
0.499400 0.499400 0.499400
0.531290 0.531290 0.531290
0.563180 0.563180 0.563180
0.573810 0.573810 0.573810
0.468490 0.468490 0.468490
0.479120 0.479120 0.479120
0.511010 0.511010 0.511010
0.542900 0.542900 0.542900
0.574790 0.574790 0.574790
0.606680 0.606680 0.606680
0.638570 0.638570 0.638570
0.670460 0.670460 0.670460
0.681090 0.681090 0.681090
0.575770 0.575770 0.575770
0.586400 0.586400 0.586400
0.618290 0.618290 0.618290
0.650180 0.650180 0.650180
0.682070 0.682070 0.682070
0.713960 0.713960 0.713960
0.745850 0.745850 0.745850
0.777740 0.777740 0.777740
0.788370 0.788370 0.788370
0.683050 0.683050 0.683050
0.693680 0.693680 0.693680
0.725570 0.725570 0.725570
0.757460 0.757460 0.757460
0.789350 0.789350 0.789350
0.821240 0.821240 0.821240
0.853130 0.853130 0.853130
0.885020 0.885020 0.885020
0.895650 0.895650 0.895650
0.718810 0.718810 0.718810
0.729440 0.729440 0.729440
0.761330 0.761330 0.761330
0.793220 0.793220 0.793220
0.825110 0.825110 0.825110
0.857000 0.857000 0.857000
0.888890 0.888890 0.888890
0.920780 0.920780 0.920780
0.931410 0.931410 0.931410
0.014440 0.014440 0.014440
0.025070 0.025070 0.025070
0.056960 0.056960 0.056960
0.088850 0.088850 0.088850
0.120740 0.120740 0.120740
0.152630 0.152630 0.152630
0.184520 0.184520 0.184520
0.216410 0.216410 0.216410
0.227040 0.227040 0.227040
0.050200 0.050200 0.050200
0.060830 0.060830 0.060830
0.092720 0.092720 0.092720
0.124610 0.124610 0.124610
0.156500 0.156500 0.156500
0.188390 0.188390 0.188390
0.220280 0.220280 0.220280
0.252170 0.252170 0.252170
0.262800 0.262800 0.262800
0.157480 0.157480 0.157480
0.168110 0.168110 0.168110
0.200000 0.200000 0.200000
0.231890 0.231890 0.231890
0.263780 0.263780 0.263780
0.295670 0.295670 0.295670
0.327560 0.327560 0.327560
0.359450 0.359450 0.359450
0.370080 0.370080 0.370080
0.264760 0.264760 0.264760
0.275390 0.275390 0.275390
0.307280 0.307280 0.307280
0.339170 0.339170 0.339170
0.371060 0.371060 0.371060
0.402950 0.402950 0.402950
0.434840 0.434840 0.434840
0.466730 0.466730 0.466730
0.477360 0.477360 0.477360
0.372040 0.372040 0.372040
0.382670 0.382670 0.382670
0.414560 0.414560 0.414560
0.446450 0.446450 0.446450
0.478340 0.478340 0.478340
0.510230 0.510230 0.510230
0.542120 0.542120 0.542120
0.574010 0.574010 0.574010
0.584640 0.584640 0.584640
0.479320 0.479320 0.479320
0.489950 0.489950 0.489950
0.521840 0.521840 0.521840
0.553730 0.553730 0.553730
0.585620 0.585620 0.585620
0.617510 0.617510 0.617510
0.649400 0.649400 0.649400
0.681290 0.681290 0.681290
0.691920 0.691920 0.691920
0.586600 0.586600 0.586600
0.597230 0.597230 0.597230
0.629120 0.629120 0.629120
0.661010 0.661010 0.661010
0.692900 0.692900 0.692900
0.724790 0.724790 0.724790
0.756680 0.756680 0.756680
0.788570 0.788570 0.788570
0.799200 0.799200 0.799200
0.693880 0.693880 0.693880
0.704510 0.704510 0.704510
0.736400 0.736400 0.736400
0.768290 0.768290 0.768290
0.800180 0.800180 0.800180
0.832070 0.832070 0.832070
0.863960 0.863960 0.863960
0.895850 0.895850 0.895850
0.906480 0.906480 0.906480
0.729640 0.729640 0.729640
0.740270 0.740270 0.740270
0.772160 0.772160 0.772160
0.804050 0.804050 0.804050
0.835940 0.835940 0.835940
0.867830 0.867830 0.867830
0.899720 0.899720 0.899720
0.931610 0.931610 0.931610
0.942240 0.942240 0.942240
0.025270 0.025270 0.025270
0.035900 0.035900 0.035900
0.067790 0.067790 0.067790
0.099680 0.099680 0.099680
0.131570 0.131570 0.131570
0.163460 0.163460 0.163460
0.195350 0.195350 0.195350
0.227240 0.227240 0.227240
0.237870 0.237870 0.237870
0.061030 0.061030 0.061030
0.071660 0.071660 0.071660
0.103550 0.103550 0.103550
0.135440 0.135440 0.135440
0.167330 0.167330 0.167330
0.199220 0.199220 0.199220
0.231110 0.231110 0.231110
0.263000 0.263000 0.263000
0.273630 0.273630 0.273630
0.168310 0.168310 0.168310
0.178940 0.178940 0.178940
0.210830 0.210830 0.210830
0.242720 0.242720 0.242720
0.274610 0.274610 0.274610
0.306500 0.306500 0.306500
0.338390 0.338390 0.338390
0.370280 0.370280 0.370280
0.380910 0.380910 0.380910
0.275590 0.275590 0.275590
0.286220 0.286220 0.286220
0.318110 0.318110 0.318110
0.350000 0.350000 0.350000
0.381890 0.381890 0.381890
0.413780 0.413780 0.413780
0.445670 0.445670 0.445670
0.477560 0.477560 0.477560
0.488190 0.488190 0.488190
0.382870 0.382870 0.382870
0.393500 0.393500 0.393500
0.425390 0.425390 0.425390
0.457280 0.457280 0.457280
0.489170 0.489170 0.489170
0.521060 0.521060 0.521060
0.552950 0.552950 0.552950
0.584840 0.584840 0.584840
0.595470 0.595470 0.595470
0.490150 0.490150 0.490150
0.500780 0.500780 0.500780
0.532670 0.532670 0.532670
0.564560 0.564560 0.564560
0.596450 0.596450 0.596450
0.628340 0.628340 0.628340
0.660230 0.660230 0.660230
0.692120 0.692120 0.692120
0.702750 0.702750 0.702750
0.597430 0.597430 0.597430
0.608060 0.608060 0.608060
0.639950 0.639950 0.639950
0.671840 0.671840 0.671840
0.703730 0.703730 0.703730
0.735620 0.735620 0.735620
0.767510 0.767510 0.767510
0.799400 0.799400 0.799400
0.810030 0.810030 0.810030
0.704710 0.704710 0.704710
0.715340 0.715340 0.715340
0.747230 0.747230 0.747230
0.779120 0.779120 0.779120
0.811010 0.811010 0.811010
0.842900 0.842900 0.842900
0.874790 0.874790 0.874790
0.906680 0.906680 0.906680
0.917310 0.917310 0.917310
0.740470 0.740470 0.740470
0.751100 0.751100 0.751100
0.782990 0.782990 0.782990
0.814880 0.814880 0.814880
0.846770 0.846770 0.846770
0.878660 0.878660 0.878660
0.910550 0.910550 0.910550
0.942440 0.942440 0.942440
0.953070 0.953070 0.953070
0.036100 0.036100 0.036100
0.046730 0.046730 0.046730
0.078620 0.078620 0.078620
0.110510 0.110510 0.110510
0.142400 0.142400 0.142400
0.174290 0.174290 0.174290
0.206180 0.206180 0.206180
0.238070 0.238070 0.238070
0.248700 0.248700 0.248700
0.071860 0.071860 0.071860
0.082490 0.082490 0.082490
0.114380 0.114380 0.114380
0.146270 0.146270 0.146270
0.178160 0.178160 0.178160
0.210050 0.210050 0.210050
0.241940 0.241940 0.241940
0.273830 0.273830 0.273830
0.284460 0.284460 0.284460
0.179140 0.179140 0.179140
0.189770 0.189770 0.189770
0.221660 0.221660 0.221660
0.253550 0.253550 0.253550
0.285440 0.285440 0.285440
0.317330 0.317330 0.317330
0.349220 0.349220 0.349220
0.381110 0.381110 0.381110
0.391740 0.391740 0.391740
0.286420 0.286420 0.286420
0.297050 0.297050 0.297050
0.328940 0.328940 0.328940
0.360830 0.360830 0.360830
0.392720 0.392720 0.392720
0.424610 0.424610 0.424610
0.456500 0.456500 0.456500
0.488390 0.488390 0.488390
0.499020 0.499020 0.499020
0.393700 0.393700 0.393700
0.404330 0.404330 0.404330
0.436220 0.436220 0.436220
0.468110 0.468110 0.468110
0.500000 0.500000 0.500000
0.531890 0.531890 0.531890
0.563780 0.563780 0.563780
0.595670 0.595670 0.595670
0.606300 0.606300 0.606300
0.500980 0.500980 0.500980
0.511610 0.511610 0.511610
0.543500 0.543500 0.543500
0.575390 0.575390 0.575390
0.607280 0.607280 0.607280
0.639170 0.639170 0.639170
0.671060 0.671060 0.671060
0.702950 0.702950 0.702950
0.713580 0.713580 0.713580
0.608260 0.608260 0.608260
0.618890 0.618890 0.618890
0.650780 0.650780 0.650780
0.682670 0.682670 0.682670
0.714560 0.714560 0.714560
0.746450 0.746450 0.746450
0.778340 0.778340 0.778340
0.810230 0.810230 0.810230
0.820860 0.820860 0.820860
0.715540 0.715540 0.715540
0.726170 0.726170 0.726170
0.758060 0.758060 0.758060
0.789950 0.789950 0.789950
0.821840 0.821840 0.821840
0.853730 0.853730 0.853730
0.885620 0.885620 0.885620
0.917510 0.917510 0.917510
0.928140 0.928140 0.928140
0.751300 0.751300 0.751300
0.761930 0.761930 0.761930
0.793820 0.793820 0.793820
0.825710 0.825710 0.825710
0.857600 0.857600 0.857600
0.889490 0.889490 0.889490
0.921380 0.921380 0.921380
0.953270 0.953270 0.953270
0.963900 0.963900 0.963900
0.046930 0.046930 0.046930
0.057560 0.057560 0.057560
0.089450 0.089450 0.089450
0.121340 0.121340 0.121340
0.153230 0.153230 0.153230
0.185120 0.185120 0.185120
0.217010 0.217010 0.217010
0.248900 0.248900 0.248900
0.259530 0.259530 0.259530
0.082690 0.082690 0.082690
0.093320 0.093320 0.093320
0.125210 0.125210 0.125210
0.157100 0.157100 0.157100
0.188990 0.188990 0.188990
0.220880 0.220880 0.220880
0.252770 0.252770 0.252770
0.284660 0.284660 0.284660
0.295290 0.295290 0.295290
0.189970 0.189970 0.189970
0.200600 0.200600 0.200600
0.232490 0.232490 0.232490
0.264380 0.264380 0.264380
0.296270 0.296270 0.296270
0.328160 0.328160 0.328160
0.360050 0.360050 0.360050
0.391940 0.391940 0.391940
0.402570 0.402570 0.402570
0.297250 0.297250 0.297250
0.307880 0.307880 0.307880
0.339770 0.339770 0.339770
0.371660 0.371660 0.371660
0.403550 0.403550 0.403550
0.435440 0.435440 0.435440
0.467330 0.467330 0.467330
0.499220 0.499220 0.499220
0.509850 0.509850 0.509850
0.404530 0.404530 0.404530
0.415160 0.415160 0.415160
0.447050 0.447050 0.447050
0.478940 0.478940 0.478940
0.510830 0.510830 0.510830
0.542720 0.542720 0.542720
0.574610 0.574610 0.574610
0.606500 0.606500 0.606500
0.617130 0.617130 0.617130
0.511810 0.511810 0.511810
0.522440 0.522440 0.522440
0.554330 0.554330 0.554330
0.586220 0.586220 0.586220
0.618110 0.618110 0.618110
0.650000 0.650000 0.650000
0.681890 0.681890 0.681890
0.713780 0.713780 0.713780
0.724410 0.724410 0.724410
0.619090 0.619090 0.619090
0.629720 0.629720 0.629720
0.661610 0.661610 0.661610
0.693500 0.693500 0.693500
0.725390 0.725390 0.725390
0.757280 0.757280 0.757280
0.789170 0.789170 0.789170
0.821060 0.821060 0.821060
0.831690 0.831690 0.831690
0.726370 0.726370 0.726370
0.737000 0.737000 0.737000
0.768890 0.768890 0.768890
0.800780 0.800780 0.800780
0.832670 0.832670 0.832670
0.864560 0.864560 0.864560
0.896450 0.896450 0.896450
0.928340 0.928340 0.928340
0.938970 0.938970 0.938970
0.762130 0.762130 0.762130
0.772760 0.772760 0.772760
0.804650 0.804650 0.804650
0.836540 0.836540 0.836540
0.868430 0.868430 0.868430
0.900320 0.900320 0.900320
0.932210 0.932210 0.932210
0.964100 0.964100 0.964100
0.974730 0.974730 0.974730
0.057760 0.057760 0.057760
0.068390 0.068390 0.068390
0.100280 0.100280 0.100280
0.132170 0.132170 0.132170
0.164060 0.164060 0.164060
0.195950 0.195950 0.195950
0.227840 0.227840 0.227840
0.259730 0.259730 0.259730
0.270360 0.270360 0.270360
0.093520 0.093520 0.093520
0.104150 0.104150 0.104150
0.136040 0.136040 0.136040
0.167930 0.167930 0.167930
0.199820 0.199820 0.199820
0.231710 0.231710 0.231710
0.263600 0.263600 0.263600
0.295490 0.295490 0.295490
0.306120 0.306120 0.306120
0.200800 0.200800 0.200800
0.211430 0.211430 0.211430
0.243320 0.243320 0.243320
0.275210 0.275210 0.275210
0.307100 0.307100 0.307100
0.338990 0.338990 0.338990
0.370880 0.370880 0.370880
0.402770 0.402770 0.402770
0.413400 0.413400 0.413400
0.308080 0.308080 0.308080
0.318710 0.318710 0.318710
0.350600 0.350600 0.350600
0.382490 0.382490 0.382490
0.414380 0.414380 0.414380
0.446270 0.446270 0.446270
0.478160 0.478160 0.478160
0.510050 0.510050 0.510050
0.520680 0.520680 0.520680
0.415360 0.415360 0.415360
0.425990 0.425990 0.425990
0.457880 0.457880 0.457880
0.489770 0.489770 0.489770
0.521660 0.521660 0.521660
0.553550 0.553550 0.553550
0.585440 0.585440 0.585440
0.617330 0.617330 0.617330
0.627960 0.627960 0.627960
0.522640 0.522640 0.522640
0.533270 0.533270 0.533270
0.565160 0.565160 0.565160
0.597050 0.597050 0.597050
0.628940 0.628940 0.628940
0.660830 0.660830 0.660830
0.692720 0.692720 0.692720
0.724610 0.724610 0.724610
0.735240 0.735240 0.735240
0.629920 0.629920 0.629920
0.640550 0.640550 0.640550
0.672440 0.672440 0.672440
0.704330 0.704330 0.704330
0.736220 0.736220 0.736220
0.768110 0.768110 0.768110
0.800000 0.800000 0.800000
0.831890 0.831890 0.831890
0.842520 0.842520 0.842520
0.737200 0.737200 0.737200
0.747830 0.747830 0.747830
0.779720 0.779720 0.779720
0.811610 0.811610 0.811610
0.843500 0.843500 0.843500
0.875390 0.875390 0.875390
0.907280 0.907280 0.907280
0.939170 0.939170 0.939170
0.949800 0.949800 0.949800
0.772960 0.772960 0.772960
0.783590 0.783590 0.783590
0.815480 0.815480 0.815480
0.847370 0.847370 0.847370
0.879260 0.879260 0.879260
0.911150 0.911150 0.911150
0.943040 0.943040 0.943040
0.974930 0.974930 0.974930
0.985560 0.985560 0.985560
0.068590 0.068590 0.068590
0.079220 0.079220 0.079220
0.111110 0.111110 0.111110
0.143000 0.143000 0.143000
0.174890 0.174890 0.174890
0.206780 0.206780 0.206780
0.238670 0.238670 0.238670
0.270560 0.270560 0.270560
0.281190 0.281190 0.281190
0.104350 0.104350 0.104350
0.114980 0.114980 0.114980
0.146870 0.146870 0.146870
0.178760 0.178760 0.178760
0.210650 0.210650 0.210650
0.242540 0.242540 0.242540
0.274430 0.274430 0.274430
0.306320 0.306320 0.306320
0.316950 0.316950 0.316950
0.211630 0.211630 0.211630
0.222260 0.222260 0.222260
0.254150 0.254150 0.254150
0.286040 0.286040 0.286040
0.317930 0.317930 0.317930
0.349820 0.349820 0.349820
0.381710 0.381710 0.381710
0.413600 0.413600 0.413600
0.424230 0.424230 0.424230
0.318910 0.318910 0.318910
0.329540 0.329540 0.329540
0.361430 0.361430 0.361430
0.393320 0.393320 0.393320
0.425210 0.425210 0.425210
0.457100 0.457100 0.457100
0.488990 0.488990 0.488990
0.520880 0.520880 0.520880
0.531510 0.531510 0.531510
0.426190 0.426190 0.426190
0.436820 0.436820 0.436820
0.468710 0.468710 0.468710
0.500600 0.500600 0.500600
0.532490 0.532490 0.532490
0.564380 0.564380 0.564380
0.596270 0.596270 0.596270
0.628160 0.628160 0.628160
0.638790 0.638790 0.638790
0.533470 0.533470 0.533470
0.544100 0.544100 0.544100
0.575990 0.575990 0.575990
0.607880 0.607880 0.607880
0.639770 0.639770 0.639770
0.671660 0.671660 0.671660
0.703550 0.703550 0.703550
0.735440 0.735440 0.735440
0.746070 0.746070 0.746070
0.640750 0.640750 0.640750
0.651380 0.651380 0.651380
0.683270 0.683270 0.683270
0.715160 0.715160 0.715160
0.747050 0.747050 0.747050
0.778940 0.778940 0.778940
0.810830 0.810830 0.810830
0.842720 0.842720 0.842720
0.853350 0.853350 0.853350
0.748030 0.748030 0.748030
0.758660 0.758660 0.758660
0.790550 0.790550 0.790550
0.822440 0.822440 0.822440
0.854330 0.854330 0.854330
0.886220 0.886220 0.886220
0.918110 0.918110 0.918110
0.950000 0.950000 0.950000
0.960630 0.960630 0.960630
0.783790 0.783790 0.783790
0.794420 0.794420 0.794420
0.826310 0.826310 0.826310
0.858200 0.858200 0.858200
0.890090 0.890090 0.890090
0.921980 0.921980 0.921980
0.953870 0.953870 0.953870
0.985760 0.985760 0.985760
0.996390 0.996390 0.996390
0.072200 0.072200 0.072200
0.082830 0.082830 0.082830
0.114720 0.114720 0.114720
0.146610 0.146610 0.146610
0.178500 0.178500 0.178500
0.210390 0.210390 0.210390
0.242280 0.242280 0.242280
0.274170 0.274170 0.274170
0.284800 0.284800 0.284800
0.107960 0.107960 0.107960
0.118590 0.118590 0.118590
0.150480 0.150480 0.150480
0.182370 0.182370 0.182370
0.214260 0.214260 0.214260
0.246150 0.246150 0.246150
0.278040 0.278040 0.278040
0.309930 0.309930 0.309930
0.320560 0.320560 0.320560
0.215240 0.215240 0.215240
0.225870 0.225870 0.225870
0.257760 0.257760 0.257760
0.289650 0.289650 0.289650
0.321540 0.321540 0.321540
0.353430 0.353430 0.353430
0.385320 0.385320 0.385320
0.417210 0.417210 0.417210
0.427840 0.427840 0.427840
0.322520 0.322520 0.322520
0.333150 0.333150 0.333150
0.365040 0.365040 0.365040
0.396930 0.396930 0.396930
0.428820 0.428820 0.428820
0.460710 0.460710 0.460710
0.492600 0.492600 0.492600
0.524490 0.524490 0.524490
0.535120 0.535120 0.535120
0.429800 0.429800 0.429800
0.440430 0.440430 0.440430
0.472320 0.472320 0.472320
0.504210 0.504210 0.504210
0.536100 0.536100 0.536100
0.567990 0.567990 0.567990
0.599880 0.599880 0.599880
0.631770 0.631770 0.631770
0.642400 0.642400 0.642400
0.537080 0.537080 0.537080
0.547710 0.547710 0.547710
0.579600 0.579600 0.579600
0.611490 0.611490 0.611490
0.643380 0.643380 0.643380
0.675270 0.675270 0.675270
0.707160 0.707160 0.707160
0.739050 0.739050 0.739050
0.749680 0.749680 0.749680
0.644360 0.644360 0.644360
0.654990 0.654990 0.654990
0.686880 0.686880 0.686880
0.718770 0.718770 0.718770
0.750660 0.750660 0.750660
0.782550 0.782550 0.782550
0.814440 0.814440 0.814440
0.846330 0.846330 0.846330
0.856960 0.856960 0.856960
0.751640 0.751640 0.751640
0.762270 0.762270 0.762270
0.794160 0.794160 0.794160
0.826050 0.826050 0.826050
0.857940 0.857940 0.857940
0.889830 0.889830 0.889830
0.921720 0.921720 0.921720
0.953610 0.953610 0.953610
0.964240 0.964240 0.964240
0.787400 0.787400 0.787400
0.798030 0.798030 0.798030
0.829920 0.829920 0.829920
0.861810 0.861810 0.861810
0.893700 0.893700 0.893700
0.925590 0.925590 0.925590
0.957480 0.957480 0.957480
0.989370 0.989370 0.989370
1.000000 1.000000 1.000000
