presets/luts/night-neon/night-neon.cube
# akari-video catalog LUT: night-neon
LUT_3D_SIZE 5
0.025875 0.000000 0.064200
0.249345 0.000000 0.064200
0.594386 0.000000 0.064200
0.939428 0.000000 0.064200
1.000000 0.000000 0.064200
0.025875 0.179563 0.064200
0.214852 0.169303 0.064200
0.559893 0.153461 0.064200
0.904935 0.137619 0.064200
1.000000 0.123746 0.064200
0.025875 0.487384 0.064200
0.161594 0.477124 0.064200
0.506635 0.461282 0.064200
0.851677 0.445440 0.064200
1.000000 0.431566 0.064200
0.025875 0.795205 0.064200
0.108336 0.784945 0.064200
0.453377 0.769103 0.064200
0.798419 0.753261 0.064200
1.000000 0.739387 0.064200
0.025875 0.990000 0.064200
0.061696 0.990000 0.064200
0.406738 0.990000 0.064200
0.751779 0.990000 0.064200
1.000000 0.990000 0.064200
0.025875 0.000000 0.293682
0.245863 0.000000 0.283463
0.590904 0.000000 0.267684
0.935946 0.000000 0.251904
1.000000 0.000000 0.238086
0.025875 0.176079 0.259303
0.211370 0.165819 0.249083
0.556411 0.149977 0.233304
0.901453 0.134135 0.217525
1.000000 0.120261 0.203706
0.025875 0.483900 0.206221
0.158112 0.473639 0.196001
0.503153 0.457797 0.180222
0.848195 0.441955 0.164442
1.000000 0.428082 0.150624
0.025875 0.791720 0.153138
0.104854 0.781460 0.142918
0.449895 0.765618 0.127139
0.794937 0.749776 0.111360
1.000000 0.735903 0.097541
0.025875 0.990000 0.106652
0.058214 0.990000 0.096432
0.403255 0.990000 0.080653
0.748297 0.990000 0.064874
1.000000 0.990000 0.064200
0.025875 0.000000 0.648008
0.240486 0.000000 0.637788
0.585528 0.000000 0.622009
0.930569 0.000000 0.606230
1.000000 0.000000 0.592411
0.025875 0.170699 0.613628
0.205993 0.160439 0.603409
0.551035 0.144597 0.587629
0.896076 0.128755 0.571850
1.000000 0.114881 0.558032
0.025875 0.478520 0.560546
0.152735 0.468259 0.550326
0.497777 0.452417 0.534547
0.842818 0.436575 0.518768
1.000000 0.422702 0.504949
0.025875 0.786340 0.507463
0.099477 0.776080 0.497244
0.444519 0.760238 0.481464
0.789560 0.744396 0.465685
1.000000 0.730523 0.451867
0.025875 0.990000 0.460977
0.052837 0.990000 0.450758
0.397879 0.990000 0.434978
0.742921 0.990000 0.419199
1.000000 0.990000 0.405381
0.025875 0.000000 1.000000
0.235110 0.000000 0.992113
0.580151 0.000000 0.976334
0.925193 0.000000 0.960555
1.000000 0.000000 0.946736
0.025875 0.165319 0.967953
0.200617 0.155059 0.957734
0.545658 0.139217 0.941955
0.890700 0.123375 0.926175
1.000000 0.109501 0.912357
0.025875 0.473140 0.914871
0.147359 0.462879 0.904651
0.492400 0.447037 0.888872
0.837442 0.431195 0.873093
1.000000 0.417322 0.859274
0.025875 0.780960 0.861788
0.094101 0.770700 0.851569
0.439142 0.754858 0.835790
0.784184 0.739016 0.820010
1.000000 0.725143 0.806192
0.025875 0.990000 0.815302
0.047461 0.990000 0.805083
0.392503 0.990000 0.789303
0.737544 0.990000 0.773524
1.000000 0.990000 0.759706
0.025875 0.000000 1.000000
0.230402 0.000000 1.000000
0.575443 0.000000 1.000000
0.920485 0.000000 1.000000
1.000000 0.000000 1.000000
0.025875 0.160607 1.000000
0.195908 0.150347 1.000000
0.540950 0.134505 1.000000
0.885992 0.118663 1.000000
1.000000 0.104790 1.000000
0.025875 0.468428 1.000000
0.142650 0.458168 1.000000
0.487692 0.442326 1.000000
0.832734 0.426484 1.000000
1.000000 0.412610 1.000000
0.025875 0.776249 1.000000
0.089392 0.765989 1.000000
0.434434 0.750147 1.000000
0.779476 0.734305 1.000000
1.000000 0.720431 1.000000
0.025875 0.990000 1.000000
0.042753 0.990000 1.000000
0.387794 0.990000 1.000000
0.732836 0.990000 1.000000
1.000000 0.990000 1.000000
