presets/luts/night-neon/night-neon.cube
# akari-video catalog LUT: night-neon
LUT_3D_SIZE 9
0.025875 0.000000 0.064200
0.076824 0.000000 0.064200
0.249345 0.000000 0.064200
0.421866 0.000000 0.064200
0.594386 0.000000 0.064200
0.766907 0.000000 0.064200
0.939428 0.000000 0.064200
1.000000 0.000000 0.064200
1.000000 0.000000 0.064200
0.025875 0.025653 0.064200
0.068960 0.023314 0.064200
0.241481 0.015393 0.064200
0.414001 0.007472 0.064200
0.586522 0.000000 0.064200
0.759043 0.000000 0.064200
0.931564 0.000000 0.064200
1.000000 0.000000 0.064200
1.000000 0.000000 0.064200
0.025875 0.179563 0.064200
0.042331 0.177224 0.064200
0.214852 0.169303 0.064200
0.387373 0.161382 0.064200
0.559893 0.153461 0.064200
0.732414 0.145540 0.064200
0.904935 0.137619 0.064200
1.000000 0.129698 0.064200
1.000000 0.123746 0.064200
0.025875 0.333474 0.064200
0.025875 0.331135 0.064200
0.188223 0.323214 0.064200
0.360744 0.315293 0.064200
0.533264 0.307371 0.064200
0.705785 0.299450 0.064200
0.878306 0.291529 0.064200
1.000000 0.283608 0.064200
1.000000 0.277656 0.064200
0.025875 0.487384 0.064200
0.025875 0.485045 0.064200
0.161594 0.477124 0.064200
0.334115 0.469203 0.064200
0.506635 0.461282 0.064200
0.679156 0.453361 0.064200
0.851677 0.445440 0.064200
1.000000 0.437519 0.064200
1.000000 0.431566 0.064200
0.025875 0.641295 0.064200
0.025875 0.638955 0.064200
0.134965 0.631034 0.064200
0.307486 0.623113 0.064200
0.480006 0.615192 0.064200
0.652527 0.607271 0.064200
0.825048 0.599350 0.064200
0.997569 0.591429 0.064200
1.000000 0.585477 0.064200
0.025875 0.795205 0.064200
0.025875 0.792866 0.064200
0.108336 0.784945 0.064200
0.280857 0.777024 0.064200
0.453377 0.769103 0.064200
0.625898 0.761182 0.064200
0.798419 0.753261 0.064200
0.970940 0.745340 0.064200
1.000000 0.739387 0.064200
0.025875 0.949115 0.064200
0.025875 0.946776 0.064200
0.081707 0.938855 0.064200
0.254228 0.930934 0.064200
0.426748 0.923013 0.064200
0.599269 0.915092 0.064200
0.771790 0.907171 0.064200
0.944311 0.899250 0.064200
1.000000 0.893298 0.064200
0.025875 0.990000 0.064200
0.025875 0.990000 0.064200
0.061696 0.990000 0.064200
0.234217 0.990000 0.064200
0.406738 0.990000 0.064200
0.579258 0.990000 0.064200
0.751779 0.990000 0.064200
0.924300 0.990000 0.064200
1.000000 0.990000 0.064200
0.025875 0.000000 0.116520
0.076030 0.000000 0.114190
0.248551 0.000000 0.106300
0.421072 0.000000 0.098411
0.593592 0.000000 0.090521
0.766113 0.000000 0.082631
0.938634 0.000000 0.074742
1.000000 0.000000 0.066852
1.000000 0.000000 0.064200
0.025875 0.024859 0.108682
0.068166 0.022519 0.106352
0.240687 0.014598 0.098462
0.413208 0.006677 0.090572
0.585728 0.000000 0.082683
0.758249 0.000000 0.074793
0.930770 0.000000 0.066904
1.000000 0.000000 0.064200
1.000000 0.000000 0.064200
0.025875 0.178769 0.082140
0.041537 0.176430 0.079810
0.214058 0.168509 0.071921
0.386579 0.160588 0.064200
0.559099 0.152667 0.064200
0.731620 0.144746 0.064200
0.904141 0.136825 0.064200
1.000000 0.128904 0.064200
1.000000 0.122951 0.064200
0.025875 0.332679 0.064200
0.025875 0.330340 0.064200
0.187429 0.322419 0.064200
0.359950 0.314498 0.064200
0.532470 0.306577 0.064200
0.704991 0.298656 0.064200
0.877512 0.290735 0.064200
1.000000 0.282814 0.064200
1.000000 0.276862 0.064200
0.025875 0.486590 0.064200
0.025875 0.484250 0.064200
0.160800 0.476329 0.064200
0.333321 0.468408 0.064200
0.505841 0.460487 0.064200
0.678362 0.452566 0.064200
0.850883 0.444645 0.064200
1.000000 0.436724 0.064200
1.000000 0.430772 0.064200
0.025875 0.640500 0.064200
0.025875 0.638161 0.064200
0.134171 0.630240 0.064200
0.306692 0.622319 0.064200
0.479212 0.614398 0.064200
0.651733 0.606477 0.064200
0.824254 0.598556 0.064200
0.996775 0.590635 0.064200
1.000000 0.584682 0.064200
0.025875 0.794411 0.064200
0.025875 0.792071 0.064200
0.107542 0.784150 0.064200
0.280063 0.776229 0.064200
0.452583 0.768308 0.064200
0.625104 0.760387 0.064200
0.797625 0.752466 0.064200
0.970146 0.744545 0.064200
1.000000 0.738593 0.064200
0.025875 0.948321 0.064200
0.025875 0.945982 0.064200
0.080913 0.938061 0.064200
0.253434 0.930140 0.064200
0.425954 0.922219 0.064200
0.598475 0.914298 0.064200
0.770996 0.906377 0.064200
0.943517 0.898456 0.064200
1.000000 0.892503 0.064200
0.025875 0.990000 0.064200
0.025875 0.990000 0.064200
0.060902 0.990000 0.064200
0.233423 0.990000 0.064200
0.405944 0.990000 0.064200
0.578464 0.990000 0.064200
0.750985 0.990000 0.064200
0.923506 0.990000 0.064200
1.000000 0.990000 0.064200
0.025875 0.000000 0.293682
0.073342 0.000000 0.291353
0.245863 0.000000 0.283463
0.418383 0.000000 0.275573
0.590904 0.000000 0.267684
0.763425 0.000000 0.259794
0.935946 0.000000 0.251904
1.000000 0.000000 0.244015
1.000000 0.000000 0.238086
0.025875 0.022169 0.285844
0.065478 0.019829 0.283514
0.237999 0.011908 0.275625
0.410519 0.003987 0.267735
0.583040 0.000000 0.259845
0.755561 0.000000 0.251956
0.928082 0.000000 0.244066
1.000000 0.000000 0.236176
1.000000 0.000000 0.230248
0.025875 0.176079 0.259303
0.038849 0.173740 0.256973
0.211370 0.165819 0.249083
0.383890 0.157898 0.241194
0.556411 0.149977 0.233304
0.728932 0.142056 0.225415
0.901453 0.134135 0.217525
1.000000 0.126214 0.209635
1.000000 0.120261 0.203706
0.025875 0.329989 0.232762
0.025875 0.327650 0.230432
0.184741 0.319729 0.222542
0.357261 0.311808 0.214653
0.529782 0.303887 0.206763
0.702303 0.295966 0.198873
0.874824 0.288045 0.190984
1.000000 0.280124 0.183094
1.000000 0.274172 0.177165
0.025875 0.483900 0.206221
0.025875 0.481560 0.203891
0.158112 0.473639 0.196001
0.330632 0.465718 0.188111
0.503153 0.457797 0.180222
0.675674 0.449876 0.172332
0.848195 0.441955 0.164442
1.000000 0.434034 0.156553
1.000000 0.428082 0.150624
0.025875 0.637810 0.179679
0.025875 0.635471 0.177349
0.131483 0.627550 0.169460
0.304003 0.619629 0.161570
0.476524 0.611708 0.153680
0.649045 0.603787 0.145791
0.821566 0.595866 0.137901
0.994087 0.587945 0.130011
1.000000 0.581992 0.124083
0.025875 0.791720 0.153138
0.025875 0.789381 0.150808
0.104854 0.781460 0.142918
0.277374 0.773539 0.135029
0.449895 0.765618 0.127139
0.622416 0.757697 0.119250
0.794937 0.749776 0.111360
0.967458 0.741855 0.103470
1.000000 0.735903 0.097541
0.025875 0.945631 0.126597
0.025875 0.943292 0.124267
0.078225 0.935371 0.116377
0.250745 0.927450 0.108488
0.423266 0.919529 0.100598
0.595787 0.911608 0.092708
0.768308 0.903687 0.084819
0.940829 0.895766 0.076929
1.000000 0.889813 0.071000
0.025875 0.990000 0.106652
0.025875 0.990000 0.104322
0.058214 0.990000 0.096432
0.230735 0.990000 0.088543
0.403255 0.990000 0.080653
0.575776 0.990000 0.072763
0.748297 0.990000 0.064874
0.920818 0.990000 0.064200
1.000000 0.990000 0.064200
0.025875 0.000000 0.470845
0.070654 0.000000 0.468515
0.243175 0.000000 0.460625
0.415695 0.000000 0.452736
0.588216 0.000000 0.444846
0.760737 0.000000 0.436957
0.933258 0.000000 0.429067
1.000000 0.000000 0.421177
1.000000 0.000000 0.415248
0.025875 0.019479 0.463007
0.062790 0.017139 0.460677
0.235310 0.009218 0.452787
0.407831 0.001297 0.444898
0.580352 0.000000 0.437008
0.752873 0.000000 0.429118
0.925393 0.000000 0.421229
1.000000 0.000000 0.413339
1.000000 0.000000 0.407410
0.025875 0.173389 0.436466
0.036161 0.171050 0.434136
0.208681 0.163129 0.426246
0.381202 0.155208 0.418356
0.553723 0.147287 0.410467
0.726244 0.139366 0.402577
0.898764 0.131445 0.394687
1.000000 0.123524 0.386798
1.000000 0.117571 0.380869
0.025875 0.327299 0.409924
0.025875 0.324960 0.407594
0.182052 0.317039 0.399705
0.354573 0.309118 0.391815
0.527094 0.301197 0.383926
0.699615 0.293276 0.376036
0.872135 0.285355 0.368146
1.000000 0.277434 0.360257
1.000000 0.271482 0.354328
0.025875 0.481210 0.383383
0.025875 0.478870 0.381053
0.155423 0.470949 0.373164
0.327944 0.463028 0.365274
0.500465 0.455107 0.357384
0.672986 0.447186 0.349495
0.845507 0.439265 0.341605
1.000000 0.431344 0.333715
1.000000 0.425392 0.327787
0.025875 0.635120 0.356842
0.025875 0.632781 0.354512
0.128794 0.624860 0.346622
0.301315 0.616939 0.338733
0.473836 0.609018 0.330843
0.646357 0.601097 0.322953
0.818878 0.593176 0.315064
0.991398 0.585255 0.307174
1.000000 0.579302 0.301245
0.025875 0.789030 0.330301
0.025875 0.786691 0.327971
0.102165 0.778770 0.320081
0.274686 0.770849 0.312191
0.447207 0.762928 0.304302
0.619728 0.755007 0.296412
0.792249 0.747086 0.288522
0.964769 0.739165 0.280633
1.000000 0.733213 0.274704
0.025875 0.942941 0.303759
0.025875 0.940602 0.301429
0.075536 0.932681 0.293540
0.248057 0.924760 0.285650
0.420578 0.916839 0.277761
0.593099 0.908918 0.269871
0.765620 0.900997 0.261981
0.938140 0.893076 0.254092
1.000000 0.887123 0.248163
0.025875 0.990000 0.283815
0.025875 0.990000 0.281485
0.055526 0.990000 0.273595
0.228046 0.990000 0.265705
0.400567 0.990000 0.257816
0.573088 0.990000 0.249926
0.745609 0.990000 0.242036
0.918130 0.990000 0.234147
1.000000 0.990000 0.228218
0.025875 0.000000 0.648008
0.067966 0.000000 0.645678
0.240486 0.000000 0.637788
0.413007 0.000000 0.629898
0.585528 0.000000 0.622009
0.758049 0.000000 0.614119
0.930569 0.000000 0.606230
1.000000 0.000000 0.598340
1.000000 0.000000 0.592411
0.025875 0.016789 0.640170
0.060101 0.014449 0.637840
0.232622 0.006528 0.629950
0.405143 0.000000 0.622060
0.577664 0.000000 0.614171
0.750184 0.000000 0.606281
0.922705 0.000000 0.598391
1.000000 0.000000 0.590502
1.000000 0.000000 0.584573
0.025875 0.170699 0.613628
0.033472 0.168360 0.611298
0.205993 0.160439 0.603409
0.378514 0.152518 0.595519
0.551035 0.144597 0.587629
0.723556 0.136676 0.579740
0.896076 0.128755 0.571850
1.000000 0.120834 0.563960
1.000000 0.114881 0.558032
0.025875 0.324609 0.587087
0.025875 0.322270 0.584757
0.179364 0.314349 0.576867
0.351885 0.306428 0.568978
0.524406 0.298507 0.561088
0.696927 0.290586 0.553198
0.869447 0.282665 0.545309
1.000000 0.274744 0.537419
1.000000 0.268792 0.531490
0.025875 0.478520 0.560546
0.025875 0.476180 0.558216
0.152735 0.468259 0.550326
0.325256 0.460338 0.542437
0.497777 0.452417 0.534547
0.670298 0.444496 0.526657
0.842818 0.436575 0.518768
1.000000 0.428654 0.510878
1.000000 0.422702 0.504949
0.025875 0.632430 0.534005
0.025875 0.630091 0.531675
0.126106 0.622170 0.523785
0.298627 0.614249 0.515895
0.471148 0.606328 0.508006
0.643669 0.598407 0.500116
0.816189 0.590486 0.492226
0.988710 0.582565 0.484337
1.000000 0.576612 0.478408
0.025875 0.786340 0.507463
0.025875 0.784001 0.505133
0.099477 0.776080 0.497244
0.271998 0.768159 0.489354
0.444519 0.760238 0.481464
0.617040 0.752317 0.473575
0.789560 0.744396 0.465685
0.962081 0.736475 0.457795
1.000000 0.730523 0.451867
0.025875 0.940251 0.480922
0.025875 0.937912 0.478592
0.072848 0.929991 0.470702
0.245369 0.922070 0.462813
0.417890 0.914149 0.454923
0.590411 0.906228 0.447033
0.762931 0.898307 0.439144
0.935452 0.890386 0.431254
1.000000 0.884433 0.425325
0.025875 0.990000 0.460977
0.025875 0.990000 0.458647
0.052837 0.990000 0.450758
0.225358 0.990000 0.442868
0.397879 0.990000 0.434978
0.570400 0.990000 0.427089
0.742921 0.990000 0.419199
0.915441 0.990000 0.411309
1.000000 0.990000 0.405381
0.025875 0.000000 0.825170
0.065277 0.000000 0.822840
0.237798 0.000000 0.814951
0.410319 0.000000 0.807061
0.582840 0.000000 0.799171
0.755360 0.000000 0.791282
0.927881 0.000000 0.783392
1.000000 0.000000 0.775502
1.000000 0.000000 0.769574
0.025875 0.014099 0.817332
0.057413 0.011759 0.815002
0.229934 0.003838 0.807112
0.402455 0.000000 0.799223
0.574976 0.000000 0.791333
0.747496 0.000000 0.783444
0.920017 0.000000 0.775554
1.000000 0.000000 0.767664
1.000000 0.000000 0.761736
0.025875 0.168009 0.790791
0.030784 0.165670 0.788461
0.203305 0.157749 0.780571
0.375826 0.149828 0.772682
0.548347 0.141907 0.764792
0.720867 0.133986 0.756902
0.893388 0.126065 0.749013
1.000000 0.118144 0.741123
1.000000 0.112191 0.735194
0.025875 0.321919 0.764250
0.025875 0.319580 0.761920
0.176676 0.311659 0.754030
0.349197 0.303738 0.746140
0.521718 0.295817 0.738251
0.694238 0.287896 0.730361
0.866759 0.279975 0.722471
1.000000 0.272054 0.714582
1.000000 0.266102 0.708653
0.025875 0.475830 0.737708
0.025875 0.473490 0.735378
0.150047 0.465569 0.727489
0.322568 0.457648 0.719599
0.495089 0.449727 0.711709
0.667609 0.441806 0.703820
0.840130 0.433885 0.695930
1.000000 0.425964 0.688041
1.000000 0.420012 0.682112
0.025875 0.629740 0.711167
0.025875 0.627401 0.708837
0.123418 0.619480 0.700948
0.295939 0.611559 0.693058
0.468460 0.603638 0.685168
0.640980 0.595717 0.677279
0.813501 0.587796 0.669389
0.986022 0.579875 0.661499
1.000000 0.573922 0.655571
0.025875 0.783650 0.684626
0.025875 0.781311 0.682296
0.096789 0.773390 0.674406
0.269310 0.765469 0.666517
0.441831 0.757548 0.658627
0.614351 0.749627 0.650737
0.786872 0.741706 0.642848
0.959393 0.733785 0.634958
1.000000 0.727833 0.629029
0.025875 0.937561 0.658085
0.025875 0.935222 0.655755
0.070160 0.927301 0.647865
0.242681 0.919380 0.639975
0.415202 0.911459 0.632086
0.587722 0.903538 0.624196
0.760243 0.895617 0.616306
0.932764 0.887695 0.608417
1.000000 0.881743 0.602488
0.025875 0.990000 0.638140
0.025875 0.990000 0.635810
0.050149 0.990000 0.627920
0.222670 0.990000 0.620031
0.395191 0.990000 0.612141
0.567712 0.990000 0.604251
0.740232 0.990000 0.596362
0.912753 0.990000 0.588472
1.000000 0.990000 0.582543
0.025875 0.000000 1.000000
0.062589 0.000000 1.000000
0.235110 0.000000 0.992113
0.407631 0.000000 0.984224
0.580151 0.000000 0.976334
0.752672 0.000000 0.968444
0.925193 0.000000 0.960555
1.000000 0.000000 0.952665
1.000000 0.000000 0.946736
0.025875 0.011409 0.994495
0.054725 0.009069 0.992165
0.227246 0.001148 0.984275
0.399767 0.000000 0.976385
0.572287 0.000000 0.968496
0.744808 0.000000 0.960606
0.917329 0.000000 0.952717
1.000000 0.000000 0.944827
1.000000 0.000000 0.938898
0.025875 0.165319 0.967953
0.028096 0.162980 0.965623
0.200617 0.155059 0.957734
0.373138 0.147138 0.949844
0.545658 0.139217 0.941955
0.718179 0.131296 0.934065
0.890700 0.123375 0.926175
1.000000 0.115454 0.918286
1.000000 0.109501 0.912357
0.025875 0.319229 0.941412
0.025875 0.316890 0.939082
0.173988 0.308969 0.931193
0.346509 0.301048 0.923303
0.519029 0.293127 0.915413
0.691550 0.285206 0.907524
0.864071 0.277285 0.899634
1.000000 0.269364 0.891744
1.000000 0.263412 0.885816
0.025875 0.473140 0.914871
0.025875 0.470800 0.912541
0.147359 0.462879 0.904651
0.319880 0.454958 0.896762
0.492400 0.447037 0.888872
0.664921 0.439116 0.880982
0.837442 0.431195 0.873093
1.000000 0.423274 0.865203
1.000000 0.417322 0.859274
0.025875 0.627050 0.888330
0.025875 0.624711 0.886000
0.120730 0.616790 0.878110
0.293251 0.608869 0.870220
0.465771 0.600948 0.862331
0.638292 0.593027 0.854441
0.810813 0.585106 0.846552
0.983334 0.577185 0.838662
1.000000 0.571232 0.832733
0.025875 0.780960 0.861788
0.025875 0.778621 0.859458
0.094101 0.770700 0.851569
0.266622 0.762779 0.843679
0.439142 0.754858 0.835790
0.611663 0.746937 0.827900
0.784184 0.739016 0.820010
0.956705 0.731095 0.812121
1.000000 0.725143 0.806192
0.025875 0.934871 0.835247
0.025875 0.932532 0.832917
0.067472 0.924611 0.825028
0.239993 0.916690 0.817138
0.412513 0.908769 0.809248
0.585034 0.900848 0.801359
0.757555 0.892926 0.793469
0.930076 0.885005 0.785579
1.000000 0.879053 0.779651
0.025875 0.990000 0.815302
0.025875 0.990000 0.812972
0.047461 0.990000 0.805083
0.219982 0.990000 0.797193
0.392503 0.990000 0.789303
0.565023 0.990000 0.781414
0.737544 0.990000 0.773524
0.910065 0.990000 0.765635
1.000000 0.990000 0.759706
0.025875 0.000000 1.000000
0.059901 0.000000 1.000000
0.232422 0.000000 1.000000
0.404942 0.000000 1.000000
0.577463 0.000000 1.000000
0.749984 0.000000 1.000000
0.922505 0.000000 1.000000
1.000000 0.000000 1.000000
1.000000 0.000000 1.000000
0.025875 0.008719 1.000000
0.052037 0.006379 1.000000
0.224558 0.000000 1.000000
0.397078 0.000000 1.000000
0.569599 0.000000 1.000000
0.742120 0.000000 1.000000
0.914641 0.000000 1.000000
1.000000 0.000000 1.000000
1.000000 0.000000 1.000000
0.025875 0.162629 1.000000
0.025875 0.160290 1.000000
0.197929 0.152369 1.000000
0.370449 0.144448 1.000000
0.542970 0.136527 1.000000
0.715491 0.128606 1.000000
0.888012 0.120685 1.000000
1.000000 0.112764 1.000000
1.000000 0.106811 1.000000
0.025875 0.316539 1.000000
0.025875 0.314200 1.000000
0.171300 0.306279 1.000000
0.343820 0.298358 1.000000
0.516341 0.290437 1.000000
0.688862 0.282516 1.000000
0.861383 0.274595 1.000000
1.000000 0.266674 1.000000
1.000000 0.260722 1.000000
0.025875 0.470450 1.000000
0.025875 0.468110 1.000000
0.144671 0.460189 1.000000
0.317191 0.452268 1.000000
0.489712 0.444347 1.000000
0.662233 0.436426 1.000000
0.834754 0.428505 1.000000
1.000000 0.420584 1.000000
1.000000 0.414632 1.000000
0.025875 0.624360 1.000000
0.025875 0.622021 1.000000
0.118042 0.614100 1.000000
0.290562 0.606179 1.000000
0.463083 0.598258 1.000000
0.635604 0.590337 1.000000
0.808125 0.582416 1.000000
0.980645 0.574495 1.000000
1.000000 0.568542 1.000000
0.025875 0.778270 1.000000
0.025875 0.775931 1.000000
0.091413 0.768010 1.000000
0.263933 0.760089 1.000000
0.436454 0.752168 1.000000
0.608975 0.744247 1.000000
0.781496 0.736326 0.997173
0.954016 0.728405 0.989283
1.000000 0.722453 0.983354
0.025875 0.932181 1.000000
0.025875 0.929842 1.000000
0.064784 0.921921 1.000000
0.237304 0.914000 0.994301
0.409825 0.906079 0.986411
0.582346 0.898157 0.978521
0.754867 0.890236 0.970632
0.927387 0.882315 0.962742
1.000000 0.876363 0.956813
0.025875 0.990000 0.992465
0.025875 0.990000 0.990135
0.044773 0.990000 0.982245
0.217294 0.990000 0.974356
0.389814 0.990000 0.966466
0.562335 0.990000 0.958576
0.734856 0.990000 0.950687
0.907377 0.990000 0.942797
1.000000 0.990000 0.936868
0.025875 0.000000 1.000000
0.057881 0.000000 1.000000
0.230402 0.000000 1.000000
0.402922 0.000000 1.000000
0.575443 0.000000 1.000000
0.747964 0.000000 1.000000
0.920485 0.000000 1.000000
1.000000 0.000000 1.000000
1.000000 0.000000 1.000000
0.025875 0.006697 1.000000
0.050017 0.004358 1.000000
0.222537 0.000000 1.000000
0.395058 0.000000 1.000000
0.567579 0.000000 1.000000
0.740100 0.000000 1.000000
0.912621 0.000000 1.000000
1.000000 0.000000 1.000000
1.000000 0.000000 1.000000
0.025875 0.160607 1.000000
0.025875 0.158268 1.000000
0.195908 0.150347 1.000000
0.368429 0.142426 1.000000
0.540950 0.134505 1.000000
0.713471 0.126584 1.000000
0.885992 0.118663 1.000000
1.000000 0.110742 1.000000
1.000000 0.104790 1.000000
0.025875 0.314518 1.000000
0.025875 0.312179 1.000000
0.169279 0.304258 1.000000
0.341800 0.296337 1.000000
0.514321 0.288416 1.000000
0.686842 0.280495 1.000000
0.859363 0.272573 1.000000
1.000000 0.264652 1.000000
1.000000 0.258700 1.000000
0.025875 0.468428 1.000000
0.025875 0.466089 1.000000
0.142650 0.458168 1.000000
0.315171 0.450247 1.000000
0.487692 0.442326 1.000000
0.660213 0.434405 1.000000
0.832734 0.426484 1.000000
1.000000 0.418563 1.000000
1.000000 0.412610 1.000000
0.025875 0.622339 1.000000
0.025875 0.619999 1.000000
0.116021 0.612078 1.000000
0.288542 0.604157 1.000000
0.461063 0.596236 1.000000
0.633584 0.588315 1.000000
0.806105 0.580394 1.000000
0.978625 0.572473 1.000000
1.000000 0.566521 1.000000
0.025875 0.776249 1.000000
0.025875 0.773910 1.000000
0.089392 0.765989 1.000000
0.261913 0.758068 1.000000
0.434434 0.750147 1.000000
0.606955 0.742226 1.000000
0.779476 0.734305 1.000000
0.951996 0.726384 1.000000
1.000000 0.720431 1.000000
0.025875 0.930159 1.000000
0.025875 0.927820 1.000000
0.062763 0.919899 1.000000
0.235284 0.911978 1.000000
0.407805 0.904057 1.000000
0.580326 0.896136 1.000000
0.752847 0.888215 1.000000
0.925367 0.880294 1.000000
1.000000 0.874342 1.000000
0.025875 0.990000 1.000000
0.025875 0.990000 1.000000
0.042753 0.990000 1.000000
0.215273 0.990000 1.000000
0.387794 0.990000 1.000000
0.560315 0.990000 1.000000
0.732836 0.990000 1.000000
0.905357 0.990000 1.000000
1.000000 0.990000 1.000000
