presets/luts/night-neon/night-neon.cube
# akari-video catalog LUT: night-neon
LUT_3D_SIZE 33
0.025875 0.000000 0.064200
0.025875 0.000000 0.064200
0.025875 0.000000 0.064200
0.033694 0.000000 0.064200
0.076824 0.000000 0.064200
0.119954 0.000000 0.064200
0.163084 0.000000 0.064200
0.206215 0.000000 0.064200
0.249345 0.000000 0.064200
0.292475 0.000000 0.064200
0.335605 0.000000 0.064200
0.378735 0.000000 0.064200
0.421866 0.000000 0.064200
0.464996 0.000000 0.064200
0.508126 0.000000 0.064200
0.551256 0.000000 0.064200
0.594386 0.000000 0.064200
0.637517 0.000000 0.064200
0.680647 0.000000 0.064200
0.723777 0.000000 0.064200
0.766907 0.000000 0.064200
0.810037 0.000000 0.064200
0.853168 0.000000 0.064200
0.896298 0.000000 0.064200
0.939428 0.000000 0.064200
0.982558 0.000000 0.064200
1.000000 0.000000 0.064200
1.000000 0.000000 0.064200
1.000000 0.000000 0.064200
1.000000 0.000000 0.064200
1.000000 0.000000 0.064200
1.000000 0.000000 0.064200
1.000000 0.000000 0.064200
0.025875 0.000000 0.064200
0.025875 0.000000 0.064200
0.025875 0.000000 0.064200
0.033694 0.000000 0.064200
0.076824 0.000000 0.064200
0.119954 0.000000 0.064200
0.163084 0.000000 0.064200
0.206215 0.000000 0.064200
0.249345 0.000000 0.064200
0.292475 0.000000 0.064200
0.335605 0.000000 0.064200
0.378735 0.000000 0.064200
0.421866 0.000000 0.064200
0.464996 0.000000 0.064200
0.508126 0.000000 0.064200
0.551256 0.000000 0.064200
0.594386 0.000000 0.064200
0.637517 0.000000 0.064200
0.680647 0.000000 0.064200
0.723777 0.000000 0.064200
0.766907 0.000000 0.064200
0.810037 0.000000 0.064200
0.853168 0.000000 0.064200
0.896298 0.000000 0.064200
0.939428 0.000000 0.064200
0.982558 0.000000 0.064200
1.000000 0.000000 0.064200
1.000000 0.000000 0.064200
1.000000 0.000000 0.064200
1.000000 0.000000 0.064200
1.000000 0.000000 0.064200
1.000000 0.000000 0.064200
1.000000 0.000000 0.064200
0.025875 0.000000 0.064200
0.025875 0.000000 0.064200
0.025875 0.000000 0.064200
0.033694 0.000000 0.064200
0.076824 0.000000 0.064200
0.119954 0.000000 0.064200
0.163084 0.000000 0.064200
0.206215 0.000000 0.064200
0.249345 0.000000 0.064200
0.292475 0.000000 0.064200
0.335605 0.000000 0.064200
0.378735 0.000000 0.064200
0.421866 0.000000 0.064200
0.464996 0.000000 0.064200
0.508126 0.000000 0.064200
0.551256 0.000000 0.064200
0.594386 0.000000 0.064200
0.637517 0.000000 0.064200
0.680647 0.000000 0.064200
0.723777 0.000000 0.064200
0.766907 0.000000 0.064200
0.810037 0.000000 0.064200
0.853168 0.000000 0.064200
0.896298 0.000000 0.064200
0.939428 0.000000 0.064200
0.982558 0.000000 0.064200
1.000000 0.000000 0.064200
1.000000 0.000000 0.064200
1.000000 0.000000 0.064200
1.000000 0.000000 0.064200
1.000000 0.000000 0.064200
1.000000 0.000000 0.064200
1.000000 0.000000 0.064200
0.025875 0.000000 0.064200
0.025875 0.000000 0.064200
0.025875 0.000000 0.064200
0.032487 0.000000 0.064200
0.075617 0.000000 0.064200
0.118747 0.000000 0.064200
0.161878 0.000000 0.064200
0.205008 0.000000 0.064200
0.248138 0.000000 0.064200
0.291268 0.000000 0.064200
0.334398 0.000000 0.064200
0.377529 0.000000 0.064200
0.420659 0.000000 0.064200
0.463789 0.000000 0.064200
0.506919 0.000000 0.064200
0.550049 0.000000 0.064200
0.593180 0.000000 0.064200
0.636310 0.000000 0.064200
0.679440 0.000000 0.064200
0.722570 0.000000 0.064200
0.765700 0.000000 0.064200
0.808830 0.000000 0.064200
0.851961 0.000000 0.064200
0.895091 0.000000 0.064200
0.938221 0.000000 0.064200
0.981351 0.000000 0.064200
1.000000 0.000000 0.064200
1.000000 0.000000 0.064200
1.000000 0.000000 0.064200
1.000000 0.000000 0.064200
1.000000 0.000000 0.064200
1.000000 0.000000 0.064200
1.000000 0.000000 0.064200
0.025875 0.025653 0.064200
0.025875 0.025653 0.064200
0.025875 0.025653 0.064200
0.025875 0.025294 0.064200
0.068960 0.023314 0.064200
0.112090 0.021334 0.064200
0.155220 0.019353 0.064200
0.198351 0.017373 0.064200
0.241481 0.015393 0.064200
0.284611 0.013413 0.064200
0.327741 0.011432 0.064200
0.370871 0.009452 0.064200
0.414001 0.007472 0.064200
0.457132 0.005491 0.064200
0.500262 0.003511 0.064200
0.543392 0.001531 0.064200
0.586522 0.000000 0.064200
0.629652 0.000000 0.064200
0.672783 0.000000 0.064200
0.715913 0.000000 0.064200
0.759043 0.000000 0.064200
0.802173 0.000000 0.064200
0.845303 0.000000 0.064200
0.888434 0.000000 0.064200
0.931564 0.000000 0.064200
0.974694 0.000000 0.064200
1.000000 0.000000 0.064200
1.000000 0.000000 0.064200
1.000000 0.000000 0.064200
1.000000 0.000000 0.064200
1.000000 0.000000 0.064200
1.000000 0.000000 0.064200
1.000000 0.000000 0.064200
0.025875 0.064131 0.064200
0.025875 0.064131 0.064200
0.025875 0.064131 0.064200
0.025875 0.063772 0.064200
0.062303 0.061791 0.064200
0.105433 0.059811 0.064200
0.148563 0.057831 0.064200
0.191693 0.055851 0.064200
0.234823 0.053870 0.064200
0.277954 0.051890 0.064200
0.321084 0.049910 0.064200
0.364214 0.047930 0.064200
0.407344 0.045949 0.064200
0.450474 0.043969 0.064200
0.493605 0.041989 0.064200
0.536735 0.040009 0.064200
0.579865 0.038028 0.064200
0.622995 0.036048 0.064200
0.666125 0.034068 0.064200
0.709256 0.032088 0.064200
0.752386 0.030107 0.064200
0.795516 0.028127 0.064200
0.838646 0.026147 0.064200
0.881776 0.024167 0.064200
0.924907 0.022186 0.064200
0.968037 0.020206 0.064200
1.000000 0.018226 0.064200
1.000000 0.016246 0.064200
1.000000 0.014265 0.064200
1.000000 0.012285 0.064200
1.000000 0.010305 0.064200
1.000000 0.008325 0.064200
1.000000 0.008313 0.064200
0.025875 0.102608 0.064200
0.025875 0.102608 0.064200
0.025875 0.102608 0.064200
0.025875 0.102249 0.064200
0.055645 0.100269 0.064200
0.098776 0.098289 0.064200
0.141906 0.096308 0.064200
0.185036 0.094328 0.064200
0.228166 0.092348 0.064200
0.271296 0.090368 0.064200
0.314427 0.088387 0.064200
0.357557 0.086407 0.064200
0.400687 0.084427 0.064200
0.443817 0.082447 0.064200
0.486947 0.080466 0.064200
0.530078 0.078486 0.064200
0.573208 0.076506 0.064200
0.616338 0.074526 0.064200
0.659468 0.072545 0.064200
0.702598 0.070565 0.064200
0.745729 0.068585 0.064200
0.788859 0.066605 0.064200
0.831989 0.064624 0.064200
0.875119 0.062644 0.064200
0.918249 0.060664 0.064200
0.961379 0.058684 0.064200
1.000000 0.056703 0.064200
1.000000 0.054723 0.064200
1.000000 0.052743 0.064200
1.000000 0.050763 0.064200
1.000000 0.048782 0.064200
1.000000 0.046802 0.064200
1.000000 0.046791 0.064200
0.025875 0.141086 0.064200
0.025875 0.141086 0.064200
0.025875 0.141086 0.064200
0.025875 0.140727 0.064200
0.048988 0.138747 0.064200
0.092118 0.136766 0.064200
0.135249 0.134786 0.064200
0.178379 0.132806 0.064200
0.221509 0.130826 0.064200
0.264639 0.128845 0.064200
0.307769 0.126865 0.064200
0.350900 0.124885 0.064200
0.394030 0.122905 0.064200
0.437160 0.120924 0.064200
0.480290 0.118944 0.064200
0.523420 0.116964 0.064200
0.566551 0.114984 0.064200
0.609681 0.113003 0.064200
0.652811 0.111023 0.064200
0.695941 0.109043 0.064200
0.739071 0.107062 0.064200
0.782201 0.105082 0.064200
0.825332 0.103102 0.064200
0.868462 0.101122 0.064200
0.911592 0.099141 0.064200
0.954722 0.097161 0.064200
0.997852 0.095181 0.064200
1.000000 0.093201 0.064200
1.000000 0.091220 0.064200
1.000000 0.089240 0.064200
1.000000 0.087260 0.064200
1.000000 0.085280 0.064200
1.000000 0.085268 0.064200
0.025875 0.179563 0.064200
0.025875 0.179563 0.064200
0.025875 0.179563 0.064200
0.025875 0.179204 0.064200
0.042331 0.177224 0.064200
0.085461 0.175244 0.064200
0.128591 0.173264 0.064200
0.171722 0.171283 0.064200
0.214852 0.169303 0.064200
0.257982 0.167323 0.064200
0.301112 0.165343 0.064200
0.344242 0.163362 0.064200
0.387373 0.161382 0.064200
0.430503 0.159402 0.064200
0.473633 0.157422 0.064200
0.516763 0.155441 0.064200
0.559893 0.153461 0.064200
0.603023 0.151481 0.064200
0.646154 0.149501 0.064200
0.689284 0.147520 0.064200
0.732414 0.145540 0.064200
0.775544 0.143560 0.064200
0.818674 0.141580 0.064200
0.861805 0.139599 0.064200
0.904935 0.137619 0.064200
0.948065 0.135639 0.064200
0.991195 0.133659 0.064200
1.000000 0.131678 0.064200
1.000000 0.129698 0.064200
1.000000 0.127718 0.064200
1.000000 0.125738 0.064200
1.000000 0.123757 0.064200
1.000000 0.123746 0.064200
0.025875 0.218041 0.064200
0.025875 0.218041 0.064200
0.025875 0.218041 0.064200
0.025875 0.217682 0.064200
0.035674 0.215702 0.064200
0.078804 0.213721 0.064200
0.121934 0.211741 0.064200
0.165064 0.209761 0.064200
0.208194 0.207781 0.064200
0.251325 0.205800 0.064200
0.294455 0.203820 0.064200
0.337585 0.201840 0.064200
0.380715 0.199860 0.064200
0.423845 0.197879 0.064200
0.466976 0.195899 0.064200
0.510106 0.193919 0.064200
0.553236 0.191939 0.064200
0.596366 0.189958 0.064200
0.639496 0.187978 0.064200
0.682627 0.185998 0.064200
0.725757 0.184018 0.064200
0.768887 0.182037 0.064200
0.812017 0.180057 0.064200
0.855147 0.178077 0.064200
0.898278 0.176097 0.064200
0.941408 0.174116 0.064200
0.984538 0.172136 0.064200
1.000000 0.170156 0.064200
1.000000 0.168176 0.064200
1.000000 0.166195 0.064200
1.000000 0.164215 0.064200
1.000000 0.162235 0.064200
1.000000 0.162223 0.064200
0.025875 0.256519 0.064200
0.025875 0.256519 0.064200
0.025875 0.256519 0.064200
0.025875 0.256160 0.064200
0.029016 0.254179 0.064200
0.072147 0.252199 0.064200
0.115277 0.250219 0.064200
0.158407 0.248239 0.064200
0.201537 0.246258 0.064200
0.244667 0.244278 0.064200
0.287798 0.242298 0.064200
0.330928 0.240318 0.064200
0.374058 0.238337 0.064200
0.417188 0.236357 0.064200
0.460318 0.234377 0.064200
0.503449 0.232397 0.064200
0.546579 0.230416 0.064200
0.589709 0.228436 0.064200
0.632839 0.226456 0.064200
0.675969 0.224476 0.064200
0.719100 0.222495 0.064200
0.762230 0.220515 0.064200
0.805360 0.218535 0.064200
0.848490 0.216555 0.064200
0.891620 0.214574 0.064200
0.934751 0.212594 0.064200
0.977881 0.210614 0.064200
1.000000 0.208634 0.064200
1.000000 0.206653 0.064200
1.000000 0.204673 0.064200
1.000000 0.202693 0.064200
1.000000 0.200712 0.064200
1.000000 0.200701 0.064200
0.025875 0.294996 0.064200
0.025875 0.294996 0.064200
0.025875 0.294996 0.064200
0.025875 0.294637 0.064200
0.025875 0.292657 0.064200
0.065489 0.290677 0.064200
0.108620 0.288696 0.064200
0.151750 0.286716 0.064200
0.194880 0.284736 0.064200
0.238010 0.282756 0.064200
0.281140 0.280775 0.064200
0.324271 0.278795 0.064200
0.367401 0.276815 0.064200
0.410531 0.274835 0.064200
0.453661 0.272854 0.064200
0.496791 0.270874 0.064200
0.539922 0.268894 0.064200
0.583052 0.266914 0.064200
0.626182 0.264933 0.064200
0.669312 0.262953 0.064200
0.712442 0.260973 0.064200
0.755572 0.258993 0.064200
0.798703 0.257012 0.064200
0.841833 0.255032 0.064200
0.884963 0.253052 0.064200
0.928093 0.251072 0.064200
0.971223 0.249091 0.064200
1.000000 0.247111 0.064200
1.000000 0.245131 0.064200
1.000000 0.243151 0.064200
1.000000 0.241170 0.064200
1.000000 0.239190 0.064200
1.000000 0.239178 0.064200
0.025875 0.333474 0.064200
0.025875 0.333474 0.064200
0.025875 0.333474 0.064200
0.025875 0.333115 0.064200
0.025875 0.331135 0.064200
0.058832 0.329154 0.064200
0.101962 0.327174 0.064200
0.145093 0.325194 0.064200
0.188223 0.323214 0.064200
0.231353 0.321233 0.064200
0.274483 0.319253 0.064200
0.317613 0.317273 0.064200
0.360744 0.315293 0.064200
0.403874 0.313312 0.064200
0.447004 0.311332 0.064200
0.490134 0.309352 0.064200
0.533264 0.307371 0.064200
0.576394 0.305391 0.064200
0.619525 0.303411 0.064200
0.662655 0.301431 0.064200
0.705785 0.299450 0.064200
0.748915 0.297470 0.064200
0.792045 0.295490 0.064200
0.835176 0.293510 0.064200
0.878306 0.291529 0.064200
0.921436 0.289549 0.064200
0.964566 0.287569 0.064200
1.000000 0.285589 0.064200
1.000000 0.283608 0.064200
1.000000 0.281628 0.064200
1.000000 0.279648 0.064200
1.000000 0.277668 0.064200
1.000000 0.277656 0.064200
0.025875 0.371951 0.064200
0.025875 0.371951 0.064200
0.025875 0.371951 0.064200
0.025875 0.371592 0.064200
0.025875 0.369612 0.064200
0.052175 0.367632 0.064200
0.095305 0.365652 0.064200
0.138435 0.363671 0.064200
0.181565 0.361691 0.064200
0.224696 0.359711 0.064200
0.267826 0.357731 0.064200
0.310956 0.355750 0.064200
0.354086 0.353770 0.064200
0.397216 0.351790 0.064200
0.440347 0.349810 0.064200
0.483477 0.347829 0.064200
0.526607 0.345849 0.064200
0.569737 0.343869 0.064200
0.612867 0.341889 0.064200
0.655998 0.339908 0.064200
0.699128 0.337928 0.064200
0.742258 0.335948 0.064200
0.785388 0.333968 0.064200
0.828518 0.331987 0.064200
0.871649 0.330007 0.064200
0.914779 0.328027 0.064200
0.957909 0.326047 0.064200
1.000000 0.324066 0.064200
1.000000 0.322086 0.064200
1.000000 0.320106 0.064200
1.000000 0.318126 0.064200
1.000000 0.316145 0.064200
1.000000 0.316134 0.064200
0.025875 0.410429 0.064200
0.025875 0.410429 0.064200
0.025875 0.410429 0.064200
0.025875 0.410070 0.064200
0.025875 0.408090 0.064200
0.045518 0.406109 0.064200
0.088648 0.404129 0.064200
0.131778 0.402149 0.064200
0.174908 0.400169 0.064200
0.218038 0.398188 0.064200
0.261169 0.396208 0.064200
0.304299 0.394228 0.064200
0.347429 0.392248 0.064200
0.390559 0.390267 0.064200
0.433689 0.388287 0.064200
0.476820 0.386307 0.064200
0.519950 0.384327 0.064200
0.563080 0.382346 0.064200
0.606210 0.380366 0.064200
0.649340 0.378386 0.064200
0.692471 0.376406 0.064200
0.735601 0.374425 0.064200
0.778731 0.372445 0.064200
0.821861 0.370465 0.064200
0.864991 0.368485 0.064200
0.908122 0.366504 0.064200
0.951252 0.364524 0.064200
0.994382 0.362544 0.064200
1.000000 0.360564 0.064200
1.000000 0.358583 0.064200
1.000000 0.356603 0.064200
1.000000 0.354623 0.064200
1.000000 0.354611 0.064200
0.025875 0.448907 0.064200
0.025875 0.448907 0.064200
0.025875 0.448907 0.064200
0.025875 0.448548 0.064200
0.025875 0.446567 0.064200
0.038860 0.444587 0.064200
0.081991 0.442607 0.064200
0.125121 0.440627 0.064200
0.168251 0.438646 0.064200
0.211381 0.436666 0.064200
0.254511 0.434686 0.064200
0.297642 0.432706 0.064200
0.340772 0.430725 0.064200
0.383902 0.428745 0.064200
0.427032 0.426765 0.064200
0.470162 0.424785 0.064200
0.513293 0.422804 0.064200
0.556423 0.420824 0.064200
0.599553 0.418844 0.064200
0.642683 0.416864 0.064200
0.685813 0.414883 0.064200
0.728944 0.412903 0.064200
0.772074 0.410923 0.064200
0.815204 0.408943 0.064200
0.858334 0.406962 0.064200
0.901464 0.404982 0.064200
0.944594 0.403002 0.064200
0.987725 0.401021 0.064200
1.000000 0.399041 0.064200
1.000000 0.397061 0.064200
1.000000 0.395081 0.064200
1.000000 0.393100 0.064200
1.000000 0.393089 0.064200
0.025875 0.487384 0.064200
0.025875 0.487384 0.064200
0.025875 0.487384 0.064200
0.025875 0.487025 0.064200
0.025875 0.485045 0.064200
0.032203 0.483065 0.064200
0.075333 0.481084 0.064200
0.118464 0.479104 0.064200
0.161594 0.477124 0.064200
0.204724 0.475144 0.064200
0.247854 0.473163 0.064200
0.290984 0.471183 0.064200
0.334115 0.469203 0.064200
0.377245 0.467223 0.064200
0.420375 0.465242 0.064200
0.463505 0.463262 0.064200
0.506635 0.461282 0.064200
0.549765 0.459302 0.064200
0.592896 0.457321 0.064200
0.636026 0.455341 0.064200
0.679156 0.453361 0.064200
0.722286 0.451381 0.064200
0.765416 0.449400 0.064200
0.808547 0.447420 0.064200
0.851677 0.445440 0.064200
0.894807 0.443460 0.064200
0.937937 0.441479 0.064200
0.981067 0.439499 0.064200
1.000000 0.437519 0.064200
1.000000 0.435539 0.064200
1.000000 0.433558 0.064200
1.000000 0.431578 0.064200
1.000000 0.431566 0.064200
0.025875 0.525862 0.064200
0.025875 0.525862 0.064200
0.025875 0.525862 0.064200
0.025875 0.525503 0.064200
0.025875 0.523523 0.064200
0.025875 0.521542 0.064200
0.068676 0.519562 0.064200
0.111806 0.517582 0.064200
0.154937 0.515601 0.064200
0.198067 0.513621 0.064200
0.241197 0.511641 0.064200
0.284327 0.509661 0.064200
0.327457 0.507680 0.064200
0.370587 0.505700 0.064200
0.413718 0.503720 0.064200
0.456848 0.501740 0.064200
0.499978 0.499759 0.064200
0.543108 0.497779 0.064200
0.586238 0.495799 0.064200
0.629369 0.493819 0.064200
0.672499 0.491838 0.064200
0.715629 0.489858 0.064200
0.758759 0.487878 0.064200
0.801889 0.485898 0.064200
0.845020 0.483917 0.064200
0.888150 0.481937 0.064200
0.931280 0.479957 0.064200
0.974410 0.477977 0.064200
1.000000 0.475996 0.064200
1.000000 0.474016 0.064200
1.000000 0.472036 0.064200
1.000000 0.470056 0.064200
1.000000 0.470044 0.064200
0.025875 0.564339 0.064200
0.025875 0.564339 0.064200
0.025875 0.564339 0.064200
0.025875 0.563980 0.064200
0.025875 0.562000 0.064200
0.025875 0.560020 0.064200
0.062019 0.558040 0.064200
0.105149 0.556059 0.064200
0.148279 0.554079 0.064200
0.191409 0.552099 0.064200
0.234540 0.550119 0.064200
0.277670 0.548138 0.064200
0.320800 0.546158 0.064200
0.363930 0.544178 0.064200
0.407060 0.542198 0.064200
0.450191 0.540217 0.064200
0.493321 0.538237 0.064200
0.536451 0.536257 0.064200
0.579581 0.534277 0.064200
0.622711 0.532296 0.064200
0.665842 0.530316 0.064200
0.708972 0.528336 0.064200
0.752102 0.526356 0.064200
0.795232 0.524375 0.064200
0.838362 0.522395 0.064200
0.881493 0.520415 0.064200
0.924623 0.518435 0.064200
0.967753 0.516454 0.064200
1.000000 0.514474 0.064200
1.000000 0.512494 0.064200
1.000000 0.510514 0.064200
1.000000 0.508533 0.064200
1.000000 0.508522 0.064200
0.025875 0.602817 0.064200
0.025875 0.602817 0.064200
0.025875 0.602817 0.064200
0.025875 0.602458 0.064200
0.025875 0.600478 0.064200
0.025875 0.598497 0.064200
0.055362 0.596517 0.064200
0.098492 0.594537 0.064200
0.141622 0.592557 0.064200
0.184752 0.590576 0.064200
0.227882 0.588596 0.064200
0.271013 0.586616 0.064200
0.314143 0.584636 0.064200
0.357273 0.582655 0.064200
0.400403 0.580675 0.064200
0.443533 0.578695 0.064200
0.486664 0.576715 0.064200
0.529794 0.574734 0.064200
0.572924 0.572754 0.064200
0.616054 0.570774 0.064200
0.659184 0.568794 0.064200
0.702315 0.566813 0.064200
0.745445 0.564833 0.064200
0.788575 0.562853 0.064200
0.831705 0.560873 0.064200
0.874835 0.558892 0.064200
0.917965 0.556912 0.064200
0.961096 0.554932 0.064200
1.000000 0.552952 0.064200
1.000000 0.550971 0.064200
1.000000 0.548991 0.064200
1.000000 0.547011 0.064200
1.000000 0.546999 0.064200
0.025875 0.641295 0.064200
0.025875 0.641295 0.064200
0.025875 0.641295 0.064200
0.025875 0.640936 0.064200
0.025875 0.638955 0.064200
0.025875 0.636975 0.064200
0.048704 0.634995 0.064200
0.091835 0.633015 0.064200
0.134965 0.631034 0.064200
0.178095 0.629054 0.064200
0.221225 0.627074 0.064200
0.264355 0.625094 0.064200
0.307486 0.623113 0.064200
0.350616 0.621133 0.064200
0.393746 0.619153 0.064200
0.436876 0.617173 0.064200
0.480006 0.615192 0.064200
0.523136 0.613212 0.064200
0.566267 0.611232 0.064200
0.609397 0.609251 0.064200
0.652527 0.607271 0.064200
0.695657 0.605291 0.064200
0.738787 0.603311 0.064200
0.781918 0.601330 0.064200
0.825048 0.599350 0.064200
0.868178 0.597370 0.064200
0.911308 0.595390 0.064200
0.954438 0.593409 0.064200
0.997569 0.591429 0.064200
1.000000 0.589449 0.064200
1.000000 0.587469 0.064200
1.000000 0.585488 0.064200
1.000000 0.585477 0.064200
0.025875 0.679772 0.064200
0.025875 0.679772 0.064200
0.025875 0.679772 0.064200
0.025875 0.679413 0.064200
0.025875 0.677433 0.064200
0.025875 0.675453 0.064200
0.042047 0.673472 0.064200
0.085177 0.671492 0.064200
0.128308 0.669512 0.064200
0.171438 0.667532 0.064200
0.214568 0.665551 0.064200
0.257698 0.663571 0.064200
0.300828 0.661591 0.064200
0.343958 0.659611 0.064200
0.387089 0.657630 0.064200
0.430219 0.655650 0.064200
0.473349 0.653670 0.064200
0.516479 0.651690 0.064200
0.559609 0.649709 0.064200
0.602740 0.647729 0.064200
0.645870 0.645749 0.064200
0.689000 0.643769 0.064200
0.732130 0.641788 0.064200
0.775260 0.639808 0.064200
0.818391 0.637828 0.064200
0.861521 0.635848 0.064200
0.904651 0.633867 0.064200
0.947781 0.631887 0.064200
0.990911 0.629907 0.064200
1.000000 0.627927 0.064200
1.000000 0.625946 0.064200
1.000000 0.623966 0.064200
1.000000 0.623954 0.064200
0.025875 0.718250 0.064200
0.025875 0.718250 0.064200
0.025875 0.718250 0.064200
0.025875 0.717891 0.064200
0.025875 0.715910 0.064200
0.025875 0.713930 0.064200
0.035390 0.711950 0.064200
0.078520 0.709970 0.064200
0.121650 0.707989 0.064200
0.164780 0.706009 0.064200
0.207911 0.704029 0.064200
0.251041 0.702049 0.064200
0.294171 0.700068 0.064200
0.337301 0.698088 0.064200
0.380431 0.696108 0.064200
0.423562 0.694128 0.064200
0.466692 0.692147 0.064200
0.509822 0.690167 0.064200
0.552952 0.688187 0.064200
0.596082 0.686207 0.064200
0.639213 0.684226 0.064200
0.682343 0.682246 0.064200
0.725473 0.680266 0.064200
0.768603 0.678286 0.064200
0.811733 0.676305 0.064200
0.854864 0.674325 0.064200
0.897994 0.672345 0.064200
0.941124 0.670365 0.064200
0.984254 0.668384 0.064200
1.000000 0.666404 0.064200
1.000000 0.664424 0.064200
1.000000 0.662444 0.064200
1.000000 0.662432 0.064200
0.025875 0.756727 0.064200
0.025875 0.756727 0.064200
0.025875 0.756727 0.064200
0.025875 0.756368 0.064200
0.025875 0.754388 0.064200
0.025875 0.752408 0.064200
0.028733 0.750428 0.064200
0.071863 0.748447 0.064200
0.114993 0.746467 0.064200
0.158123 0.744487 0.064200
0.201253 0.742507 0.064200
0.244384 0.740526 0.064200
0.287514 0.738546 0.064200
0.330644 0.736566 0.064200
0.373774 0.734586 0.064200
0.416904 0.732605 0.064200
0.460035 0.730625 0.064200
0.503165 0.728645 0.064200
0.546295 0.726665 0.064200
0.589425 0.724684 0.064200
0.632555 0.722704 0.064200
0.675686 0.720724 0.064200
0.718816 0.718744 0.064200
0.761946 0.716763 0.064200
0.805076 0.714783 0.064200
0.848206 0.712803 0.064200
0.891336 0.710823 0.064200
0.934467 0.708842 0.064200
0.977597 0.706862 0.064200
1.000000 0.704882 0.064200
1.000000 0.702901 0.064200
1.000000 0.700921 0.064200
1.000000 0.700910 0.064200
0.025875 0.795205 0.064200
0.025875 0.795205 0.064200
0.025875 0.795205 0.064200
0.025875 0.794846 0.064200
0.025875 0.792866 0.064200
0.025875 0.790885 0.064200
0.025875 0.788905 0.064200
0.065206 0.786925 0.064200
0.108336 0.784945 0.064200
0.151466 0.782964 0.064200
0.194596 0.780984 0.064200
0.237726 0.779004 0.064200
0.280857 0.777024 0.064200
0.323987 0.775043 0.064200
0.367117 0.773063 0.064200
0.410247 0.771083 0.064200
0.453377 0.769103 0.064200
0.496508 0.767122 0.064200
0.539638 0.765142 0.064200
0.582768 0.763162 0.064200
0.625898 0.761182 0.064200
0.669028 0.759201 0.064200
0.712158 0.757221 0.064200
0.755289 0.755241 0.064200
0.798419 0.753261 0.064200
0.841549 0.751280 0.064200
0.884679 0.749300 0.064200
0.927809 0.747320 0.064200
0.970940 0.745340 0.064200
1.000000 0.743359 0.064200
1.000000 0.741379 0.064200
1.000000 0.739399 0.064200
1.000000 0.739387 0.064200
0.025875 0.833683 0.064200
0.025875 0.833683 0.064200
0.025875 0.833683 0.064200
0.025875 0.833324 0.064200
0.025875 0.831343 0.064200
0.025875 0.829363 0.064200
0.025875 0.827383 0.064200
0.058548 0.825403 0.064200
0.101679 0.823422 0.064200
0.144809 0.821442 0.064200
0.187939 0.819462 0.064200
0.231069 0.817482 0.064200
0.274199 0.815501 0.064200
0.317329 0.813521 0.064200
0.360460 0.811541 0.064200
0.403590 0.809560 0.064200
0.446720 0.807580 0.064200
0.489850 0.805600 0.064200
0.532980 0.803620 0.064200
0.576111 0.801639 0.064200
0.619241 0.799659 0.064200
0.662371 0.797679 0.064200
0.705501 0.795699 0.064200
0.748631 0.793718 0.064200
0.791762 0.791738 0.064200
0.834892 0.789758 0.064200
0.878022 0.787778 0.064200
0.921152 0.785797 0.064200
0.964282 0.783817 0.064200
1.000000 0.781837 0.064200
1.000000 0.779857 0.064200
1.000000 0.777876 0.064200
1.000000 0.777865 0.064200
0.025875 0.872160 0.064200
0.025875 0.872160 0.064200
0.025875 0.872160 0.064200
0.025875 0.871801 0.064200
0.025875 0.869821 0.064200
0.025875 0.867841 0.064200
0.025875 0.865860 0.064200
0.051891 0.863880 0.064200
0.095021 0.861900 0.064200
0.138151 0.859920 0.064200
0.181282 0.857939 0.064200
0.224412 0.855959 0.064200
0.267542 0.853979 0.064200
0.310672 0.851999 0.064200
0.353802 0.850018 0.064200
0.396933 0.848038 0.064200
0.440063 0.846058 0.064200
0.483193 0.844078 0.064200
0.526323 0.842097 0.064200
0.569453 0.840117 0.064200
0.612584 0.838137 0.064200
0.655714 0.836157 0.064200
0.698844 0.834176 0.064200
0.741974 0.832196 0.064200
0.785104 0.830216 0.064200
0.828235 0.828236 0.064200
0.871365 0.826255 0.064200
0.914495 0.824275 0.064200
