plugin/runtime/presets/luts/sunset-gold/sunset-gold.cube
# akari-video catalog LUT: sunset-gold
LUT_3D_SIZE 5
0.016350 0.000000 0.000000
0.285532 0.000000 0.000000
0.625219 0.000000 0.000000
0.964907 0.000000 0.000000
1.000000 0.000000 0.000000
0.016350 0.235482 0.000000
0.265260 0.229433 0.000000
0.604948 0.221800 0.000000
0.944635 0.214167 0.000000
1.000000 0.209077 0.000000
0.016350 0.535186 0.000000
0.239459 0.529137 0.000000
0.579147 0.521505 0.000000
0.918835 0.513872 0.000000
1.000000 0.508781 0.000000
0.016350 0.834890 0.000000
0.213659 0.828842 0.000000
0.553346 0.821209 0.000000
0.893034 0.813576 0.000000
1.000000 0.808485 0.000000
0.016350 1.000000 0.000000
0.193387 1.000000 0.000000
0.533075 1.000000 0.000000
0.872762 1.000000 0.000000
1.000000 1.000000 0.000000
0.016350 0.000000 0.220347
0.283570 0.000000 0.214854
0.623257 0.000000 0.207921
0.962945 0.000000 0.200989
1.000000 0.000000 0.196366
0.016350 0.233590 0.202599
0.263298 0.227542 0.197105
0.602986 0.219909 0.190173
0.942673 0.212276 0.183241
1.000000 0.207186 0.178617
0.016350 0.533295 0.180010
0.237497 0.527246 0.174516
0.577185 0.519613 0.167584
0.916873 0.511980 0.160652
1.000000 0.506890 0.156029
0.016350 0.832999 0.157421
0.211697 0.826950 0.151928
0.551384 0.819317 0.144995
0.891072 0.811684 0.138063
1.000000 0.806594 0.133440
0.016350 1.000000 0.139673
0.191425 1.000000 0.134179
0.531112 1.000000 0.127247
0.870800 1.000000 0.120315
1.000000 1.000000 0.115691
0.016350 0.000000 0.503374
0.281050 0.000000 0.497880
0.620737 0.000000 0.490948
0.960425 0.000000 0.484016
1.000000 0.000000 0.479392
0.016350 0.231161 0.485625
0.260778 0.225112 0.480132
0.600465 0.217479 0.473200
0.940153 0.209846 0.466267
1.000000 0.204756 0.461644
0.016350 0.530865 0.463036
0.234977 0.524817 0.457543
0.574665 0.517184 0.450611
0.914352 0.509551 0.443678
1.000000 0.504460 0.439055
0.016350 0.830569 0.440448
0.209177 0.824521 0.434954
0.548864 0.816888 0.428022
0.888552 0.809255 0.421089
1.000000 0.804164 0.416466
0.016350 1.000000 0.422699
0.188905 1.000000 0.417206
0.528592 1.000000 0.410273
0.868280 1.000000 0.403341
1.000000 1.000000 0.398718
0.016350 0.000000 0.786400
0.278529 0.000000 0.780907
0.618217 0.000000 0.773974
0.957905 0.000000 0.767042
1.000000 0.000000 0.762419
0.016350 0.228731 0.768652
0.258257 0.222683 0.763158
0.597945 0.215050 0.756226
0.937633 0.207417 0.749294
1.000000 0.202327 0.744671
0.016350 0.528436 0.746063
0.232457 0.522387 0.740569
0.572145 0.514754 0.733637
0.911832 0.507121 0.726705
1.000000 0.502031 0.722082
0.016350 0.828140 0.723474
0.206656 0.822091 0.717981
0.546344 0.814458 0.711048
0.886032 0.806825 0.704116
1.000000 0.801735 0.699493
0.016350 1.000000 0.705726
0.186384 1.000000 0.700232
0.526072 1.000000 0.693300
0.865760 1.000000 0.686368
1.000000 1.000000 0.681744
0.016350 0.000000 0.940000
0.276230 0.000000 0.940000
0.615917 0.000000 0.940000
0.955605 0.000000 0.940000
1.000000 0.000000 0.940000
0.016350 0.226515 0.940000
0.255958 0.220466 0.940000
0.595645 0.212833 0.940000
0.935333 0.205200 0.940000
1.000000 0.200110 0.940000
0.016350 0.526219 0.940000
0.230157 0.520170 0.940000
0.569845 0.512537 0.940000
0.909533 0.504904 0.940000
1.000000 0.499814 0.940000
0.016350 0.825923 0.940000
0.204357 0.819874 0.940000
0.544044 0.812241 0.940000
0.883732 0.804609 0.940000
1.000000 0.799518 0.940000
0.016350 1.000000 0.940000
0.184085 1.000000 0.940000
0.523772 1.000000 0.940000
0.863460 1.000000 0.940000
1.000000 1.000000 0.940000
