plugin/runtime/presets/luts/sunset-gold/sunset-gold.cube
# akari-video catalog LUT: sunset-gold
LUT_3D_SIZE 9
0.016350 0.000000 0.000000
0.115688 0.000000 0.000000
0.285532 0.000000 0.000000
0.455376 0.000000 0.000000
0.625219 0.000000 0.000000
0.795063 0.000000 0.000000
0.964907 0.000000 0.000000
1.000000 0.000000 0.000000
1.000000 0.000000 0.000000
0.016350 0.085630 0.000000
0.108316 0.083398 0.000000
0.278160 0.079581 0.000000
0.448004 0.075765 0.000000
0.617848 0.071948 0.000000
0.787692 0.068132 0.000000
0.957536 0.064315 0.000000
1.000000 0.060499 0.000000
1.000000 0.059225 0.000000
0.016350 0.235482 0.000000
0.095416 0.233250 0.000000
0.265260 0.229433 0.000000
0.435104 0.225617 0.000000
0.604948 0.221800 0.000000
0.774791 0.217984 0.000000
0.944635 0.214167 0.000000
1.000000 0.210351 0.000000
1.000000 0.209077 0.000000
0.016350 0.385334 0.000000
0.082516 0.383102 0.000000
0.252360 0.379285 0.000000
0.422203 0.375469 0.000000
0.592047 0.371652 0.000000
0.761891 0.367836 0.000000
0.931735 0.364020 0.000000
1.000000 0.360203 0.000000
1.000000 0.358929 0.000000
0.016350 0.535186 0.000000
0.069616 0.532954 0.000000
0.239459 0.529137 0.000000
0.409303 0.525321 0.000000
0.579147 0.521505 0.000000
0.748991 0.517688 0.000000
0.918835 0.513872 0.000000
1.000000 0.510055 0.000000
1.000000 0.508781 0.000000
0.016350 0.685038 0.000000
0.056715 0.682806 0.000000
0.226559 0.678990 0.000000
0.396403 0.675173 0.000000
0.566247 0.671357 0.000000
0.736091 0.667540 0.000000
0.905934 0.663724 0.000000
1.000000 0.659907 0.000000
1.000000 0.658633 0.000000
0.016350 0.834890 0.000000
0.043815 0.832658 0.000000
0.213659 0.828842 0.000000
0.383503 0.825025 0.000000
0.553346 0.821209 0.000000
0.723190 0.817392 0.000000
0.893034 0.813576 0.000000
1.000000 0.809759 0.000000
1.000000 0.808485 0.000000
0.016350 0.984742 0.000000
0.030915 0.982510 0.000000
0.200758 0.978694 0.000000
0.370602 0.974877 0.000000
0.540446 0.971061 0.000000
0.710290 0.967244 0.000000
0.880134 0.963428 0.000000
1.000000 0.959611 0.000000
1.000000 0.958337 0.000000
0.016350 1.000000 0.000000
0.023543 1.000000 0.000000
0.193387 1.000000 0.000000
0.363231 1.000000 0.000000
0.533075 1.000000 0.000000
0.702918 1.000000 0.000000
0.872762 1.000000 0.000000
1.000000 1.000000 0.000000
1.000000 1.000000 0.000000
0.016350 0.000000 0.078834
0.114986 0.000000 0.076807
0.284830 0.000000 0.073340
0.454674 0.000000 0.069874
0.624518 0.000000 0.066408
0.794361 0.000000 0.062942
0.964205 0.000000 0.059476
1.000000 0.000000 0.056010
1.000000 0.000000 0.054853
0.016350 0.084953 0.072380
0.107614 0.082721 0.070353
0.277458 0.078904 0.066887
0.447302 0.075088 0.063420
0.617146 0.071272 0.059954
0.786990 0.067455 0.056488
0.956834 0.063639 0.053022
1.000000 0.059822 0.049556
1.000000 0.058548 0.048399
0.016350 0.234805 0.061086
0.094714 0.232573 0.059058
0.264558 0.228757 0.055592
0.434402 0.224940 0.052126
0.604246 0.221124 0.048660
0.774089 0.217307 0.045194
0.943933 0.213491 0.041727
1.000000 0.209674 0.038261
1.000000 0.208400 0.037104
0.016350 0.384657 0.049791
0.081814 0.382425 0.047764
0.251658 0.378609 0.044298
0.421502 0.374792 0.040831
0.591345 0.370976 0.037365
0.761189 0.367159 0.033899
0.931033 0.363343 0.030433
1.000000 0.359526 0.026967
1.000000 0.358252 0.025810
0.016350 0.534509 0.038497
0.068914 0.532277 0.036469
0.238757 0.528461 0.033003
0.408601 0.524644 0.029537
0.578445 0.520828 0.026071
0.748289 0.517011 0.022605
0.918133 0.513195 0.019139
1.000000 0.509378 0.015672
1.000000 0.508104 0.014515
0.016350 0.684361 0.027202
0.056013 0.682129 0.025175
0.225857 0.678313 0.021709
0.395701 0.674496 0.018243
0.565545 0.670680 0.014776
0.735389 0.666863 0.011310
0.905232 0.663047 0.007844
1.000000 0.659231 0.004378
1.000000 0.657957 0.003221
0.016350 0.834214 0.015908
0.043113 0.831981 0.013880
0.212957 0.828165 0.010414
0.382801 0.824348 0.006948
0.552644 0.820532 0.003482
0.722488 0.816716 0.000016
0.892332 0.812899 0.000000
1.000000 0.809083 0.000000
1.000000 0.807809 0.000000
0.016350 0.984066 0.004613
0.030213 0.981834 0.002586
0.200057 0.978017 0.000000
0.369900 0.974201 0.000000
0.539744 0.970384 0.000000
0.709588 0.966568 0.000000
0.879432 0.962751 0.000000
1.000000 0.958935 0.000000
1.000000 0.957661 0.000000
0.016350 1.000000 0.000000
0.022841 1.000000 0.000000
0.192685 1.000000 0.000000
0.362529 1.000000 0.000000
0.532373 1.000000 0.000000
0.702216 1.000000 0.000000
0.872060 1.000000 0.000000
1.000000 1.000000 0.000000
1.000000 1.000000 0.000000
0.016350 0.000000 0.220347
0.113726 0.000000 0.218320
0.283570 0.000000 0.214854
0.453414 0.000000 0.211388
0.623257 0.000000 0.207921
0.793101 0.000000 0.204455
0.962945 0.000000 0.200989
1.000000 0.000000 0.197523
1.000000 0.000000 0.196366
0.016350 0.083738 0.213893
0.106354 0.081506 0.211866
0.276198 0.077690 0.208400
0.446042 0.073873 0.204934
0.615886 0.070057 0.201467
0.785730 0.066240 0.198001
0.955573 0.062424 0.194535
1.000000 0.058607 0.191069
1.000000 0.057333 0.189912
0.016350 0.233590 0.202599
0.093454 0.231358 0.200571
0.263298 0.227542 0.197105
0.433142 0.223725 0.193639
0.602986 0.219909 0.190173
0.772829 0.216092 0.186707
0.942673 0.212276 0.183241
1.000000 0.208459 0.179775
1.000000 0.207186 0.178617
0.016350 0.383443 0.191304
0.080554 0.381210 0.189277
0.250398 0.377394 0.185811
0.420241 0.373577 0.182345
0.590085 0.369761 0.178879
0.759929 0.365945 0.175412
0.929773 0.362128 0.171946
1.000000 0.358312 0.168480
1.000000 0.357038 0.167323
0.016350 0.533295 0.180010
0.067653 0.531062 0.177983
0.237497 0.527246 0.174516
0.407341 0.523430 0.171050
0.577185 0.519613 0.167584
0.747029 0.515797 0.164118
0.916873 0.511980 0.160652
1.000000 0.508164 0.157186
1.000000 0.506890 0.156029
0.016350 0.683147 0.168715
0.054753 0.680915 0.166688
0.224597 0.677098 0.163222
0.394441 0.673282 0.159756
0.564285 0.669465 0.156290
0.734128 0.665649 0.152824
0.903972 0.661832 0.149357
1.000000 0.658016 0.145891
1.000000 0.656742 0.144734
0.016350 0.832999 0.157421
0.041853 0.830767 0.155394
0.211697 0.826950 0.151928
0.381541 0.823134 0.148461
0.551384 0.819317 0.144995
0.721228 0.815501 0.141529
0.891072 0.811684 0.138063
1.000000 0.807868 0.134597
1.000000 0.806594 0.133440
0.016350 0.982851 0.146127
0.028953 0.980619 0.144099
0.198796 0.976802 0.140633
0.368640 0.972986 0.137167
0.538484 0.969169 0.133701
0.708328 0.965353 0.130235
0.878172 0.961536 0.126768
1.000000 0.957720 0.123302
1.000000 0.956446 0.122145
0.016350 1.000000 0.139673
0.021581 1.000000 0.137645
0.191425 1.000000 0.134179
0.361269 1.000000 0.130713
0.531112 1.000000 0.127247
0.700956 1.000000 0.123781
0.870800 1.000000 0.120315
1.000000 1.000000 0.116848
1.000000 1.000000 0.115691
0.016350 0.000000 0.361860
0.112466 0.000000 0.359833
0.282310 0.000000 0.356367
0.452153 0.000000 0.352901
0.621997 0.000000 0.349435
0.791841 0.000000 0.345969
0.961685 0.000000 0.342502
1.000000 0.000000 0.339036
1.000000 0.000000 0.337879
0.016350 0.082524 0.355406
0.105094 0.080291 0.353379
0.274938 0.076475 0.349913
0.444782 0.072659 0.346447
0.614626 0.068842 0.342981
0.784470 0.065026 0.339515
0.954313 0.061209 0.336048
1.000000 0.057393 0.332582
1.000000 0.056119 0.331425
0.016350 0.232376 0.344112
0.092194 0.230144 0.342085
0.262038 0.226327 0.338619
0.431882 0.222511 0.335152
0.601725 0.218694 0.331686
0.771569 0.214878 0.328220
0.941413 0.211061 0.324754
1.000000 0.207245 0.321288
1.000000 0.205971 0.320131
0.016350 0.382228 0.332818
0.079294 0.379996 0.330790
0.249137 0.376179 0.327324
0.418981 0.372363 0.323858
0.588825 0.368546 0.320392
0.758669 0.364730 0.316926
0.928513 0.360913 0.313460
1.000000 0.357097 0.309993
1.000000 0.355823 0.308836
0.016350 0.532080 0.321523
0.066393 0.529848 0.319496
0.236237 0.526031 0.316030
0.406081 0.522215 0.312564
0.575925 0.518398 0.309097
0.745769 0.514582 0.305631
0.915612 0.510765 0.302165
1.000000 0.506949 0.298699
1.000000 0.505675 0.297542
0.016350 0.681932 0.310229
0.053493 0.679700 0.308201
0.223337 0.675883 0.304735
0.393181 0.672067 0.301269
0.563025 0.668250 0.297803
0.732868 0.664434 0.294337
0.902712 0.660618 0.290871
1.000000 0.656801 0.287404
1.000000 0.655527 0.286247
0.016350 0.831784 0.298934
0.040593 0.829552 0.296907
0.210437 0.825735 0.293441
0.380280 0.821919 0.289975
0.550124 0.818103 0.286509
0.719968 0.814286 0.283042
0.889812 0.810470 0.279576
1.000000 0.806653 0.276110
1.000000 0.805379 0.274953
0.016350 0.981636 0.287640
0.027692 0.979404 0.285613
0.197536 0.975588 0.282146
0.367380 0.971771 0.278680
0.537224 0.967955 0.275214
0.707068 0.964138 0.271748
0.876912 0.960322 0.268282
1.000000 0.956505 0.264816
1.000000 0.955231 0.263659
0.016350 1.000000 0.281186
0.020321 1.000000 0.279159
0.190165 1.000000 0.275692
0.360009 1.000000 0.272226
0.529852 1.000000 0.268760
0.699696 1.000000 0.265294
0.869540 1.000000 0.261828
1.000000 1.000000 0.258362
1.000000 1.000000 0.257205
0.016350 0.000000 0.503374
0.111206 0.000000 0.501346
0.281050 0.000000 0.497880
0.450893 0.000000 0.494414
0.620737 0.000000 0.490948
0.790581 0.000000 0.487482
0.960425 0.000000 0.484016
1.000000 0.000000 0.480549
1.000000 0.000000 0.479392
0.016350 0.081309 0.496920
0.103834 0.079077 0.494892
0.273678 0.075260 0.491426
0.443522 0.071444 0.487960
0.613366 0.067627 0.484494
0.783209 0.063811 0.481028
0.953053 0.059994 0.477562
1.000000 0.056178 0.474095
1.000000 0.054904 0.472938
0.016350 0.231161 0.485625
0.090934 0.228929 0.483598
0.260778 0.225112 0.480132
0.430621 0.221296 0.476666
0.600465 0.217479 0.473200
0.770309 0.213663 0.469733
0.940153 0.209846 0.466267
1.000000 0.206030 0.462801
1.000000 0.204756 0.461644
0.016350 0.381013 0.474331
0.078034 0.378781 0.472304
0.247877 0.374964 0.468837
0.417721 0.371148 0.465371
0.587565 0.367332 0.461905
0.757409 0.363515 0.458439
0.927253 0.359699 0.454973
1.000000 0.355882 0.451507
1.000000 0.354608 0.450350
0.016350 0.530865 0.463036
0.065133 0.528633 0.461009
0.234977 0.524817 0.457543
0.404821 0.521000 0.454077
0.574665 0.517184 0.450611
0.744509 0.513367 0.447144
0.914352 0.509551 0.443678
1.000000 0.505734 0.440212
1.000000 0.504460 0.439055
0.016350 0.680717 0.451742
0.052233 0.678485 0.449715
0.222077 0.674669 0.446249
0.391921 0.670852 0.442782
0.561764 0.667036 0.439316
0.731608 0.663219 0.435850
0.901452 0.659403 0.432384
1.000000 0.655586 0.428918
1.000000 0.654312 0.427761
0.016350 0.830569 0.440448
0.039333 0.828337 0.438420
0.209177 0.824521 0.434954
0.379020 0.820704 0.431488
0.548864 0.816888 0.428022
0.718708 0.813071 0.424556
0.888552 0.809255 0.421089
1.000000 0.805438 0.417623
1.000000 0.804164 0.416466
0.016350 0.980421 0.429153
0.026432 0.978189 0.427126
0.196276 0.974373 0.423660
0.366120 0.970556 0.420193
0.535964 0.966740 0.416727
0.705808 0.962923 0.413261
0.875652 0.959107 0.409795
1.000000 0.955291 0.406329
1.000000 0.954017 0.405172
0.016350 1.000000 0.422699
0.019061 1.000000 0.420672
0.188905 1.000000 0.417206
0.358748 1.000000 0.413740
0.528592 1.000000 0.410273
0.698436 1.000000 0.406807
0.868280 1.000000 0.403341
1.000000 1.000000 0.399875
1.000000 1.000000 0.398718
0.016350 0.000000 0.644887
0.109946 0.000000 0.642860
0.279789 0.000000 0.639394
0.449633 0.000000 0.635927
0.619477 0.000000 0.632461
0.789321 0.000000 0.628995
0.959165 0.000000 0.625529
1.000000 0.000000 0.622063
1.000000 0.000000 0.620906
0.016350 0.080094 0.638433
0.102574 0.077862 0.636406
0.272418 0.074045 0.632940
0.442262 0.070229 0.629473
0.612106 0.066413 0.626007
0.781949 0.062596 0.622541
0.951793 0.058780 0.619075
1.000000 0.054963 0.615609
1.000000 0.053689 0.614452
0.016350 0.229946 0.627139
0.089674 0.227714 0.625111
0.259518 0.223898 0.621645
0.429361 0.220081 0.618179
0.599205 0.216265 0.614713
0.769049 0.212448 0.611247
0.938893 0.208632 0.607780
1.000000 0.204815 0.604314
1.000000 0.203541 0.603157
0.016350 0.379798 0.615844
0.076773 0.377566 0.613817
0.246617 0.373750 0.610351
0.416461 0.369933 0.606885
0.586305 0.366117 0.603418
0.756149 0.362300 0.599952
0.925993 0.358484 0.596486
1.000000 0.354667 0.593020
1.000000 0.353393 0.591863
0.016350 0.529650 0.604550
0.063873 0.527418 0.602522
0.233717 0.523602 0.599056
0.403561 0.519785 0.595590
0.573405 0.515969 0.592124
0.743248 0.512152 0.588658
0.913092 0.508336 0.585192
1.000000 0.504519 0.581725
1.000000 0.503246 0.580568
0.016350 0.679503 0.593255
0.050973 0.677270 0.591228
0.220817 0.673454 0.587762
0.390661 0.669637 0.584296
0.560504 0.665821 0.580829
0.730348 0.662005 0.577363
0.900192 0.658188 0.573897
1.000000 0.654372 0.570431
1.000000 0.653098 0.569274
0.016350 0.829355 0.581961
0.038073 0.827122 0.579934
0.207916 0.823306 0.576467
0.377760 0.819490 0.573001
0.547604 0.815673 0.569535
0.717448 0.811857 0.566069
0.887292 0.808040 0.562603
1.000000 0.804224 0.559137
1.000000 0.802950 0.557980
0.016350 0.979207 0.570666
0.025172 0.976975 0.568639
0.195016 0.973158 0.565173
0.364860 0.969342 0.561707
0.534704 0.965525 0.558241
0.704548 0.961709 0.554774
0.874391 0.957892 0.551308
1.000000 0.954076 0.547842
1.000000 0.952802 0.546685
0.016350 1.000000 0.564212
0.017801 1.000000 0.562185
0.187645 1.000000 0.558719
0.357488 1.000000 0.555253
0.527332 1.000000 0.551787
0.697176 1.000000 0.548320
0.867020 1.000000 0.544854
1.000000 1.000000 0.541388
1.000000 1.000000 0.540231
0.016350 0.000000 0.786400
0.108686 0.000000 0.784373
0.278529 0.000000 0.780907
0.448373 0.000000 0.777441
0.618217 0.000000 0.773974
0.788061 0.000000 0.770508
0.957905 0.000000 0.767042
1.000000 0.000000 0.763576
1.000000 0.000000 0.762419
0.016350 0.078879 0.779946
0.101314 0.076647 0.777919
0.271158 0.072831 0.774453
0.441002 0.069014 0.770987
0.610845 0.065198 0.767520
0.780689 0.061381 0.764054
0.950533 0.057565 0.760588
1.000000 0.053748 0.757122
1.000000 0.052474 0.755965
0.016350 0.228731 0.768652
0.088414 0.226499 0.766625
0.258257 0.222683 0.763158
0.428101 0.218866 0.759692
0.597945 0.215050 0.756226
0.767789 0.211233 0.752760
0.937633 0.207417 0.749294
1.000000 0.203601 0.745828
1.000000 0.202327 0.744671
0.016350 0.378584 0.757357
0.075513 0.376351 0.755330
0.245357 0.372535 0.751864
0.415201 0.368718 0.748398
0.585045 0.364902 0.744932
0.754889 0.361086 0.741465
0.924732 0.357269 0.737999
1.000000 0.353453 0.734533
1.000000 0.352179 0.733376
0.016350 0.528436 0.746063
0.062613 0.526204 0.744036
0.232457 0.522387 0.740569
0.402301 0.518571 0.737103
0.572145 0.514754 0.733637
0.741988 0.510938 0.730171
0.911832 0.507121 0.726705
1.000000 0.503305 0.723239
1.000000 0.502031 0.722082
0.016350 0.678288 0.734768
0.049713 0.676056 0.732741
0.219557 0.672239 0.729275
0.389400 0.668423 0.725809
0.559244 0.664606 0.722343
0.729088 0.660790 0.718877
0.898932 0.656973 0.715410
1.000000 0.653157 0.711944
1.000000 0.651883 0.710787
0.016350 0.828140 0.723474
0.036812 0.825908 0.721447
0.206656 0.822091 0.717981
0.376500 0.818275 0.714514
0.546344 0.814458 0.711048
0.716188 0.810642 0.707582
0.886032 0.806825 0.704116
1.000000 0.803009 0.700650
1.000000 0.801735 0.699493
0.016350 0.977992 0.712180
0.023912 0.975760 0.710152
0.193756 0.971943 0.706686
0.363600 0.968127 0.703220
0.533444 0.964310 0.699754
0.703287 0.960494 0.696288
0.873131 0.956678 0.692822
1.000000 0.952861 0.689355
1.000000 0.951587 0.688198
0.016350 1.000000 0.705726
0.016541 1.000000 0.703698
0.186384 1.000000 0.700232
0.356228 1.000000 0.696766
0.526072 1.000000 0.693300
0.695916 1.000000 0.689834
0.865760 1.000000 0.686368
1.000000 1.000000 0.682901
1.000000 1.000000 0.681744
0.016350 0.000000 0.927913
0.107425 0.000000 0.925886
0.277269 0.000000 0.922420
0.447113 0.000000 0.918954
0.616957 0.000000 0.915488
0.786801 0.000000 0.912022
0.956645 0.000000 0.908555
1.000000 0.000000 0.905089
1.000000 0.000000 0.903932
0.016350 0.077665 0.921459
0.100054 0.075432 0.919432
0.269898 0.071616 0.915966
0.439741 0.067800 0.912500
0.609585 0.063983 0.909034
0.779429 0.060167 0.905568
0.949273 0.056350 0.902101
1.000000 0.052534 0.898635
1.000000 0.051260 0.897478
0.016350 0.227517 0.910165
0.087154 0.225285 0.908138
0.256997 0.221468 0.904672
0.426841 0.217652 0.901205
0.596685 0.213835 0.897739
0.766529 0.210019 0.894273
0.936373 0.206202 0.890807
1.000000 0.202386 0.887341
1.000000 0.201112 0.886184
0.016350 0.377369 0.898871
0.074253 0.375137 0.896843
0.244097 0.371320 0.893377
0.413941 0.367504 0.889911
0.583785 0.363687 0.886445
0.753629 0.359871 0.882979
0.923472 0.356054 0.879513
1.000000 0.352238 0.876046
1.000000 0.350964 0.874889
0.016350 0.527221 0.887576
0.061353 0.524989 0.885549
0.231197 0.521172 0.882083
0.401041 0.517356 0.878617
0.570884 0.513539 0.875150
0.740728 0.509723 0.871684
0.910572 0.505906 0.868218
1.000000 0.502090 0.864752
1.000000 0.500816 0.863595
0.016350 0.677073 0.876282
0.048453 0.674841 0.874254
0.218296 0.671024 0.870788
0.388140 0.667208 0.867322
0.557984 0.663391 0.863856
0.727828 0.659575 0.860390
0.897672 0.655759 0.856924
1.000000 0.651942 0.853458
1.000000 0.650668 0.852300
0.016350 0.826925 0.864987
0.035552 0.824693 0.862960
0.205396 0.820877 0.859494
0.375240 0.817060 0.856028
0.545084 0.813244 0.852562
0.714928 0.809427 0.849095
0.884772 0.805611 0.845629
1.000000 0.801794 0.842163
1.000000 0.800520 0.841006
0.016350 0.976777 0.853693
0.022652 0.974545 0.851666
0.192496 0.970729 0.848199
0.362340 0.966912 0.844733
0.532184 0.963096 0.841267
0.702027 0.959279 0.837801
0.871871 0.955463 0.834335
1.000000 0.951646 0.830869
1.000000 0.950372 0.829712
0.016350 1.000000 0.847239
0.016350 1.000000 0.845212
0.185124 1.000000 0.841745
0.354968 1.000000 0.838279
0.524812 1.000000 0.834813
0.694656 1.000000 0.831347
0.864500 1.000000 0.827881
1.000000 1.000000 0.824415
1.000000 1.000000 0.823258
0.016350 0.000000 0.940000
0.106386 0.000000 0.940000
0.276230 0.000000 0.940000
0.446074 0.000000 0.940000
0.615917 0.000000 0.940000
0.785761 0.000000 0.940000
0.955605 0.000000 0.940000
1.000000 0.000000 0.940000
1.000000 0.000000 0.940000
0.016350 0.076663 0.940000
0.099014 0.074430 0.940000
0.268858 0.070614 0.940000
0.438702 0.066797 0.940000
0.608546 0.062981 0.940000
0.778390 0.059165 0.940000
0.948233 0.055348 0.940000
1.000000 0.051532 0.940000
1.000000 0.050258 0.940000
0.016350 0.226515 0.940000
0.086114 0.224282 0.940000
0.255958 0.220466 0.940000
0.425802 0.216650 0.940000
0.595645 0.212833 0.940000
0.765489 0.209017 0.940000
0.935333 0.205200 0.940000
1.000000 0.201384 0.940000
1.000000 0.200110 0.940000
0.016350 0.376367 0.940000
0.073214 0.374135 0.940000
0.243058 0.370318 0.940000
0.412901 0.366502 0.940000
0.582745 0.362685 0.940000
0.752589 0.358869 0.940000
0.922433 0.355052 0.940000
1.000000 0.351236 0.940000
1.000000 0.349962 0.940000
0.016350 0.526219 0.940000
0.060313 0.523987 0.940000
0.230157 0.520170 0.940000
0.400001 0.516354 0.940000
0.569845 0.512537 0.940000
0.739689 0.508721 0.940000
0.909533 0.504904 0.940000
1.000000 0.501088 0.940000
1.000000 0.499814 0.940000
0.016350 0.676071 0.940000
0.047413 0.673839 0.940000
0.217257 0.670022 0.940000
0.387101 0.666206 0.940000
0.556945 0.662389 0.940000
0.726788 0.658573 0.940000
0.896632 0.654756 0.940000
1.000000 0.650940 0.940000
1.000000 0.649666 0.940000
0.016350 0.825923 0.940000
0.034513 0.823691 0.940000
0.204357 0.819874 0.940000
0.374201 0.816058 0.940000
0.544044 0.812241 0.940000
0.713888 0.808425 0.940000
0.883732 0.804609 0.940000
1.000000 0.800792 0.940000
1.000000 0.799518 0.940000
0.016350 0.975775 0.940000
0.021613 0.973543 0.940000
0.191456 0.969727 0.940000
0.361300 0.965910 0.940000
0.531144 0.962094 0.940000
0.700988 0.958277 0.940000
0.870832 0.954461 0.940000
1.000000 0.950644 0.940000
1.000000 0.949370 0.940000
0.016350 1.000000 0.940000
0.016350 1.000000 0.940000
0.184085 1.000000 0.940000
0.353929 1.000000 0.940000
0.523772 1.000000 0.940000
0.693616 1.000000 0.940000
0.863460 1.000000 0.940000
1.000000 1.000000 0.940000
1.000000 1.000000 0.940000
