plugin/runtime/presets/luts/sunset-gold/sunset-gold.cube
# akari-video catalog LUT: sunset-gold
LUT_3D_SIZE 33
0.016350 0.000000 0.000000
0.016350 0.000000 0.000000
0.030766 0.000000 0.000000
0.073227 0.000000 0.000000
0.115688 0.000000 0.000000
0.158149 0.000000 0.000000
0.200610 0.000000 0.000000
0.243071 0.000000 0.000000
0.285532 0.000000 0.000000
0.327993 0.000000 0.000000
0.370454 0.000000 0.000000
0.412915 0.000000 0.000000
0.455376 0.000000 0.000000
0.497837 0.000000 0.000000
0.540298 0.000000 0.000000
0.582759 0.000000 0.000000
0.625219 0.000000 0.000000
0.667680 0.000000 0.000000
0.710141 0.000000 0.000000
0.752602 0.000000 0.000000
0.795063 0.000000 0.000000
0.837524 0.000000 0.000000
0.879985 0.000000 0.000000
0.922446 0.000000 0.000000
0.964907 0.000000 0.000000
1.000000 0.000000 0.000000
1.000000 0.000000 0.000000
1.000000 0.000000 0.000000
1.000000 0.000000 0.000000
1.000000 0.000000 0.000000
1.000000 0.000000 0.000000
1.000000 0.000000 0.000000
1.000000 0.000000 0.000000
0.016350 0.000000 0.000000
0.016350 0.000000 0.000000
0.030766 0.000000 0.000000
0.073227 0.000000 0.000000
0.115688 0.000000 0.000000
0.158149 0.000000 0.000000
0.200610 0.000000 0.000000
0.243071 0.000000 0.000000
0.285532 0.000000 0.000000
0.327993 0.000000 0.000000
0.370454 0.000000 0.000000
0.412915 0.000000 0.000000
0.455376 0.000000 0.000000
0.497837 0.000000 0.000000
0.540298 0.000000 0.000000
0.582759 0.000000 0.000000
0.625219 0.000000 0.000000
0.667680 0.000000 0.000000
0.710141 0.000000 0.000000
0.752602 0.000000 0.000000
0.795063 0.000000 0.000000
0.837524 0.000000 0.000000
0.879985 0.000000 0.000000
0.922446 0.000000 0.000000
0.964907 0.000000 0.000000
1.000000 0.000000 0.000000
1.000000 0.000000 0.000000
1.000000 0.000000 0.000000
1.000000 0.000000 0.000000
1.000000 0.000000 0.000000
1.000000 0.000000 0.000000
1.000000 0.000000 0.000000
1.000000 0.000000 0.000000
0.016350 0.010704 0.000000
0.016350 0.010704 0.000000
0.029845 0.010380 0.000000
0.072306 0.009426 0.000000
0.114767 0.008472 0.000000
0.157228 0.007517 0.000000
0.199688 0.006563 0.000000
0.242149 0.005609 0.000000
0.284610 0.004655 0.000000
0.327071 0.003701 0.000000
0.369532 0.002747 0.000000
0.411993 0.001793 0.000000
0.454454 0.000839 0.000000
0.496915 0.000000 0.000000
0.539376 0.000000 0.000000
0.581837 0.000000 0.000000
0.624298 0.000000 0.000000
0.666759 0.000000 0.000000
0.709220 0.000000 0.000000
0.751681 0.000000 0.000000
0.794142 0.000000 0.000000
0.836603 0.000000 0.000000
0.879064 0.000000 0.000000
0.921525 0.000000 0.000000
0.963986 0.000000 0.000000
1.000000 0.000000 0.000000
1.000000 0.000000 0.000000
1.000000 0.000000 0.000000
1.000000 0.000000 0.000000
1.000000 0.000000 0.000000
1.000000 0.000000 0.000000
1.000000 0.000000 0.000000
1.000000 0.000000 0.000000
0.016350 0.048167 0.000000
0.016350 0.048167 0.000000
0.026620 0.047843 0.000000
0.069081 0.046889 0.000000
0.111541 0.045935 0.000000
0.154002 0.044980 0.000000
0.196463 0.044026 0.000000
0.238924 0.043072 0.000000
0.281385 0.042118 0.000000
0.323846 0.041164 0.000000
0.366307 0.040210 0.000000
0.408768 0.039256 0.000000
0.451229 0.038302 0.000000
0.493690 0.037348 0.000000
0.536151 0.036393 0.000000
0.578612 0.035439 0.000000
0.621073 0.034485 0.000000
0.663534 0.033531 0.000000
0.705995 0.032577 0.000000
0.748456 0.031623 0.000000
0.790917 0.030669 0.000000
0.833378 0.029715 0.000000
0.875839 0.028761 0.000000
0.918300 0.027806 0.000000
0.960761 0.026852 0.000000
1.000000 0.025898 0.000000
1.000000 0.024944 0.000000
1.000000 0.023990 0.000000
1.000000 0.023036 0.000000
1.000000 0.022082 0.000000
1.000000 0.021762 0.000000
1.000000 0.021762 0.000000
1.000000 0.021762 0.000000
0.016350 0.085630 0.000000
0.016350 0.085630 0.000000
0.023394 0.085306 0.000000
0.065855 0.084352 0.000000
0.108316 0.083398 0.000000
0.150777 0.082443 0.000000
0.193238 0.081489 0.000000
0.235699 0.080535 0.000000
0.278160 0.079581 0.000000
0.320621 0.078627 0.000000
0.363082 0.077673 0.000000
0.405543 0.076719 0.000000
0.448004 0.075765 0.000000
0.490465 0.074811 0.000000
0.532926 0.073856 0.000000
0.575387 0.072902 0.000000
0.617848 0.071948 0.000000
0.660309 0.070994 0.000000
0.702770 0.070040 0.000000
0.745231 0.069086 0.000000
0.787692 0.068132 0.000000
0.830153 0.067178 0.000000
0.872614 0.066224 0.000000
0.915075 0.065269 0.000000
0.957536 0.064315 0.000000
0.999996 0.063361 0.000000
1.000000 0.062407 0.000000
1.000000 0.061453 0.000000
1.000000 0.060499 0.000000
1.000000 0.059545 0.000000
1.000000 0.059225 0.000000
1.000000 0.059225 0.000000
1.000000 0.059225 0.000000
0.016350 0.123093 0.000000
0.016350 0.123093 0.000000
0.020169 0.122769 0.000000
0.062630 0.121815 0.000000
0.105091 0.120861 0.000000
0.147552 0.119907 0.000000
0.190013 0.118952 0.000000
0.232474 0.117998 0.000000
0.274935 0.117044 0.000000
0.317396 0.116090 0.000000
0.359857 0.115136 0.000000
0.402318 0.114182 0.000000
0.444779 0.113228 0.000000
0.487240 0.112274 0.000000
0.529701 0.111319 0.000000
0.572162 0.110365 0.000000
0.614623 0.109411 0.000000
0.657084 0.108457 0.000000
0.699545 0.107503 0.000000
0.742006 0.106549 0.000000
0.784467 0.105595 0.000000
0.826928 0.104641 0.000000
0.869389 0.103687 0.000000
0.911850 0.102732 0.000000
0.954310 0.101778 0.000000
0.996771 0.100824 0.000000
1.000000 0.099870 0.000000
1.000000 0.098916 0.000000
1.000000 0.097962 0.000000
1.000000 0.097008 0.000000
1.000000 0.096688 0.000000
1.000000 0.096688 0.000000
1.000000 0.096688 0.000000
0.016350 0.160556 0.000000
0.016350 0.160556 0.000000
0.016944 0.160232 0.000000
0.059405 0.159278 0.000000
0.101866 0.158324 0.000000
0.144327 0.157370 0.000000
0.186788 0.156415 0.000000
0.229249 0.155461 0.000000
0.271710 0.154507 0.000000
0.314171 0.153553 0.000000
0.356632 0.152599 0.000000
0.399093 0.151645 0.000000
0.441554 0.150691 0.000000
0.484015 0.149737 0.000000
0.526476 0.148783 0.000000
0.568937 0.147828 0.000000
0.611398 0.146874 0.000000
0.653859 0.145920 0.000000
0.696320 0.144966 0.000000
0.738781 0.144012 0.000000
0.781242 0.143058 0.000000
0.823703 0.142104 0.000000
0.866163 0.141150 0.000000
0.908624 0.140195 0.000000
0.951085 0.139241 0.000000
0.993546 0.138287 0.000000
1.000000 0.137333 0.000000
1.000000 0.136379 0.000000
1.000000 0.135425 0.000000
1.000000 0.134471 0.000000
1.000000 0.134151 0.000000
1.000000 0.134151 0.000000
1.000000 0.134151 0.000000
0.016350 0.198019 0.000000
0.016350 0.198019 0.000000
0.016350 0.197695 0.000000
0.056180 0.196741 0.000000
0.098641 0.195787 0.000000
0.141102 0.194833 0.000000
0.183563 0.193878 0.000000
0.226024 0.192924 0.000000
0.268485 0.191970 0.000000
0.310946 0.191016 0.000000
0.353407 0.190062 0.000000
0.395868 0.189108 0.000000
0.438329 0.188154 0.000000
0.480790 0.187200 0.000000
0.523251 0.186246 0.000000
0.565712 0.185291 0.000000
0.608173 0.184337 0.000000
0.650634 0.183383 0.000000
0.693095 0.182429 0.000000
0.735556 0.181475 0.000000
0.778016 0.180521 0.000000
0.820477 0.179567 0.000000
0.862938 0.178613 0.000000
0.905399 0.177658 0.000000
0.947860 0.176704 0.000000
0.990321 0.175750 0.000000
1.000000 0.174796 0.000000
1.000000 0.173842 0.000000
1.000000 0.172888 0.000000
1.000000 0.171934 0.000000
1.000000 0.171614 0.000000
1.000000 0.171614 0.000000
1.000000 0.171614 0.000000
0.016350 0.235482 0.000000
0.016350 0.235482 0.000000
0.016350 0.235158 0.000000
0.052955 0.234204 0.000000
0.095416 0.233250 0.000000
0.137877 0.232296 0.000000
0.180338 0.231341 0.000000
0.222799 0.230387 0.000000
0.265260 0.229433 0.000000
0.307721 0.228479 0.000000
0.350182 0.227525 0.000000
0.392643 0.226571 0.000000
0.435104 0.225617 0.000000
0.477565 0.224663 0.000000
0.520026 0.223709 0.000000
0.562487 0.222754 0.000000
0.604948 0.221800 0.000000
0.647409 0.220846 0.000000
0.689870 0.219892 0.000000
0.732330 0.218938 0.000000
0.774791 0.217984 0.000000
0.817252 0.217030 0.000000
0.859713 0.216076 0.000000
0.902174 0.215122 0.000000
0.944635 0.214167 0.000000
0.987096 0.213213 0.000000
1.000000 0.212259 0.000000
1.000000 0.211305 0.000000
1.000000 0.210351 0.000000
1.000000 0.209397 0.000000
1.000000 0.209077 0.000000
1.000000 0.209077 0.000000
1.000000 0.209077 0.000000
0.016350 0.272945 0.000000
0.016350 0.272945 0.000000
0.016350 0.272621 0.000000
0.049730 0.271667 0.000000
0.092191 0.270713 0.000000
0.134652 0.269759 0.000000
0.177113 0.268805 0.000000
0.219574 0.267850 0.000000
0.262035 0.266896 0.000000
0.304496 0.265942 0.000000
0.346957 0.264988 0.000000
0.389418 0.264034 0.000000
0.431879 0.263080 0.000000
0.474340 0.262126 0.000000
0.516801 0.261172 0.000000
0.559262 0.260217 0.000000
0.601723 0.259263 0.000000
0.644183 0.258309 0.000000
0.686644 0.257355 0.000000
0.729105 0.256401 0.000000
0.771566 0.255447 0.000000
0.814027 0.254493 0.000000
0.856488 0.253539 0.000000
0.898949 0.252585 0.000000
0.941410 0.251630 0.000000
0.983871 0.250676 0.000000
1.000000 0.249722 0.000000
1.000000 0.248768 0.000000
1.000000 0.247814 0.000000
1.000000 0.246860 0.000000
1.000000 0.246540 0.000000
1.000000 0.246540 0.000000
1.000000 0.246540 0.000000
0.016350 0.310408 0.000000
0.016350 0.310408 0.000000
0.016350 0.310084 0.000000
0.046505 0.309130 0.000000
0.088966 0.308176 0.000000
0.131427 0.307222 0.000000
0.173888 0.306268 0.000000
0.216349 0.305313 0.000000
0.258810 0.304359 0.000000
0.301271 0.303405 0.000000
0.343732 0.302451 0.000000
0.386193 0.301497 0.000000
0.428654 0.300543 0.000000
0.471115 0.299589 0.000000
0.513576 0.298635 0.000000
0.556036 0.297680 0.000000
0.598497 0.296726 0.000000
0.640958 0.295772 0.000000
0.683419 0.294818 0.000000
0.725880 0.293864 0.000000
0.768341 0.292910 0.000000
0.810802 0.291956 0.000000
0.853263 0.291002 0.000000
0.895724 0.290048 0.000000
0.938185 0.289093 0.000000
0.980646 0.288139 0.000000
1.000000 0.287185 0.000000
1.000000 0.286231 0.000000
1.000000 0.285277 0.000000
1.000000 0.284323 0.000000
1.000000 0.284003 0.000000
1.000000 0.284003 0.000000
1.000000 0.284003 0.000000
0.016350 0.347871 0.000000
0.016350 0.347871 0.000000
0.016350 0.347547 0.000000
0.043280 0.346593 0.000000
0.085741 0.345639 0.000000
0.128202 0.344685 0.000000
0.170663 0.343731 0.000000
0.213124 0.342776 0.000000
0.255585 0.341822 0.000000
0.298046 0.340868 0.000000
0.340507 0.339914 0.000000
0.382968 0.338960 0.000000
0.425429 0.338006 0.000000
0.467890 0.337052 0.000000
0.510350 0.336098 0.000000
0.552811 0.335144 0.000000
0.595272 0.334189 0.000000
0.637733 0.333235 0.000000
0.680194 0.332281 0.000000
0.722655 0.331327 0.000000
0.765116 0.330373 0.000000
0.807577 0.329419 0.000000
0.850038 0.328465 0.000000
0.892499 0.327511 0.000000
0.934960 0.326556 0.000000
0.977421 0.325602 0.000000
1.000000 0.324648 0.000000
1.000000 0.323694 0.000000
1.000000 0.322740 0.000000
1.000000 0.321786 0.000000
1.000000 0.321466 0.000000
1.000000 0.321466 0.000000
1.000000 0.321466 0.000000
0.016350 0.385334 0.000000
0.016350 0.385334 0.000000
0.016350 0.385010 0.000000
0.040055 0.384056 0.000000
0.082516 0.383102 0.000000
0.124977 0.382148 0.000000
0.167438 0.381194 0.000000
0.209899 0.380239 0.000000
0.252360 0.379285 0.000000
0.294821 0.378331 0.000000
0.337282 0.377377 0.000000
0.379743 0.376423 0.000000
0.422203 0.375469 0.000000
0.464664 0.374515 0.000000
0.507125 0.373561 0.000000
0.549586 0.372607 0.000000
0.592047 0.371652 0.000000
0.634508 0.370698 0.000000
0.676969 0.369744 0.000000
0.719430 0.368790 0.000000
0.761891 0.367836 0.000000
0.804352 0.366882 0.000000
0.846813 0.365928 0.000000
0.889274 0.364974 0.000000
0.931735 0.364020 0.000000
0.974196 0.363065 0.000000
1.000000 0.362111 0.000000
1.000000 0.361157 0.000000
1.000000 0.360203 0.000000
1.000000 0.359249 0.000000
1.000000 0.358929 0.000000
1.000000 0.358929 0.000000
1.000000 0.358929 0.000000
0.016350 0.422797 0.000000
0.016350 0.422797 0.000000
0.016350 0.422473 0.000000
0.036830 0.421519 0.000000
0.079291 0.420565 0.000000
0.121752 0.419611 0.000000
0.164213 0.418657 0.000000
0.206674 0.417702 0.000000
0.249135 0.416748 0.000000
0.291596 0.415794 0.000000
0.334056 0.414840 0.000000
0.376517 0.413886 0.000000
0.418978 0.412932 0.000000
0.461439 0.411978 0.000000
0.503900 0.411024 0.000000
0.546361 0.410070 0.000000
0.588822 0.409115 0.000000
0.631283 0.408161 0.000000
0.673744 0.407207 0.000000
0.716205 0.406253 0.000000
0.758666 0.405299 0.000000
0.801127 0.404345 0.000000
0.843588 0.403391 0.000000
0.886049 0.402437 0.000000
0.928510 0.401483 0.000000
0.970971 0.400528 0.000000
1.000000 0.399574 0.000000
1.000000 0.398620 0.000000
1.000000 0.397666 0.000000
1.000000 0.396712 0.000000
1.000000 0.396392 0.000000
1.000000 0.396392 0.000000
1.000000 0.396392 0.000000
0.016350 0.460260 0.000000
0.016350 0.460260 0.000000
0.016350 0.459936 0.000000
0.033605 0.458982 0.000000
0.076066 0.458028 0.000000
0.118527 0.457074 0.000000
0.160988 0.456120 0.000000
0.203449 0.455166 0.000000
0.245910 0.454211 0.000000
0.288370 0.453257 0.000000
0.330831 0.452303 0.000000
0.373292 0.451349 0.000000
0.415753 0.450395 0.000000
0.458214 0.449441 0.000000
0.500675 0.448487 0.000000
0.543136 0.447533 0.000000
0.585597 0.446578 0.000000
0.628058 0.445624 0.000000
0.670519 0.444670 0.000000
0.712980 0.443716 0.000000
0.755441 0.442762 0.000000
0.797902 0.441808 0.000000
0.840363 0.440854 0.000000
0.882824 0.439900 0.000000
0.925285 0.438946 0.000000
0.967746 0.437991 0.000000
1.000000 0.437037 0.000000
1.000000 0.436083 0.000000
1.000000 0.435129 0.000000
1.000000 0.434175 0.000000
1.000000 0.433855 0.000000
1.000000 0.433855 0.000000
1.000000 0.433855 0.000000
0.016350 0.497723 0.000000
0.016350 0.497723 0.000000
0.016350 0.497399 0.000000
0.030380 0.496445 0.000000
0.072841 0.495491 0.000000
0.115302 0.494537 0.000000
0.157763 0.493583 0.000000
0.200223 0.492629 0.000000
0.242684 0.491674 0.000000
0.285145 0.490720 0.000000
0.327606 0.489766 0.000000
0.370067 0.488812 0.000000
0.412528 0.487858 0.000000
0.454989 0.486904 0.000000
0.497450 0.485950 0.000000
0.539911 0.484996 0.000000
0.582372 0.484042 0.000000
0.624833 0.483087 0.000000
0.667294 0.482133 0.000000
0.709755 0.481179 0.000000
0.752216 0.480225 0.000000
0.794677 0.479271 0.000000
0.837138 0.478317 0.000000
0.879599 0.477363 0.000000
0.922060 0.476409 0.000000
0.964521 0.475454 0.000000
1.000000 0.474500 0.000000
1.000000 0.473546 0.000000
1.000000 0.472592 0.000000
1.000000 0.471638 0.000000
1.000000 0.471318 0.000000
1.000000 0.471318 0.000000
1.000000 0.471318 0.000000
0.016350 0.535186 0.000000
0.016350 0.535186 0.000000
0.016350 0.534862 0.000000
0.027155 0.533908 0.000000
0.069616 0.532954 0.000000
0.112076 0.532000 0.000000
0.154537 0.531046 0.000000
0.196998 0.530092 0.000000
0.239459 0.529137 0.000000
0.281920 0.528183 0.000000
0.324381 0.527229 0.000000
0.366842 0.526275 0.000000
0.409303 0.525321 0.000000
0.451764 0.524367 0.000000
0.494225 0.523413 0.000000
0.536686 0.522459 0.000000
0.579147 0.521505 0.000000
0.621608 0.520550 0.000000
0.664069 0.519596 0.000000
0.706530 0.518642 0.000000
0.748991 0.517688 0.000000
0.791452 0.516734 0.000000
0.833913 0.515780 0.000000
0.876374 0.514826 0.000000
0.918835 0.513872 0.000000
0.961296 0.512917 0.000000
1.000000 0.511963 0.000000
1.000000 0.511009 0.000000
1.000000 0.510055 0.000000
1.000000 0.509101 0.000000
1.000000 0.508781 0.000000
1.000000 0.508781 0.000000
1.000000 0.508781 0.000000
0.016350 0.572649 0.000000
0.016350 0.572649 0.000000
0.016350 0.572325 0.000000
0.023930 0.571371 0.000000
0.066390 0.570417 0.000000
0.108851 0.569463 0.000000
0.151312 0.568509 0.000000
0.193773 0.567555 0.000000
0.236234 0.566600 0.000000
0.278695 0.565646 0.000000
0.321156 0.564692 0.000000
0.363617 0.563738 0.000000
0.406078 0.562784 0.000000
0.448539 0.561830 0.000000
0.491000 0.560876 0.000000
0.533461 0.559922 0.000000
0.575922 0.558968 0.000000
0.618383 0.558013 0.000000
0.660844 0.557059 0.000000
0.703305 0.556105 0.000000
0.745766 0.555151 0.000000
0.788227 0.554197 0.000000
0.830688 0.553243 0.000000
0.873149 0.552289 0.000000
0.915610 0.551335 0.000000
0.958071 0.550381 0.000000
1.000000 0.549426 0.000000
1.000000 0.548472 0.000000
1.000000 0.547518 0.000000
1.000000 0.546564 0.000000
1.000000 0.546244 0.000000
1.000000 0.546244 0.000000
1.000000 0.546244 0.000000
0.016350 0.610112 0.000000
0.016350 0.610112 0.000000
0.016350 0.609788 0.000000
0.020704 0.608834 0.000000
0.063165 0.607880 0.000000
0.105626 0.606926 0.000000
0.148087 0.605972 0.000000
0.190548 0.605018 0.000000
0.233009 0.604064 0.000000
0.275470 0.603109 0.000000
0.317931 0.602155 0.000000
0.360392 0.601201 0.000000
0.402853 0.600247 0.000000
0.445314 0.599293 0.000000
0.487775 0.598339 0.000000
0.530236 0.597385 0.000000
0.572697 0.596431 0.000000
0.615158 0.595476 0.000000
0.657619 0.594522 0.000000
0.700080 0.593568 0.000000
0.742541 0.592614 0.000000
0.785002 0.591660 0.000000
0.827463 0.590706 0.000000
0.869924 0.589752 0.000000
0.912385 0.588798 0.000000
0.954845 0.587844 0.000000
0.997306 0.586889 0.000000
1.000000 0.585935 0.000000
1.000000 0.584981 0.000000
1.000000 0.584027 0.000000
1.000000 0.583707 0.000000
1.000000 0.583707 0.000000
1.000000 0.583707 0.000000
0.016350 0.647575 0.000000
0.016350 0.647575 0.000000
0.016350 0.647251 0.000000
0.017479 0.646297 0.000000
0.059940 0.645343 0.000000
0.102401 0.644389 0.000000
0.144862 0.643435 0.000000
0.187323 0.642481 0.000000
0.229784 0.641527 0.000000
0.272245 0.640572 0.000000
0.314706 0.639618 0.000000
0.357167 0.638664 0.000000
0.399628 0.637710 0.000000
0.442089 0.636756 0.000000
0.484550 0.635802 0.000000
0.527011 0.634848 0.000000
0.569472 0.633894 0.000000
0.611933 0.632939 0.000000
0.654394 0.631985 0.000000
0.696855 0.631031 0.000000
0.739316 0.630077 0.000000
0.781777 0.629123 0.000000
0.824238 0.628169 0.000000
0.866698 0.627215 0.000000
0.909159 0.626261 0.000000
0.951620 0.625307 0.000000
0.994081 0.624352 0.000000
1.000000 0.623398 0.000000
1.000000 0.622444 0.000000
1.000000 0.621490 0.000000
1.000000 0.621170 0.000000
1.000000 0.621170 0.000000
1.000000 0.621170 0.000000
0.016350 0.685038 0.000000
0.016350 0.685038 0.000000
0.016350 0.684714 0.000000
0.016350 0.683760 0.000000
0.056715 0.682806 0.000000
0.099176 0.681852 0.000000
0.141637 0.680898 0.000000
0.184098 0.679944 0.000000
0.226559 0.678990 0.000000
0.269020 0.678035 0.000000
0.311481 0.677081 0.000000
0.353942 0.676127 0.000000
0.396403 0.675173 0.000000
0.438864 0.674219 0.000000
0.481325 0.673265 0.000000
0.523786 0.672311 0.000000
0.566247 0.671357 0.000000
0.608708 0.670403 0.000000
0.651169 0.669448 0.000000
0.693630 0.668494 0.000000
0.736091 0.667540 0.000000
0.778552 0.666586 0.000000
0.821012 0.665632 0.000000
0.863473 0.664678 0.000000
0.905934 0.663724 0.000000
0.948395 0.662770 0.000000
0.990856 0.661815 0.000000
1.000000 0.660861 0.000000
1.000000 0.659907 0.000000
1.000000 0.658953 0.000000
1.000000 0.658633 0.000000
1.000000 0.658633 0.000000
1.000000 0.658633 0.000000
0.016350 0.722501 0.000000
0.016350 0.722501 0.000000
0.016350 0.722177 0.000000
0.016350 0.721223 0.000000
0.053490 0.720269 0.000000
0.095951 0.719315 0.000000
0.138412 0.718361 0.000000
0.180873 0.717407 0.000000
0.223334 0.716453 0.000000
0.265795 0.715498 0.000000
0.308256 0.714544 0.000000
0.350717 0.713590 0.000000
0.393178 0.712636 0.000000
0.435639 0.711682 0.000000
0.478100 0.710728 0.000000
0.520561 0.709774 0.000000
0.563022 0.708820 0.000000
0.605483 0.707866 0.000000
0.647944 0.706911 0.000000
0.690405 0.705957 0.000000
0.732865 0.705003 0.000000
0.775326 0.704049 0.000000
0.817787 0.703095 0.000000
0.860248 0.702141 0.000000
0.902709 0.701187 0.000000
0.945170 0.700233 0.000000
0.987631 0.699279 0.000000
1.000000 0.698324 0.000000
1.000000 0.697370 0.000000
1.000000 0.696416 0.000000
1.000000 0.696096 0.000000
1.000000 0.696096 0.000000
1.000000 0.696096 0.000000
0.016350 0.759964 0.000000
0.016350 0.759964 0.000000
0.016350 0.759640 0.000000
0.016350 0.758686 0.000000
0.050265 0.757732 0.000000
0.092726 0.756778 0.000000
0.135187 0.755824 0.000000
0.177648 0.754870 0.000000
0.220109 0.753916 0.000000
0.262570 0.752961 0.000000
0.305031 0.752007 0.000000
0.347492 0.751053 0.000000
0.389953 0.750099 0.000000
0.432414 0.749145 0.000000
0.474875 0.748191 0.000000
0.517336 0.747237 0.000000
0.559797 0.746283 0.000000
0.602258 0.745329 0.000000
0.644718 0.744374 0.000000
0.687179 0.743420 0.000000
0.729640 0.742466 0.000000
0.772101 0.741512 0.000000
0.814562 0.740558 0.000000
0.857023 0.739604 0.000000
0.899484 0.738650 0.000000
0.941945 0.737696 0.000000
0.984406 0.736742 0.000000
1.000000 0.735787 0.000000
1.000000 0.734833 0.000000
1.000000 0.733879 0.000000
1.000000 0.733559 0.000000
1.000000 0.733559 0.000000
1.000000 0.733559 0.000000
0.016350 0.797427 0.000000
0.016350 0.797427 0.000000
0.016350 0.797103 0.000000
0.016350 0.796149 0.000000
0.047040 0.795195 0.000000
0.089501 0.794241 0.000000
0.131962 0.793287 0.000000
0.174423 0.792333 0.000000
0.216884 0.791379 0.000000
0.259345 0.790425 0.000000
0.301806 0.789470 0.000000
0.344267 0.788516 0.000000
0.386728 0.787562 0.000000
0.429189 0.786608 0.000000
0.471650 0.785654 0.000000
0.514111 0.784700 0.000000
0.556572 0.783746 0.000000
0.599032 0.782792 0.000000
0.641493 0.781837 0.000000
0.683954 0.780883 0.000000
0.726415 0.779929 0.000000
0.768876 0.778975 0.000000
0.811337 0.778021 0.000000
0.853798 0.777067 0.000000
0.896259 0.776113 0.000000
0.938720 0.775159 0.000000
0.981181 0.774205 0.000000
1.000000 0.773250 0.000000
1.000000 0.772296 0.000000
1.000000 0.771342 0.000000
1.000000 0.771022 0.000000
1.000000 0.771022 0.000000
1.000000 0.771022 0.000000
0.016350 0.834890 0.000000
0.016350 0.834890 0.000000
0.016350 0.834566 0.000000
0.016350 0.833612 0.000000
0.043815 0.832658 0.000000
0.086276 0.831704 0.000000
0.128737 0.830750 0.000000
0.171198 0.829796 0.000000
0.213659 0.828842 0.000000
0.256120 0.827888 0.000000
0.298581 0.826933 0.000000
0.341042 0.825979 0.000000
0.383503 0.825025 0.000000
0.425964 0.824071 0.000000
0.468425 0.823117 0.000000
0.510885 0.822163 0.000000
0.553346 0.821209 0.000000
0.595807 0.820255 0.000000
0.638268 0.819301 0.000000
0.680729 0.818346 0.000000
0.723190 0.817392 0.000000
0.765651 0.816438 0.000000
0.808112 0.815484 0.000000
0.850573 0.814530 0.000000
0.893034 0.813576 0.000000
0.935495 0.812622 0.000000
0.977956 0.811668 0.000000
1.000000 0.810713 0.000000
1.000000 0.809759 0.000000
1.000000 0.808805 0.000000
1.000000 0.808485 0.000000
1.000000 0.808485 0.000000
1.000000 0.808485 0.000000
0.016350 0.872353 0.000000
0.016350 0.872353 0.000000
0.016350 0.872029 0.000000
0.016350 0.871075 0.000000
0.040590 0.870121 0.000000
0.083051 0.869167 0.000000
0.125512 0.868213 0.000000
0.167973 0.867259 0.000000
0.210434 0.866305 0.000000
0.252895 0.865351 0.000000
0.295356 0.864396 0.000000
0.337817 0.863442 0.000000
0.380278 0.862488 0.000000
0.422738 0.861534 0.000000
0.465199 0.860580 0.000000
0.507660 0.859626 0.000000
0.550121 0.858672 0.000000
0.592582 0.857718 0.000000
0.635043 0.856764 0.000000
0.677504 0.855809 0.000000
0.719965 0.854855 0.000000
0.762426 0.853901 0.000000
0.804887 0.852947 0.000000
0.847348 0.851993 0.000000
0.889809 0.851039 0.000000
0.932270 0.850085 0.000000
0.974731 0.849131 0.000000
1.000000 0.848176 0.000000
1.000000 0.847222 0.000000
1.000000 0.846268 0.000000
1.000000 0.845948 0.000000
1.000000 0.845948 0.000000
1.000000 0.845948 0.000000
0.016350 0.909816 0.000000
0.016350 0.909816 0.000000
0.016350 0.909492 0.000000
0.016350 0.908538 0.000000
0.037365 0.907584 0.000000
0.079826 0.906630 0.000000
0.122287 0.905676 0.000000
0.164748 0.904722 0.000000
0.207209 0.903768 0.000000
0.249670 0.902814 0.000000
0.292131 0.901859 0.000000
0.334592 0.900905 0.000000
0.377052 0.899951 0.000000
0.419513 0.898997 0.000000
0.461974 0.898043 0.000000
0.504435 0.897089 0.000000
0.546896 0.896135 0.000000
0.589357 0.895181 0.000000
0.631818 0.894227 0.000000
0.674279 0.893272 0.000000
0.716740 0.892318 0.000000
0.759201 0.891364 0.000000
0.801662 0.890410 0.000000
0.844123 0.889456 0.000000
0.886584 0.888502 0.000000
0.929045 0.887548 0.000000
0.971506 0.886594 0.000000
1.000000 0.885640 0.000000
