plugin/runtime/presets/luts/natural/natural.cube
# akari-video catalog LUT: natural
LUT_3D_SIZE 33
0.000000 0.000000 0.000000
0.000000 0.000000 0.000000
0.030059 0.000000 0.000000
0.066663 0.000000 0.000000
0.103267 0.000000 0.000000
0.139871 0.000000 0.000000
0.176475 0.000000 0.000000
0.213079 0.000000 0.000000
0.249683 0.000000 0.000000
0.286287 0.000000 0.000000
0.322891 0.000000 0.000000
0.359495 0.000000 0.000000
0.396099 0.000000 0.000000
0.432703 0.000000 0.000000
0.469307 0.000000 0.000000
0.505912 0.000000 0.000000
0.542516 0.000000 0.000000
0.579120 0.000000 0.000000
0.615724 0.000000 0.000000
0.652328 0.000000 0.000000
0.688932 0.000000 0.000000
0.725536 0.000000 0.000000
0.762140 0.000000 0.000000
0.798744 0.000000 0.000000
0.835348 0.000000 0.000000
0.871952 0.000000 0.000000
0.908556 0.000000 0.000000
0.945160 0.000000 0.000000
0.981765 0.000000 0.000000
1.000000 0.000000 0.000000
1.000000 0.000000 0.000000
1.000000 0.000000 0.000000
1.000000 0.000000 0.000000
0.000000 0.000000 0.000000
0.000000 0.000000 0.000000
0.030059 0.000000 0.000000
0.066663 0.000000 0.000000
0.103267 0.000000 0.000000
0.139871 0.000000 0.000000
0.176475 0.000000 0.000000
0.213079 0.000000 0.000000
0.249683 0.000000 0.000000
0.286287 0.000000 0.000000
0.322891 0.000000 0.000000
0.359495 0.000000 0.000000
0.396099 0.000000 0.000000
0.432703 0.000000 0.000000
0.469307 0.000000 0.000000
0.505912 0.000000 0.000000
0.542516 0.000000 0.000000
0.579120 0.000000 0.000000
0.615724 0.000000 0.000000
0.652328 0.000000 0.000000
0.688932 0.000000 0.000000
0.725536 0.000000 0.000000
0.762140 0.000000 0.000000
0.798744 0.000000 0.000000
0.835348 0.000000 0.000000
0.871952 0.000000 0.000000
0.908556 0.000000 0.000000
0.945160 0.000000 0.000000
0.981765 0.000000 0.000000
1.000000 0.000000 0.000000
1.000000 0.000000 0.000000
1.000000 0.000000 0.000000
1.000000 0.000000 0.000000
0.000000 0.028283 0.000000
0.000000 0.028283 0.000000
0.028092 0.027691 0.000000
0.064696 0.026969 0.000000
0.101300 0.026248 0.000000
0.137904 0.025527 0.000000
0.174508 0.024805 0.000000
0.211112 0.024084 0.000000
0.247716 0.023362 0.000000
0.284320 0.022641 0.000000
0.320924 0.021920 0.000000
0.357528 0.021198 0.000000
0.394133 0.020477 0.000000
0.430737 0.019755 0.000000
0.467341 0.019034 0.000000
0.503945 0.018313 0.000000
0.540549 0.017591 0.000000
0.577153 0.016870 0.000000
0.613757 0.016148 0.000000
0.650361 0.015427 0.000000
0.686965 0.014706 0.000000
0.723569 0.013984 0.000000
0.760173 0.013263 0.000000
0.796777 0.012541 0.000000
0.833381 0.011820 0.000000
0.869985 0.011099 0.000000
0.906590 0.010377 0.000000
0.943194 0.009656 0.000000
0.979798 0.008934 0.000000
1.000000 0.008213 0.000000
1.000000 0.007492 0.000000
1.000000 0.007023 0.000000
1.000000 0.007023 0.000000
0.000000 0.062994 0.000000
0.000000 0.062994 0.000000
0.025678 0.062402 0.000000
0.062282 0.061681 0.000000
0.098886 0.060959 0.000000
0.135490 0.060238 0.000000
0.172094 0.059516 0.000000
0.208698 0.058795 0.000000
0.245302 0.058074 0.000000
0.281906 0.057352 0.000000
0.318511 0.056631 0.000000
0.355115 0.055909 0.000000
0.391719 0.055188 0.000000
0.428323 0.054467 0.000000
0.464927 0.053745 0.000000
0.501531 0.053024 0.000000
0.538135 0.052302 0.000000
0.574739 0.051581 0.000000
0.611343 0.050860 0.000000
0.647947 0.050138 0.000000
0.684551 0.049417 0.000000
0.721155 0.048695 0.000000
0.757759 0.047974 0.000000
0.794364 0.047253 0.000000
0.830968 0.046531 0.000000
0.867572 0.045810 0.000000
0.904176 0.045088 0.000000
0.940780 0.044367 0.000000
0.977384 0.043646 0.000000
1.000000 0.042924 0.000000
1.000000 0.042203 0.000000
1.000000 0.041734 0.000000
1.000000 0.041734 0.000000
0.000000 0.097706 0.000000
0.000000 0.097706 0.000000
0.023264 0.097113 0.000000
0.059868 0.096392 0.000000
0.096472 0.095670 0.000000
0.133076 0.094949 0.000000
0.169680 0.094228 0.000000
0.206285 0.093506 0.000000
0.242889 0.092785 0.000000
0.279493 0.092063 0.000000
0.316097 0.091342 0.000000
0.352701 0.090621 0.000000
0.389305 0.089899 0.000000
0.425909 0.089178 0.000000
0.462513 0.088456 0.000000
0.499117 0.087735 0.000000
0.535721 0.087014 0.000000
0.572325 0.086292 0.000000
0.608929 0.085571 0.000000
0.645533 0.084849 0.000000
0.682138 0.084128 0.000000
0.718742 0.083407 0.000000
0.755346 0.082685 0.000000
0.791950 0.081964 0.000000
0.828554 0.081242 0.000000
0.865158 0.080521 0.000000
0.901762 0.079800 0.000000
0.938366 0.079078 0.000000
0.974970 0.078357 0.000000
1.000000 0.077635 0.000000
1.000000 0.076914 0.000000
1.000000 0.076446 0.000000
1.000000 0.076446 0.000000
0.000000 0.132417 0.000000
0.000000 0.132417 0.000000
0.020850 0.131824 0.000000
0.057454 0.131103 0.000000
0.094059 0.130382 0.000000
0.130663 0.129660 0.000000
0.167267 0.128939 0.000000
0.203871 0.128217 0.000000
0.240475 0.127496 0.000000
0.277079 0.126775 0.000000
0.313683 0.126053 0.000000
0.350287 0.125332 0.000000
0.386891 0.124610 0.000000
0.423495 0.123889 0.000000
0.460099 0.123168 0.000000
0.496703 0.122446 0.000000
0.533307 0.121725 0.000000
0.569911 0.121003 0.000000
0.606516 0.120282 0.000000
0.643120 0.119561 0.000000
0.679724 0.118839 0.000000
0.716328 0.118118 0.000000
0.752932 0.117396 0.000000
0.789536 0.116675 0.000000
0.826140 0.115954 0.000000
0.862744 0.115232 0.000000
0.899348 0.114511 0.000000
0.935952 0.113789 0.000000
0.972556 0.113068 0.000000
1.000000 0.112347 0.000000
1.000000 0.111625 0.000000
1.000000 0.111157 0.000000
1.000000 0.111157 0.000000
0.000000 0.167128 0.000000
0.000000 0.167128 0.000000
0.018437 0.166536 0.000000
0.055041 0.165814 0.000000
0.091645 0.165093 0.000000
0.128249 0.164371 0.000000
0.164853 0.163650 0.000000
0.201457 0.162929 0.000000
0.238061 0.162207 0.000000
0.274665 0.161486 0.000000
0.311269 0.160764 0.000000
0.347873 0.160043 0.000000
0.384477 0.159322 0.000000
0.421081 0.158600 0.000000
0.457685 0.157879 0.000000
0.494290 0.157157 0.000000
0.530894 0.156436 0.000000
0.567498 0.155715 0.000000
0.604102 0.154993 0.000000
0.640706 0.154272 0.000000
0.677310 0.153550 0.000000
0.713914 0.152829 0.000000
0.750518 0.152108 0.000000
0.787122 0.151386 0.000000
0.823726 0.150665 0.000000
0.860330 0.149943 0.000000
0.896934 0.149222 0.000000
0.933538 0.148501 0.000000
0.970143 0.147779 0.000000
1.000000 0.147058 0.000000
1.000000 0.146336 0.000000
1.000000 0.145868 0.000000
1.000000 0.145868 0.000000
0.000000 0.201839 0.000000
0.000000 0.201839 0.000000
0.016023 0.201247 0.000000
0.052627 0.200525 0.000000
0.089231 0.199804 0.000000
0.125835 0.199083 0.000000
0.162439 0.198361 0.000000
0.199043 0.197640 0.000000
0.235647 0.196918 0.000000
0.272251 0.196197 0.000000
0.308855 0.195476 0.000000
0.345459 0.194754 0.000000
0.382064 0.194033 0.000000
0.418668 0.193311 0.000000
0.455272 0.192590 0.000000
0.491876 0.191869 0.000000
0.528480 0.191147 0.000000
0.565084 0.190426 0.000000
0.601688 0.189704 0.000000
0.638292 0.188983 0.000000
0.674896 0.188262 0.000000
0.711500 0.187540 0.000000
0.748104 0.186819 0.000000
0.784708 0.186097 0.000000
0.821312 0.185376 0.000000
0.857916 0.184655 0.000000
0.894521 0.183933 0.000000
0.931125 0.183212 0.000000
0.967729 0.182490 0.000000
1.000000 0.181769 0.000000
1.000000 0.181048 0.000000
1.000000 0.180579 0.000000
1.000000 0.180579 0.000000
0.000000 0.236550 0.000000
0.000000 0.236550 0.000000
0.013609 0.235958 0.000000
0.050213 0.235237 0.000000
0.086817 0.234515 0.000000
0.123421 0.233794 0.000000
0.160025 0.233072 0.000000
0.196629 0.232351 0.000000
0.233233 0.231630 0.000000
0.269837 0.230908 0.000000
0.306442 0.230187 0.000000
0.343046 0.229465 0.000000
0.379650 0.228744 0.000000
0.416254 0.228023 0.000000
0.452858 0.227301 0.000000
0.489462 0.226580 0.000000
0.526066 0.225858 0.000000
0.562670 0.225137 0.000000
0.599274 0.224416 0.000000
0.635878 0.223694 0.000000
0.672482 0.222973 0.000000
0.709086 0.222251 0.000000
0.745690 0.221530 0.000000
0.782295 0.220809 0.000000
0.818899 0.220087 0.000000
0.855503 0.219366 0.000000
0.892107 0.218644 0.000000
0.928711 0.217923 0.000000
0.965315 0.217202 0.000000
1.000000 0.216480 0.000000
1.000000 0.215759 0.000000
1.000000 0.215290 0.000000
1.000000 0.215290 0.000000
0.000000 0.271262 0.000000
0.000000 0.271262 0.000000
0.011195 0.270669 0.000000
0.047799 0.269948 0.000000
0.084403 0.269226 0.000000
0.121007 0.268505 0.000000
0.157611 0.267784 0.000000
0.194216 0.267062 0.000000
0.230820 0.266341 0.000000
0.267424 0.265619 0.000000
0.304028 0.264898 0.000000
0.340632 0.264177 0.000000
0.377236 0.263455 0.000000
0.413840 0.262734 0.000000
0.450444 0.262012 0.000000
0.487048 0.261291 0.000000
0.523652 0.260570 0.000000
0.560256 0.259848 0.000000
0.596860 0.259127 0.000000
0.633464 0.258405 0.000000
0.670069 0.257684 0.000000
0.706673 0.256963 0.000000
0.743277 0.256241 0.000000
0.779881 0.255520 0.000000
0.816485 0.254798 0.000000
0.853089 0.254077 0.000000
0.889693 0.253356 0.000000
0.926297 0.252634 0.000000
0.962901 0.251913 0.000000
0.999505 0.251191 0.000000
1.000000 0.250470 0.000000
1.000000 0.250002 0.000000
1.000000 0.250002 0.000000
0.000000 0.305973 0.000000
0.000000 0.305973 0.000000
0.008781 0.305380 0.000000
0.045385 0.304659 0.000000
0.081990 0.303938 0.000000
0.118594 0.303216 0.000000
0.155198 0.302495 0.000000
0.191802 0.301773 0.000000
0.228406 0.301052 0.000000
0.265010 0.300331 0.000000
0.301614 0.299609 0.000000
0.338218 0.298888 0.000000
0.374822 0.298166 0.000000
0.411426 0.297445 0.000000
0.448030 0.296724 0.000000
0.484634 0.296002 0.000000
0.521238 0.295281 0.000000
0.557842 0.294559 0.000000
0.594447 0.293838 0.000000
0.631051 0.293117 0.000000
0.667655 0.292395 0.000000
0.704259 0.291674 0.000000
0.740863 0.290952 0.000000
0.777467 0.290231 0.000000
0.814071 0.289510 0.000000
0.850675 0.288788 0.000000
0.887279 0.288067 0.000000
0.923883 0.287345 0.000000
0.960487 0.286624 0.000000
0.997091 0.285903 0.000000
1.000000 0.285181 0.000000
1.000000 0.284713 0.000000
1.000000 0.284713 0.000000
0.000000 0.340684 0.000000
0.000000 0.340684 0.000000
0.006368 0.340092 0.000000
0.042972 0.339370 0.000000
0.079576 0.338649 0.000000
0.116180 0.337927 0.000000
0.152784 0.337206 0.000000
0.189388 0.336485 0.000000
0.225992 0.335763 0.000000
0.262596 0.335042 0.000000
0.299200 0.334320 0.000000
0.335804 0.333599 0.000000
0.372408 0.332878 0.000000
0.409012 0.332156 0.000000
0.445616 0.331435 0.000000
0.482221 0.330713 0.000000
0.518825 0.329992 0.000000
0.555429 0.329271 0.000000
0.592033 0.328549 0.000000
0.628637 0.327828 0.000000
0.665241 0.327106 0.000000
0.701845 0.326385 0.000000
0.738449 0.325664 0.000000
0.775053 0.324942 0.000000
0.811657 0.324221 0.000000
0.848261 0.323499 0.000000
0.884865 0.322778 0.000000
0.921469 0.322057 0.000000
0.958074 0.321335 0.000000
0.994678 0.320614 0.000000
1.000000 0.319892 0.000000
1.000000 0.319424 0.000000
1.000000 0.319424 0.000000
0.000000 0.375395 0.000000
0.000000 0.375395 0.000000
0.003954 0.374803 0.000000
0.040558 0.374081 0.000000
0.077162 0.373360 0.000000
0.113766 0.372639 0.000000
0.150370 0.371917 0.000000
0.186974 0.371196 0.000000
0.223578 0.370474 0.000000
0.260182 0.369753 0.000000
0.296786 0.369032 0.000000
0.333390 0.368310 0.000000
0.369995 0.367589 0.000000
0.406599 0.366867 0.000000
0.443203 0.366146 0.000000
0.479807 0.365425 0.000000
0.516411 0.364703 0.000000
0.553015 0.363982 0.000000
0.589619 0.363260 0.000000
0.626223 0.362539 0.000000
0.662827 0.361818 0.000000
0.699431 0.361096 0.000000
0.736035 0.360375 0.000000
0.772639 0.359653 0.000000
0.809243 0.358932 0.000000
0.845847 0.358211 0.000000
0.882452 0.357489 0.000000
0.919056 0.356768 0.000000
0.955660 0.356046 0.000000
0.992264 0.355325 0.000000
1.000000 0.354604 0.000000
1.000000 0.354135 0.000000
1.000000 0.354135 0.000000
0.000000 0.410106 0.000000
0.000000 0.410106 0.000000
0.001540 0.409514 0.000000
0.038144 0.408793 0.000000
0.074748 0.408071 0.000000
0.111352 0.407350 0.000000
0.147956 0.406628 0.000000
0.184560 0.405907 0.000000
0.221164 0.405186 0.000000
0.257768 0.404464 0.000000
0.294373 0.403743 0.000000
0.330977 0.403021 0.000000
0.367581 0.402300 0.000000
0.404185 0.401579 0.000000
0.440789 0.400857 0.000000
0.477393 0.400136 0.000000
0.513997 0.399414 0.000000
0.550601 0.398693 0.000000
0.587205 0.397972 0.000000
0.623809 0.397250 0.000000
0.660413 0.396529 0.000000
0.697017 0.395807 0.000000
0.733621 0.395086 0.000000
0.770226 0.394365 0.000000
0.806830 0.393643 0.000000
0.843434 0.392922 0.000000
0.880038 0.392200 0.000000
0.916642 0.391479 0.000000
0.953246 0.390758 0.000000
0.989850 0.390036 0.000000
1.000000 0.389315 0.000000
1.000000 0.388846 0.000000
1.000000 0.388846 0.000000
0.000000 0.444818 0.000000
0.000000 0.444818 0.000000
0.000000 0.444225 0.000000
0.035730 0.443504 0.000000
0.072334 0.442782 0.000000
0.108938 0.442061 0.000000
0.145542 0.441340 0.000000
0.182147 0.440618 0.000000
0.218751 0.439897 0.000000
0.255355 0.439175 0.000000
0.291959 0.438454 0.000000
0.328563 0.437733 0.000000
0.365167 0.437011 0.000000
0.401771 0.436290 0.000000
0.438375 0.435568 0.000000
0.474979 0.434847 0.000000
0.511583 0.434126 0.000000
0.548187 0.433404 0.000000
0.584791 0.432683 0.000000
0.621395 0.431961 0.000000
0.658000 0.431240 0.000000
0.694604 0.430519 0.000000
0.731208 0.429797 0.000000
0.767812 0.429076 0.000000
0.804416 0.428354 0.000000
0.841020 0.427633 0.000000
0.877624 0.426912 0.000000
0.914228 0.426190 0.000000
0.950832 0.425469 0.000000
0.987436 0.424747 0.000000
1.000000 0.424026 0.000000
1.000000 0.423558 0.000000
1.000000 0.423558 0.000000
0.000000 0.479529 0.000000
0.000000 0.479529 0.000000
0.000000 0.478936 0.000000
0.033316 0.478215 0.000000
0.069921 0.477494 0.000000
0.106525 0.476772 0.000000
0.143129 0.476051 0.000000
0.179733 0.475329 0.000000
0.216337 0.474608 0.000000
0.252941 0.473887 0.000000
0.289545 0.473165 0.000000
0.326149 0.472444 0.000000
0.362753 0.471722 0.000000
0.399357 0.471001 0.000000
0.435961 0.470280 0.000000
0.472565 0.469558 0.000000
0.509169 0.468837 0.000000
0.545773 0.468115 0.000000
0.582378 0.467394 0.000000
0.618982 0.466673 0.000000
0.655586 0.465951 0.000000
0.692190 0.465230 0.000000
0.728794 0.464508 0.000000
0.765398 0.463787 0.000000
0.802002 0.463066 0.000000
0.838606 0.462344 0.000000
0.875210 0.461623 0.000000
0.911814 0.460901 0.000000
0.948418 0.460180 0.000000
0.985022 0.459459 0.000000
1.000000 0.458737 0.000000
1.000000 0.458269 0.000000
1.000000 0.458269 0.000000
0.000000 0.514240 0.000000
0.000000 0.514240 0.000000
0.000000 0.513648 0.000000
0.030903 0.512926 0.000000
0.067507 0.512205 0.000000
0.104111 0.511483 0.000000
0.140715 0.510762 0.000000
0.177319 0.510041 0.000000
0.213923 0.509319 0.000000
0.250527 0.508598 0.000000
0.287131 0.507876 0.000000
0.323735 0.507155 0.000000
0.360339 0.506434 0.000000
0.396943 0.505712 0.000000
0.433547 0.504991 0.000000
0.470152 0.504269 0.000000
0.506756 0.503548 0.000000
0.543360 0.502827 0.000000
0.579964 0.502105 0.000000
0.616568 0.501384 0.000000
0.653172 0.500662 0.000000
0.689776 0.499941 0.000000
0.726380 0.499220 0.000000
0.762984 0.498498 0.000000
0.799588 0.497777 0.000000
0.836192 0.497055 0.000000
0.872796 0.496334 0.000000
0.909400 0.495613 0.000000
0.946005 0.494891 0.000000
0.982609 0.494170 0.000000
1.000000 0.493448 0.000000
1.000000 0.492980 0.000000
1.000000 0.492980 0.000000
0.000000 0.548951 0.000000
0.000000 0.548951 0.000000
0.000000 0.548359 0.000000
0.028489 0.547637 0.000000
0.065093 0.546916 0.000000
0.101697 0.546195 0.000000
0.138301 0.545473 0.000000
0.174905 0.544752 0.000000
0.211509 0.544030 0.000000
0.248113 0.543309 0.000000
0.284717 0.542588 0.000000
0.321321 0.541866 0.000000
0.357926 0.541145 0.000000
0.394530 0.540423 0.000000
0.431134 0.539702 0.000000
0.467738 0.538981 0.000000
0.504342 0.538259 0.000000
0.540946 0.537538 0.000000
0.577550 0.536816 0.000000
0.614154 0.536095 0.000000
0.650758 0.535374 0.000000
0.687362 0.534652 0.000000
0.723966 0.533931 0.000000
0.760570 0.533209 0.000000
0.797174 0.532488 0.000000
0.833778 0.531767 0.000000
0.870383 0.531045 0.000000
0.906987 0.530324 0.000000
0.943591 0.529602 0.000000
0.980195 0.528881 0.000000
1.000000 0.528160 0.000000
1.000000 0.527691 0.000000
1.000000 0.527691 0.000000
0.000000 0.583662 0.000000
0.000000 0.583662 0.000000
0.000000 0.583070 0.000000
0.026075 0.582349 0.000000
0.062679 0.581627 0.000000
0.099283 0.580906 0.000000
0.135887 0.580184 0.000000
0.172491 0.579463 0.000000
0.209095 0.578742 0.000000
0.245699 0.578020 0.000000
0.282304 0.577299 0.000000
0.318908 0.576577 0.000000
0.355512 0.575856 0.000000
0.392116 0.575135 0.000000
0.428720 0.574413 0.000000
0.465324 0.573692 0.000000
0.501928 0.572970 0.000000
0.538532 0.572249 0.000000
0.575136 0.571528 0.000000
0.611740 0.570806 0.000000
0.648344 0.570085 0.000000
0.684948 0.569363 0.000000
0.721552 0.568642 0.000000
0.758157 0.567921 0.000000
0.794761 0.567199 0.000000
0.831365 0.566478 0.000000
0.867969 0.565756 0.000000
0.904573 0.565035 0.000000
0.941177 0.564314 0.000000
0.977781 0.563592 0.000000
1.000000 0.562871 0.000000
1.000000 0.562402 0.000000
1.000000 0.562402 0.000000
0.000000 0.618374 0.000000
0.000000 0.618374 0.000000
0.000000 0.617781 0.000000
0.023661 0.617060 0.000000
0.060265 0.616338 0.000000
0.096869 0.615617 0.000000
0.133473 0.614896 0.000000
0.170078 0.614174 0.000000
0.206682 0.613453 0.000000
0.243286 0.612731 0.000000
0.279890 0.612010 0.000000
0.316494 0.611289 0.000000
0.353098 0.610567 0.000000
0.389702 0.609846 0.000000
0.426306 0.609124 0.000000
0.462910 0.608403 0.000000
0.499514 0.607682 0.000000
0.536118 0.606960 0.000000
0.572722 0.606239 0.000000
0.609326 0.605517 0.000000
0.645931 0.604796 0.000000
0.682535 0.604075 0.000000
0.719139 0.603353 0.000000
0.755743 0.602632 0.000000
0.792347 0.601910 0.000000
0.828951 0.601189 0.000000
0.865555 0.600468 0.000000
0.902159 0.599746 0.000000
0.938763 0.599025 0.000000
0.975367 0.598303 0.000000
1.000000 0.597582 0.000000
1.000000 0.597114 0.000000
1.000000 0.597114 0.000000
0.000000 0.653085 0.000000
0.000000 0.653085 0.000000
0.000000 0.652492 0.000000
0.021247 0.651771 0.000000
0.057852 0.651050 0.000000
0.094456 0.650328 0.000000
0.131060 0.649607 0.000000
0.167664 0.648885 0.000000
0.204268 0.648164 0.000000
0.240872 0.647443 0.000000
0.277476 0.646721 0.000000
0.314080 0.646000 0.000000
0.350684 0.645278 0.000000
0.387288 0.644557 0.000000
0.423892 0.643836 0.000000
0.460496 0.643114 0.000000
0.497100 0.642393 0.000000
0.533704 0.641671 0.000000
0.570309 0.640950 0.000000
0.606913 0.640229 0.000000
0.643517 0.639507 0.000000
0.680121 0.638786 0.000000
0.716725 0.638064 0.000000
0.753329 0.637343 0.000000
0.789933 0.636622 0.000000
0.826537 0.635900 0.000000
0.863141 0.635179 0.000000
0.899745 0.634457 0.000000
0.936349 0.633736 0.000000
0.972953 0.633015 0.000000
1.000000 0.632293 0.000000
1.000000 0.631825 0.000000
1.000000 0.631825 0.000000
0.000000 0.687796 0.000000
0.000000 0.687796 0.000000
0.000000 0.687204 0.000000
0.018834 0.686482 0.000000
0.055438 0.685761 0.000000
0.092042 0.685039 0.000000
0.128646 0.684318 0.000000
0.165250 0.683597 0.000000
0.201854 0.682875 0.000000
0.238458 0.682154 0.000000
0.275062 0.681432 0.000000
0.311666 0.680711 0.000000
0.348270 0.679990 0.000000
0.384874 0.679268 0.000000
0.421478 0.678547 0.000000
0.458083 0.677825 0.000000
0.494687 0.677104 0.000000
0.531291 0.676383 0.000000
0.567895 0.675661 0.000000
0.604499 0.674940 0.000000
0.641103 0.674218 0.000000
0.677707 0.673497 0.000000
0.714311 0.672776 0.000000
0.750915 0.672054 0.000000
0.787519 0.671333 0.000000
0.824123 0.670611 0.000000
0.860727 0.669890 0.000000
0.897331 0.669169 0.000000
0.933936 0.668447 0.000000
0.970540 0.667726 0.000000
1.000000 0.667004 0.000000
1.000000 0.666536 0.000000
1.000000 0.666536 0.000000
0.000000 0.722507 0.000000
0.000000 0.722507 0.000000
0.000000 0.721915 0.000000
0.016420 0.721193 0.000000
0.053024 0.720472 0.000000
0.089628 0.719751 0.000000
0.126232 0.719029 0.000000
0.162836 0.718308 0.000000
0.199440 0.717586 0.000000
0.236044 0.716865 0.000000
0.272648 0.716144 0.000000
0.309252 0.715422 0.000000
0.345857 0.714701 0.000000
0.382461 0.713979 0.000000
0.419065 0.713258 0.000000
0.455669 0.712537 0.000000
0.492273 0.711815 0.000000
0.528877 0.711094 0.000000
0.565481 0.710372 0.000000
0.602085 0.709651 0.000000
0.638689 0.708930 0.000000
0.675293 0.708208 0.000000
0.711897 0.707487 0.000000
0.748501 0.706765 0.000000
0.785105 0.706044 0.000000
0.821709 0.705323 0.000000
0.858314 0.704601 0.000000
0.894918 0.703880 0.000000
0.931522 0.703158 0.000000
0.968126 0.702437 0.000000
1.000000 0.701716 0.000000
1.000000 0.701247 0.000000
1.000000 0.701247 0.000000
0.000000 0.757218 0.000000
0.000000 0.757218 0.000000
0.000000 0.756626 0.000000
0.014006 0.755905 0.000000
0.050610 0.755183 0.000000
0.087214 0.754462 0.000000
0.123818 0.753740 0.000000
0.160422 0.753019 0.000000
0.197026 0.752298 0.000000
0.233630 0.751576 0.000000
0.270235 0.750855 0.000000
0.306839 0.750133 0.000000
0.343443 0.749412 0.000000
0.380047 0.748691 0.000000
0.416651 0.747969 0.000000
0.453255 0.747248 0.000000
0.489859 0.746526 0.000000
0.526463 0.745805 0.000000
0.563067 0.745084 0.000000
0.599671 0.744362 0.000000
0.636275 0.743641 0.000000
0.672879 0.742919 0.000000
0.709483 0.742198 0.000000
0.746088 0.741477 0.000000
0.782692 0.740755 0.000000
0.819296 0.740034 0.000000
0.855900 0.739312 0.000000
0.892504 0.738591 0.000000
0.929108 0.737870 0.000000
0.965712 0.737148 0.000000
1.000000 0.736427 0.000000
1.000000 0.735958 0.000000
1.000000 0.735958 0.000000
0.000000 0.791930 0.000000
0.000000 0.791930 0.000000
0.000000 0.791337 0.000000
0.011592 0.790616 0.000000
0.048196 0.789894 0.000000
0.084800 0.789173 0.000000
0.121404 0.788452 0.000000
0.158009 0.787730 0.000000
0.194613 0.787009 0.000000
0.231217 0.786287 0.000000
0.267821 0.785566 0.000000
0.304425 0.784845 0.000000
0.341029 0.784123 0.000000
0.377633 0.783402 0.000000
0.414237 0.782680 0.000000
0.450841 0.781959 0.000000
0.487445 0.781238 0.000000
0.524049 0.780516 0.000000
0.560653 0.779795 0.000000
0.597257 0.779073 0.000000
0.633862 0.778352 0.000000
0.670466 0.777631 0.000000
0.707070 0.776909 0.000000
0.743674 0.776188 0.000000
0.780278 0.775466 0.000000
0.816882 0.774745 0.000000
0.853486 0.774024 0.000000
0.890090 0.773302 0.000000
0.926694 0.772581 0.000000
0.963298 0.771859 0.000000
0.999902 0.771138 0.000000
1.000000 0.770670 0.000000
1.000000 0.770670 0.000000
0.000000 0.826641 0.000000
0.000000 0.826641 0.000000
0.000000 0.826048 0.000000
0.009178 0.825327 0.000000
0.045783 0.824606 0.000000
0.082387 0.823884 0.000000
0.118991 0.823163 0.000000
0.155595 0.822441 0.000000
0.192199 0.821720 0.000000
0.228803 0.820999 0.000000
0.265407 0.820277 0.000000
0.302011 0.819556 0.000000
0.338615 0.818834 0.000000
0.375219 0.818113 0.000000
0.411823 0.817392 0.000000
0.448427 0.816670 0.000000
0.485031 0.815949 0.000000
0.521635 0.815227 0.000000
0.558240 0.814506 0.000000
0.594844 0.813785 0.000000
0.631448 0.813063 0.000000
0.668052 0.812342 0.000000
0.704656 0.811620 0.000000
0.741260 0.810899 0.000000
0.777864 0.810178 0.000000
0.814468 0.809456 0.000000
0.851072 0.808735 0.000000
0.887676 0.808013 0.000000
0.924280 0.807292 0.000000
0.960884 0.806571 0.000000
0.997488 0.805849 0.000000
1.000000 0.805381 0.000000
1.000000 0.805381 0.000000
0.000000 0.861352 0.000000
0.000000 0.861352 0.000000
0.000000 0.860760 0.000000
0.006765 0.860038 0.000000
0.043369 0.859317 0.000000
0.079973 0.858595 0.000000
0.116577 0.857874 0.000000
0.153181 0.857153 0.000000
0.189785 0.856431 0.000000
0.226389 0.855710 0.000000
0.262993 0.854988 0.000000
0.299597 0.854267 0.000000
0.336201 0.853546 0.000000
0.372805 0.852824 0.000000
0.409409 0.852103 0.000000
0.446014 0.851381 0.000000
0.482618 0.850660 0.000000
0.519222 0.849939 0.000000
0.555826 0.849217 0.000000
0.592430 0.848496 0.000000
0.629034 0.847774 0.000000
0.665638 0.847053 0.000000
0.702242 0.846332 0.000000
0.738846 0.845610 0.000000
0.775450 0.844889 0.000000
0.812054 0.844167 0.000000
0.848658 0.843446 0.000000
0.885262 0.842725 0.000000
0.921867 0.842003 0.000000
