plugin/runtime/presets/luts/natural/natural.cube
# akari-video catalog LUT: natural
LUT_3D_SIZE 9
0.000000 0.000000 0.000000
0.103267 0.000000 0.000000
0.249683 0.000000 0.000000
0.396099 0.000000 0.000000
0.542516 0.000000 0.000000
0.688932 0.000000 0.000000
0.835348 0.000000 0.000000
0.981765 0.000000 0.000000
1.000000 0.000000 0.000000
0.000000 0.097706 0.000000
0.096472 0.095670 0.000000
0.242889 0.092785 0.000000
0.389305 0.089899 0.000000
0.535721 0.087014 0.000000
0.682138 0.084128 0.000000
0.828554 0.081242 0.000000
0.974970 0.078357 0.000000
1.000000 0.076446 0.000000
0.000000 0.236550 0.000000
0.086817 0.234515 0.000000
0.233233 0.231630 0.000000
0.379650 0.228744 0.000000
0.526066 0.225858 0.000000
0.672482 0.222973 0.000000
0.818899 0.220087 0.000000
0.965315 0.217202 0.000000
1.000000 0.215290 0.000000
0.000000 0.375395 0.000000
0.077162 0.373360 0.000000
0.223578 0.370474 0.000000
0.369995 0.367589 0.000000
0.516411 0.364703 0.000000
0.662827 0.361818 0.000000
0.809243 0.358932 0.000000
0.955660 0.356046 0.000000
1.000000 0.354135 0.000000
0.000000 0.514240 0.000000
0.067507 0.512205 0.000000
0.213923 0.509319 0.000000
0.360339 0.506434 0.000000
0.506756 0.503548 0.000000
0.653172 0.500662 0.000000
0.799588 0.497777 0.000000
0.946005 0.494891 0.000000
1.000000 0.492980 0.000000
0.000000 0.653085 0.000000
0.057852 0.651050 0.000000
0.204268 0.648164 0.000000
0.350684 0.645278 0.000000
0.497100 0.642393 0.000000
0.643517 0.639507 0.000000
0.789933 0.636622 0.000000
0.936349 0.633736 0.000000
1.000000 0.631825 0.000000
0.000000 0.791930 0.000000
0.048196 0.789894 0.000000
0.194613 0.787009 0.000000
0.341029 0.784123 0.000000
0.487445 0.781238 0.000000
0.633862 0.778352 0.000000
0.780278 0.775466 0.000000
0.926694 0.772581 0.000000
1.000000 0.770670 0.000000
0.000000 0.930774 0.000000
0.038541 0.928739 0.000000
0.184957 0.925854 0.000000
0.331374 0.922968 0.000000
0.477790 0.920082 0.000000
0.624206 0.917197 0.000000
0.770623 0.914311 0.000000
0.917039 0.911426 0.000000
1.000000 0.909514 0.000000
0.000000 1.000000 0.000000
0.031747 1.000000 0.000000
0.178163 1.000000 0.000000
0.324579 1.000000 0.000000
0.470996 1.000000 0.000000
0.617412 1.000000 0.000000
0.763828 1.000000 0.000000
0.910245 1.000000 0.000000
1.000000 1.000000 0.000000
0.000000 0.000000 0.103017
0.102586 0.000000 0.100982
0.249002 0.000000 0.098097
0.395419 0.000000 0.095211
0.541835 0.000000 0.092325
0.688251 0.000000 0.089440
0.834668 0.000000 0.086554
0.981084 0.000000 0.083669
1.000000 0.000000 0.081757
0.000000 0.097025 0.096223
0.095792 0.094990 0.094188
0.242208 0.092104 0.091302
0.388624 0.089219 0.088417
0.535041 0.086333 0.085531
0.681457 0.083447 0.082645
0.827873 0.080562 0.079760
0.974289 0.077676 0.076874
1.000000 0.075765 0.074963
0.000000 0.235870 0.086568
0.086136 0.233835 0.084533
0.232553 0.230949 0.081647
0.378969 0.228063 0.078761
0.525385 0.225178 0.075876
0.671802 0.222292 0.072990
0.818218 0.219407 0.070105
0.964634 0.216521 0.067219
1.000000 0.214610 0.065308
0.000000 0.374715 0.076913
0.076481 0.372679 0.074877
0.222898 0.369794 0.071992
0.369314 0.366908 0.069106
0.515730 0.364023 0.066221
0.662146 0.361137 0.063335
0.808563 0.358251 0.060449
0.954979 0.355366 0.057564
1.000000 0.353455 0.055653
0.000000 0.513559 0.067257
0.066826 0.511524 0.065222
0.213242 0.508639 0.062337
0.359659 0.505753 0.059451
0.506075 0.502867 0.056565
0.652491 0.499982 0.053680
0.798908 0.497096 0.050794
0.945324 0.494211 0.047909
1.000000 0.492299 0.045997
0.000000 0.652404 0.057602
0.057171 0.650369 0.055567
0.203587 0.647483 0.052681
0.350003 0.644598 0.049796
0.496420 0.641712 0.046910
0.642836 0.638827 0.044025
0.789252 0.635941 0.041139
0.935669 0.633055 0.038253
1.000000 0.631144 0.036342
0.000000 0.791249 0.047947
0.047516 0.789214 0.045912
0.193932 0.786328 0.043026
0.340348 0.783443 0.040141
0.486765 0.780557 0.037255
0.633181 0.777671 0.034369
0.779597 0.774786 0.031484
0.926013 0.771900 0.028598
1.000000 0.769989 0.026687
0.000000 0.930094 0.038292
0.037860 0.928059 0.036257
0.184277 0.925173 0.033371
0.330693 0.922287 0.030485
0.477109 0.919402 0.027600
0.623526 0.916516 0.024714
0.769942 0.913631 0.021829
0.916358 0.910745 0.018943
1.000000 0.908834 0.017032
0.000000 1.000000 0.031497
0.031066 1.000000 0.029462
0.177482 1.000000 0.026577
0.323899 1.000000 0.023691
0.470315 1.000000 0.020805
0.616731 1.000000 0.017920
0.763148 1.000000 0.015034
0.909564 1.000000 0.012149
1.000000 1.000000 0.010237
0.000000 0.000000 0.249746
0.101617 0.000000 0.247711
0.248033 0.000000 0.244825
0.394449 0.000000 0.241940
0.540866 0.000000 0.239054
0.687282 0.000000 0.236169
0.833698 0.000000 0.233283
0.980114 0.000000 0.230397
1.000000 0.000000 0.228486
0.000000 0.096056 0.242952
0.094822 0.094020 0.240917
0.241239 0.091135 0.238031
0.387655 0.088249 0.235145
0.534071 0.085364 0.232260
0.680487 0.082478 0.229374
0.826904 0.079592 0.226489
0.973320 0.076707 0.223603
1.000000 0.074796 0.221692
0.000000 0.234900 0.233297
0.085167 0.232865 0.231261
0.231583 0.229980 0.228376
0.378000 0.227094 0.225490
0.524416 0.224208 0.222605
0.670832 0.221323 0.219719
0.817249 0.218437 0.216833
0.963665 0.215552 0.213948
1.000000 0.213640 0.212037
0.000000 0.373745 0.223641
0.075512 0.371710 0.221606
0.221928 0.368824 0.218721
0.368344 0.365939 0.215835
0.514761 0.363053 0.212949
0.661177 0.360168 0.210064
0.807593 0.357282 0.207178
0.954010 0.354396 0.204293
1.000000 0.352485 0.202381
0.000000 0.512590 0.213986
0.065857 0.510555 0.211951
0.212273 0.507669 0.209065
0.358689 0.504784 0.206180
0.505106 0.501898 0.203294
0.651522 0.499012 0.200409
0.797938 0.496127 0.197523
0.944354 0.493241 0.194637
1.000000 0.491330 0.192726
0.000000 0.651435 0.204331
0.056201 0.649400 0.202296
0.202618 0.646514 0.199410
0.349034 0.643628 0.196525
0.495450 0.640743 0.193639
0.641867 0.637857 0.190753
0.788283 0.634972 0.187868
0.934699 0.632086 0.184982
1.000000 0.630175 0.183071
0.000000 0.790280 0.194676
0.046546 0.788244 0.192641
0.192963 0.785359 0.189755
0.339379 0.782473 0.186869
0.485795 0.779588 0.183984
0.632211 0.776702 0.181098
0.778628 0.773816 0.178213
0.925044 0.770931 0.175327
1.000000 0.769020 0.173416
0.000000 0.929124 0.185021
0.036891 0.927089 0.182985
0.183307 0.924204 0.180100
0.329724 0.921318 0.177214
0.476140 0.918432 0.174329
0.622556 0.915547 0.171443
0.768973 0.912661 0.168557
0.915389 0.909776 0.165672
1.000000 0.907864 0.163761
0.000000 1.000000 0.178226
0.030097 1.000000 0.176191
0.176513 1.000000 0.173305
0.322929 1.000000 0.170420
0.469346 1.000000 0.167534
0.615762 1.000000 0.164649
0.762178 1.000000 0.161763
0.908594 1.000000 0.158877
1.000000 1.000000 0.156966
0.000000 0.000000 0.396475
0.100647 0.000000 0.394440
0.247063 0.000000 0.391554
0.393480 0.000000 0.388668
0.539896 0.000000 0.385783
0.686312 0.000000 0.382897
0.832729 0.000000 0.380012
0.979145 0.000000 0.377126
1.000000 0.000000 0.375215
0.000000 0.095086 0.389680
0.093853 0.093051 0.387645
0.240269 0.090165 0.384760
0.386685 0.087280 0.381874
0.533102 0.084394 0.378988
0.679518 0.081508 0.376103
0.825934 0.078623 0.373217
0.972351 0.075737 0.370332
1.000000 0.073826 0.368420
0.000000 0.233931 0.380025
0.084198 0.231896 0.377990
0.230614 0.229010 0.375104
0.377030 0.226124 0.372219
0.523446 0.223239 0.369333
0.669863 0.220353 0.366448
0.816279 0.217468 0.363562
0.962695 0.214582 0.360676
1.000000 0.212671 0.358765
0.000000 0.372776 0.370370
0.074542 0.370740 0.368335
0.220959 0.367855 0.365449
0.367375 0.364969 0.362564
0.513791 0.362084 0.359678
0.660208 0.359198 0.356792
0.806624 0.356312 0.353907
0.953040 0.353427 0.351021
1.000000 0.351516 0.349110
0.000000 0.511620 0.360715
0.064887 0.509585 0.358680
0.211303 0.506700 0.355794
0.357720 0.503814 0.352908
0.504136 0.500928 0.350023
0.650552 0.498043 0.347137
0.796969 0.495157 0.344252
0.943385 0.492272 0.341366
1.000000 0.490360 0.339455
0.000000 0.650465 0.351060
0.055232 0.648430 0.349024
0.201648 0.645544 0.346139
0.348065 0.642659 0.343253
0.494481 0.639773 0.340368
0.640897 0.636888 0.337482
0.787313 0.634002 0.334596
0.933730 0.631117 0.331711
1.000000 0.629205 0.329800
0.000000 0.789310 0.341404
0.045577 0.787275 0.339369
0.191993 0.784389 0.336484
0.338409 0.781504 0.333598
0.484826 0.778618 0.330712
0.631242 0.775732 0.327827
0.777658 0.772847 0.324941
0.924075 0.769961 0.322056
1.000000 0.768050 0.320144
0.000000 0.928155 0.331749
0.035922 0.926120 0.329714
0.182338 0.923234 0.326828
0.328754 0.920348 0.323943
0.475170 0.917463 0.321057
0.621587 0.914577 0.318172
0.768003 0.911692 0.315286
0.914419 0.908806 0.312400
1.000000 0.906895 0.310489
0.000000 1.000000 0.324955
0.029127 1.000000 0.322920
0.175543 1.000000 0.320034
0.321960 1.000000 0.317148
0.468376 1.000000 0.314263
0.614792 1.000000 0.311377
0.761209 1.000000 0.308492
0.907625 1.000000 0.305606
1.000000 1.000000 0.303695
0.000000 0.000000 0.543203
0.099678 0.000000 0.541168
0.246094 0.000000 0.538283
0.392510 0.000000 0.535397
0.538927 0.000000 0.532511
0.685343 0.000000 0.529626
0.831759 0.000000 0.526740
0.978176 0.000000 0.523855
1.000000 0.000000 0.521943
0.000000 0.094117 0.536409
0.092883 0.092081 0.534374
0.239300 0.089196 0.531488
0.385716 0.086310 0.528603
0.532132 0.083425 0.525717
0.678549 0.080539 0.522831
0.824965 0.077653 0.519946
0.971381 0.074768 0.517060
1.000000 0.072857 0.515149
0.000000 0.232961 0.526754
0.083228 0.230926 0.524719
0.229644 0.228041 0.521833
0.376061 0.225155 0.518947
0.522477 0.222269 0.516062
0.668893 0.219384 0.513176
0.815310 0.216498 0.510291
0.961726 0.213613 0.507405
1.000000 0.211701 0.505494
0.000000 0.371806 0.517099
0.073573 0.369771 0.515063
0.219989 0.366885 0.512178
0.366406 0.364000 0.509292
0.512822 0.361114 0.506407
0.659238 0.358229 0.503521
0.805654 0.355343 0.500635
0.952071 0.352457 0.497750
1.000000 0.350546 0.495839
0.000000 0.510651 0.507443
0.063918 0.508616 0.505408
0.210334 0.505730 0.502523
0.356750 0.502845 0.499637
0.503167 0.499959 0.496751
0.649583 0.497073 0.493866
0.795999 0.494188 0.490980
0.942416 0.491302 0.488095
1.000000 0.489391 0.486183
0.000000 0.649496 0.497788
0.054263 0.647461 0.495753
0.200679 0.644575 0.492867
0.347095 0.641689 0.489982
0.493511 0.638804 0.487096
0.639928 0.635918 0.484211
0.786344 0.633033 0.481325
0.932760 0.630147 0.478439
1.000000 0.628236 0.476528
0.000000 0.788341 0.488133
0.044607 0.786305 0.486098
0.191024 0.783420 0.483212
0.337440 0.780534 0.480327
0.483856 0.777649 0.477441
0.630273 0.774763 0.474555
0.776689 0.771877 0.471670
0.923105 0.768992 0.468784
1.000000 0.767081 0.466873
0.000000 0.927185 0.478478
0.034952 0.925150 0.476443
0.181368 0.922265 0.473557
0.327785 0.919379 0.470671
0.474201 0.916493 0.467786
0.620617 0.913608 0.464900
0.767034 0.910722 0.462015
0.913450 0.907837 0.459129
1.000000 0.905925 0.457218
0.000000 1.000000 0.471683
0.028158 1.000000 0.469648
0.174574 1.000000 0.466763
0.320990 1.000000 0.463877
0.467407 1.000000 0.460991
0.613823 1.000000 0.458106
0.760239 1.000000 0.455220
0.906656 1.000000 0.452335
1.000000 1.000000 0.450423
0.000000 0.000000 0.689932
0.098708 0.000000 0.687897
0.245125 0.000000 0.685011
0.391541 0.000000 0.682126
0.537957 0.000000 0.679240
0.684374 0.000000 0.676355
0.830790 0.000000 0.673469
0.977206 0.000000 0.670583
1.000000 0.000000 0.668672
0.000000 0.093147 0.683138
0.091914 0.091112 0.681103
0.238330 0.088226 0.678217
0.384747 0.085341 0.675331
0.531163 0.082455 0.672446
0.677579 0.079570 0.669560
0.823995 0.076684 0.666675
0.970412 0.073798 0.663789
1.000000 0.071887 0.661878
0.000000 0.231992 0.673483
0.082259 0.229957 0.671447
0.228675 0.227071 0.668562
0.375091 0.224186 0.665676
0.521508 0.221300 0.662791
0.667924 0.218414 0.659905
0.814340 0.215529 0.657019
0.960757 0.212643 0.654134
1.000000 0.210732 0.652223
0.000000 0.370837 0.663827
0.072604 0.368802 0.661792
0.219020 0.365916 0.658907
0.365436 0.363030 0.656021
0.511852 0.360145 0.653135
0.658269 0.357259 0.650250
0.804685 0.354374 0.647364
0.951101 0.351488 0.644479
1.000000 0.349577 0.642567
0.000000 0.509682 0.654172
0.062948 0.507646 0.652137
0.209365 0.504761 0.649251
0.355781 0.501875 0.646366
0.502197 0.498990 0.643480
0.648614 0.496104 0.640595
0.795030 0.493218 0.637709
0.941446 0.490333 0.634823
1.000000 0.488422 0.632912
0.000000 0.648526 0.644517
0.053293 0.646491 0.642482
0.199709 0.643606 0.639596
0.346126 0.640720 0.636711
0.492542 0.637834 0.633825
0.638958 0.634949 0.630939
0.785375 0.632063 0.628054
0.931791 0.629178 0.625168
1.000000 0.627266 0.623257
0.000000 0.787371 0.634862
0.043638 0.785336 0.632827
0.190054 0.782450 0.629941
0.336471 0.779565 0.627055
0.482887 0.776679 0.624170
0.629303 0.773794 0.621284
0.775719 0.770908 0.618399
0.922136 0.768022 0.615513
1.000000 0.766111 0.613602
0.000000 0.926216 0.625207
0.033983 0.924181 0.623171
0.180399 0.921295 0.620286
0.326815 0.918410 0.617400
0.473232 0.915524 0.614515
0.619648 0.912638 0.611629
0.766064 0.909753 0.608743
0.912481 0.906867 0.605858
1.000000 0.904956 0.603947
0.000000 1.000000 0.618412
0.027188 1.000000 0.616377
0.173605 1.000000 0.613491
0.320021 1.000000 0.610606
0.466437 1.000000 0.607720
0.612854 1.000000 0.604835
0.759270 1.000000 0.601949
0.905686 1.000000 0.599063
1.000000 1.000000 0.597152
0.000000 0.000000 0.836661
0.097739 0.000000 0.834626
0.244155 0.000000 0.831740
0.390571 0.000000 0.828854
0.536988 0.000000 0.825969
0.683404 0.000000 0.823083
0.829820 0.000000 0.820198
0.976237 0.000000 0.817312
1.000000 0.000000 0.815401
0.000000 0.092178 0.829866
0.090944 0.090143 0.827831
0.237361 0.087257 0.824946
0.383777 0.084371 0.822060
0.530193 0.081486 0.819174
0.676610 0.078600 0.816289
0.823026 0.075715 0.813403
0.969442 0.072829 0.810518
1.000000 0.070918 0.808606
0.000000 0.231023 0.820211
0.081289 0.228987 0.818176
0.227706 0.226102 0.815290
0.374122 0.223216 0.812405
0.520538 0.220331 0.809519
0.666954 0.217445 0.806634
0.813371 0.214559 0.803748
0.959787 0.211674 0.800862
1.000000 0.209763 0.798951
0.000000 0.369867 0.810556
0.071634 0.367832 0.808521
0.218050 0.364947 0.805635
0.364467 0.362061 0.802750
0.510883 0.359175 0.799864
0.657299 0.356290 0.796978
0.803716 0.353404 0.794093
0.950132 0.350519 0.791207
1.000000 0.348607 0.789296
0.000000 0.508712 0.800901
0.061979 0.506677 0.798866
0.208395 0.503791 0.795980
0.354811 0.500906 0.793094
0.501228 0.498020 0.790209
0.647644 0.495135 0.787323
0.794060 0.492249 0.784438
0.940477 0.489363 0.781552
1.000000 0.487452 0.779641
0.000000 0.647557 0.791246
0.052324 0.645522 0.789210
0.198740 0.642636 0.786325
0.345156 0.639751 0.783439
0.491573 0.636865 0.780554
0.637989 0.633979 0.777668
0.784405 0.631094 0.774782
0.930821 0.628208 0.771897
1.000000 0.626297 0.769986
0.000000 0.786402 0.781590
0.042668 0.784367 0.779555
0.189085 0.781481 0.776670
0.335501 0.778595 0.773784
0.481917 0.775710 0.770898
0.628334 0.772824 0.768013
0.774750 0.769939 0.765127
0.921166 0.767053 0.762242
1.000000 0.765142 0.760330
0.000000 0.925247 0.771935
0.033013 0.923211 0.769900
0.179430 0.920326 0.767014
0.325846 0.917440 0.764129
0.472262 0.914555 0.761243
0.618678 0.911669 0.758358
0.765095 0.908783 0.755472
0.911511 0.905898 0.752586
1.000000 0.903987 0.750675
0.000000 1.000000 0.765141
0.026219 1.000000 0.763106
0.172635 1.000000 0.760220
0.319051 1.000000 0.757334
0.465468 1.000000 0.754449
0.611884 1.000000 0.751563
0.758300 1.000000 0.748678
0.904717 1.000000 0.745792
1.000000 1.000000 0.743881
0.000000 0.000000 0.983389
0.096769 0.000000 0.981354
0.243186 0.000000 0.978469
0.389602 0.000000 0.975583
0.536018 0.000000 0.972697
0.682435 0.000000 0.969812
0.828851 0.000000 0.966926
0.975267 0.000000 0.964041
1.000000 0.000000 0.962129
0.000000 0.091208 0.976595
0.089975 0.089173 0.974560
0.236391 0.086288 0.971674
0.382808 0.083402 0.968789
0.529224 0.080516 0.965903
0.675640 0.077631 0.963017
0.822057 0.074745 0.960132
0.968473 0.071860 0.957246
1.000000 0.069948 0.955335
0.000000 0.230053 0.966940
0.080320 0.228018 0.964905
0.226736 0.225132 0.962019
0.373152 0.222247 0.959133
0.519569 0.219361 0.956248
0.665985 0.216476 0.953362
0.812401 0.213590 0.950477
0.958818 0.210704 0.947591
1.000000 0.208793 0.945680
0.000000 0.368898 0.957285
0.070665 0.366863 0.955249
0.217081 0.363977 0.952364
0.363497 0.361092 0.949478
0.509914 0.358206 0.946593
0.656330 0.355320 0.943707
0.802746 0.352435 0.940821
0.949162 0.349549 0.937936
1.000000 0.347638 0.936025
0.000000 0.507743 0.947629
0.061009 0.505708 0.945594
0.207426 0.502822 0.942709
0.353842 0.499936 0.939823
0.500258 0.497051 0.936937
0.646675 0.494165 0.934052
0.793091 0.491280 0.931166
0.939507 0.488394 0.928281
1.000000 0.486483 0.926369
0.000000 0.646588 0.937974
0.051354 0.644552 0.935939
0.197771 0.641667 0.933053
0.344187 0.638781 0.930168
0.490603 0.635896 0.927282
0.637019 0.633010 0.924397
0.783436 0.630124 0.921511
0.929852 0.627239 0.918625
1.000000 0.625328 0.916714
0.000000 0.785432 0.928319
0.041699 0.783397 0.926284
0.188115 0.780512 0.923398
0.334532 0.777626 0.920513
0.480948 0.774740 0.917627
0.627364 0.771855 0.914741
0.773781 0.768969 0.911856
0.920197 0.766084 0.908970
1.000000 0.764172 0.907059
0.000000 0.924277 0.918664
0.032044 0.922242 0.916629
0.178460 0.919356 0.913743
0.324876 0.916471 0.910857
0.471293 0.913585 0.907972
0.617709 0.910700 0.905086
0.764125 0.907814 0.902201
0.910542 0.904928 0.899315
1.000000 0.903017 0.897404
0.000000 1.000000 0.911869
0.025249 1.000000 0.909834
0.171666 1.000000 0.906949
0.318082 1.000000 0.904063
0.464498 1.000000 0.901177
0.610915 1.000000 0.898292
0.757331 1.000000 0.895406
0.903747 1.000000 0.892521
1.000000 1.000000 0.890609
0.000000 0.000000 1.000000
0.096047 0.000000 1.000000
0.242463 0.000000 1.000000
0.388879 0.000000 1.000000
0.535296 0.000000 1.000000
0.681712 0.000000 1.000000
0.828128 0.000000 1.000000
0.974545 0.000000 1.000000
1.000000 0.000000 1.000000
0.000000 0.090486 1.000000
0.089252 0.088450 1.000000
0.235669 0.085565 1.000000
0.382085 0.082679 1.000000
0.528501 0.079794 1.000000
0.674918 0.076908 1.000000
0.821334 0.074022 1.000000
0.967750 0.071137 1.000000
1.000000 0.069226 1.000000
0.000000 0.229330 1.000000
0.079597 0.227295 1.000000
0.226013 0.224410 1.000000
0.372430 0.221524 1.000000
0.518846 0.218638 1.000000
0.665262 0.215753 1.000000
0.811679 0.212867 1.000000
0.958095 0.209982 1.000000
1.000000 0.208070 1.000000
0.000000 0.368175 1.000000
0.069942 0.366140 1.000000
0.216358 0.363254 1.000000
0.362775 0.360369 1.000000
0.509191 0.357483 1.000000
0.655607 0.354598 1.000000
0.802023 0.351712 1.000000
0.948440 0.348826 1.000000
1.000000 0.346915 1.000000
0.000000 0.507020 1.000000
0.060287 0.504985 1.000000
0.206703 0.502099 1.000000
0.353119 0.499214 1.000000
0.499536 0.496328 1.000000
0.645952 0.493442 1.000000
0.792368 0.490557 1.000000
0.938785 0.487671 1.000000
1.000000 0.485760 1.000000
0.000000 0.645865 1.000000
0.050632 0.643830 1.000000
0.197048 0.640944 1.000000
0.343464 0.638058 1.000000
0.489880 0.635173 1.000000
0.636297 0.632287 1.000000
0.782713 0.629402 1.000000
0.929129 0.626516 1.000000
1.000000 0.624605 1.000000
0.000000 0.784710 1.000000
0.040976 0.782674 1.000000
0.187393 0.779789 1.000000
0.333809 0.776903 1.000000
0.480225 0.774018 1.000000
0.626642 0.771132 1.000000
0.773058 0.768246 1.000000
0.919474 0.765361 1.000000
1.000000 0.763450 1.000000
0.000000 0.923554 1.000000
0.031321 0.921519 1.000000
0.177737 0.918634 1.000000
0.324154 0.915748 1.000000
0.470570 0.912862 1.000000
0.616986 0.909977 1.000000
0.763403 0.907091 1.000000
0.909819 0.904206 1.000000
1.000000 0.902294 1.000000
0.000000 1.000000 1.000000
0.024527 1.000000 1.000000
0.170943 1.000000 1.000000
0.317359 1.000000 1.000000
0.463776 1.000000 1.000000
0.610192 1.000000 1.000000
0.756608 1.000000 1.000000
0.903025 1.000000 1.000000
1.000000 1.000000 1.000000
