plugin/runtime/presets/luts/natural/natural.cube
# akari-video catalog LUT: natural
LUT_3D_SIZE 5
0.000000 0.000000 0.000000
0.249683 0.000000 0.000000
0.542516 0.000000 0.000000
0.835348 0.000000 0.000000
1.000000 0.000000 0.000000
0.000000 0.236550 0.000000
0.233233 0.231630 0.000000
0.526066 0.225858 0.000000
0.818899 0.220087 0.000000
1.000000 0.215290 0.000000
0.000000 0.514240 0.000000
0.213923 0.509319 0.000000
0.506756 0.503548 0.000000
0.799588 0.497777 0.000000
1.000000 0.492980 0.000000
0.000000 0.791930 0.000000
0.194613 0.787009 0.000000
0.487445 0.781238 0.000000
0.780278 0.775466 0.000000
1.000000 0.770670 0.000000
0.000000 1.000000 0.000000
0.178163 1.000000 0.000000
0.470996 1.000000 0.000000
0.763828 1.000000 0.000000
1.000000 1.000000 0.000000
0.000000 0.000000 0.249746
0.248033 0.000000 0.244825
0.540866 0.000000 0.239054
0.833698 0.000000 0.233283
1.000000 0.000000 0.228486
0.000000 0.234900 0.233297
0.231583 0.229980 0.228376
0.524416 0.224208 0.222605
0.817249 0.218437 0.216833
1.000000 0.213640 0.212037
0.000000 0.512590 0.213986
0.212273 0.507669 0.209065
0.505106 0.501898 0.203294
0.797938 0.496127 0.197523
1.000000 0.491330 0.192726
0.000000 0.790280 0.194676
0.192963 0.785359 0.189755
0.485795 0.779588 0.183984
0.778628 0.773816 0.178213
1.000000 0.769020 0.173416
0.000000 1.000000 0.178226
0.176513 1.000000 0.173305
0.469346 1.000000 0.167534
0.762178 1.000000 0.161763
1.000000 1.000000 0.156966
0.000000 0.000000 0.543203
0.246094 0.000000 0.538283
0.538927 0.000000 0.532511
0.831759 0.000000 0.526740
1.000000 0.000000 0.521943
0.000000 0.232961 0.526754
0.229644 0.228041 0.521833
0.522477 0.222269 0.516062
0.815310 0.216498 0.510291
1.000000 0.211701 0.505494
0.000000 0.510651 0.507443
0.210334 0.505730 0.502523
0.503167 0.499959 0.496751
0.795999 0.494188 0.490980
1.000000 0.489391 0.486183
0.000000 0.788341 0.488133
0.191024 0.783420 0.483212
0.483856 0.777649 0.477441
0.776689 0.771877 0.471670
1.000000 0.767081 0.466873
0.000000 1.000000 0.471683
0.174574 1.000000 0.466763
0.467407 1.000000 0.460991
0.760239 1.000000 0.455220
1.000000 1.000000 0.450423
0.000000 0.000000 0.836661
0.244155 0.000000 0.831740
0.536988 0.000000 0.825969
0.829820 0.000000 0.820198
1.000000 0.000000 0.815401
0.000000 0.231023 0.820211
0.227706 0.226102 0.815290
0.520538 0.220331 0.809519
0.813371 0.214559 0.803748
1.000000 0.209763 0.798951
0.000000 0.508712 0.800901
0.208395 0.503791 0.795980
0.501228 0.498020 0.790209
0.794060 0.492249 0.784438
1.000000 0.487452 0.779641
0.000000 0.786402 0.781590
0.189085 0.781481 0.776670
0.481917 0.775710 0.770898
0.774750 0.769939 0.765127
1.000000 0.765142 0.760330
0.000000 1.000000 0.765141
0.172635 1.000000 0.760220
0.465468 1.000000 0.754449
0.758300 1.000000 0.748678
1.000000 1.000000 0.743881
0.000000 0.000000 1.000000
0.242463 0.000000 1.000000
0.535296 0.000000 1.000000
0.828128 0.000000 1.000000
1.000000 0.000000 1.000000
0.000000 0.229330 1.000000
0.226013 0.224410 1.000000
0.518846 0.218638 1.000000
0.811679 0.212867 1.000000
1.000000 0.208070 1.000000
0.000000 0.507020 1.000000
0.206703 0.502099 1.000000
0.499536 0.496328 1.000000
0.792368 0.490557 1.000000
1.000000 0.485760 1.000000
0.000000 0.784710 1.000000
0.187393 0.779789 1.000000
0.480225 0.774018 1.000000
0.773058 0.768246 1.000000
1.000000 0.763450 1.000000
0.000000 1.000000 1.000000
0.170943 1.000000 1.000000
0.463776 1.000000 1.000000
0.756608 1.000000 1.000000
1.000000 1.000000 1.000000
