presets/luts/forest-soft/forest-soft.cube
# akari-video catalog LUT: forest-soft
LUT_3D_SIZE 33
0.019800 0.035394 0.020000
0.048720 0.035586 0.020191
0.077640 0.035777 0.020382
0.106560 0.035969 0.020572
0.135481 0.036161 0.020763
0.164401 0.036353 0.020954
0.193321 0.036544 0.021145
0.222241 0.036736 0.021336
0.251161 0.036928 0.021527
0.280081 0.037119 0.021717
0.309001 0.037311 0.021908
0.337921 0.037503 0.022099
0.366842 0.037695 0.022290
0.395762 0.037886 0.022481
0.424682 0.038078 0.022672
0.453602 0.038270 0.022862
0.482522 0.038462 0.023053
0.511442 0.038653 0.023244
0.540362 0.038845 0.023435
0.569282 0.039037 0.023626
0.598203 0.039228 0.023816
0.627123 0.039420 0.024007
0.656043 0.039612 0.024198
0.684963 0.039804 0.024389
0.713883 0.039995 0.024580
0.742803 0.040187 0.024771
0.771723 0.040379 0.024961
0.800644 0.040570 0.025152
0.829564 0.040762 0.025343
0.858484 0.040954 0.025534
0.887404 0.041146 0.025725
0.916324 0.041337 0.025916
0.945244 0.041529 0.026106
0.020445 0.065636 0.020651
0.049365 0.065828 0.020842
0.078285 0.066020 0.021033
0.107205 0.066211 0.021224
0.136125 0.066403 0.021415
0.165046 0.066595 0.021606
0.193966 0.066786 0.021796
0.222886 0.066978 0.021987
0.251806 0.067170 0.022178
0.280726 0.067362 0.022369
0.309646 0.067553 0.022560
0.338566 0.067745 0.022750
0.367486 0.067937 0.022941
0.396407 0.068128 0.023132
0.425327 0.068320 0.023323
0.454247 0.068512 0.023514
0.483167 0.068704 0.023705
0.512087 0.068895 0.023895
0.541007 0.069087 0.024086
0.569927 0.069279 0.024277
0.598848 0.069470 0.024468
0.627768 0.069662 0.024659
0.656688 0.069854 0.024850
0.685608 0.070046 0.025040
0.714528 0.070237 0.025231
0.743448 0.070429 0.025422
0.772368 0.070621 0.025613
0.801288 0.070813 0.025804
0.830209 0.071004 0.025994
0.859129 0.071196 0.026185
0.888049 0.071388 0.026376
0.916969 0.071579 0.026567
0.945889 0.071771 0.026758
0.021090 0.095878 0.021303
0.050010 0.096070 0.021494
0.078930 0.096262 0.021684
0.107850 0.096453 0.021875
0.136770 0.096645 0.022066
0.165690 0.096837 0.022257
0.194611 0.097028 0.022448
0.223531 0.097220 0.022639
0.252451 0.097412 0.022829
0.281371 0.097604 0.023020
0.310291 0.097795 0.023211
0.339211 0.097987 0.023402
0.368131 0.098179 0.023593
0.397051 0.098371 0.023784
0.425972 0.098562 0.023974
0.454892 0.098754 0.024165
0.483812 0.098946 0.024356
0.512732 0.099137 0.024547
0.541652 0.099329 0.024738
0.570572 0.099521 0.024928
0.599492 0.099713 0.025119
0.628413 0.099904 0.025310
0.657333 0.100096 0.025501
0.686253 0.100288 0.025692
0.715173 0.100479 0.025883
0.744093 0.100671 0.026073
0.773013 0.100863 0.026264
0.801933 0.101055 0.026455
0.830853 0.101246 0.026646
0.859774 0.101438 0.026837
0.888694 0.101630 0.027028
0.917614 0.101821 0.027218
0.946534 0.102013 0.027409
0.021735 0.126120 0.021954
0.050655 0.126312 0.022145
0.079575 0.126504 0.022336
0.108495 0.126695 0.022527
0.137415 0.126887 0.022718
0.166335 0.127079 0.022908
0.195255 0.127271 0.023099
0.224176 0.127462 0.023290
0.253096 0.127654 0.023481
0.282016 0.127846 0.023672
0.310936 0.128037 0.023862
0.339856 0.128229 0.024053
0.368776 0.128421 0.024244
0.397696 0.128613 0.024435
0.426617 0.128804 0.024626
0.455537 0.128996 0.024817
0.484457 0.129188 0.025007
0.513377 0.129379 0.025198
0.542297 0.129571 0.025389
0.571217 0.129763 0.025580
0.600137 0.129955 0.025771
0.629057 0.130146 0.025962
0.657978 0.130338 0.026152
0.686898 0.130530 0.026343
0.715818 0.130722 0.026534
0.744738 0.130913 0.026725
0.773658 0.131105 0.026916
0.802578 0.131297 0.027106
0.831498 0.131488 0.027297
0.860418 0.131680 0.027488
0.889339 0.131872 0.027679
0.918259 0.132064 0.027870
0.947179 0.132255 0.028061
0.022380 0.156362 0.022606
0.051300 0.156554 0.022796
0.080220 0.156746 0.022987
0.109140 0.156937 0.023178
0.138060 0.157129 0.023369
0.166980 0.157321 0.023560
0.195900 0.157513 0.023751
0.224820 0.157704 0.023941
0.253741 0.157896 0.024132
0.282661 0.158088 0.024323
0.311581 0.158280 0.024514
0.340501 0.158471 0.024705
0.369421 0.158663 0.024895
0.398341 0.158855 0.025086
0.427261 0.159046 0.025277
0.456182 0.159238 0.025468
0.485102 0.159430 0.025659
0.514022 0.159622 0.025850
0.542942 0.159813 0.026040
0.571862 0.160005 0.026231
0.600782 0.160197 0.026422
0.629702 0.160388 0.026613
0.658622 0.160580 0.026804
0.687543 0.160772 0.026995
0.716463 0.160964 0.027185
0.745383 0.161155 0.027376
0.774303 0.161347 0.027567
0.803223 0.161539 0.027758
0.832143 0.161730 0.027949
0.861063 0.161922 0.028139
0.889983 0.162114 0.028330
0.918904 0.162306 0.028521
0.947824 0.162497 0.028712
0.023024 0.186604 0.023257
0.051945 0.186796 0.023448
0.080865 0.186988 0.023639
0.109785 0.187180 0.023829
0.138705 0.187371 0.024020
0.167625 0.187563 0.024211
0.196545 0.187755 0.024402
0.225465 0.187946 0.024593
0.254385 0.188138 0.024784
0.283306 0.188330 0.024974
0.312226 0.188522 0.025165
0.341146 0.188713 0.025356
0.370066 0.188905 0.025547
0.398986 0.189097 0.025738
0.427906 0.189288 0.025929
0.456826 0.189480 0.026119
0.485747 0.189672 0.026310
0.514667 0.189864 0.026501
0.543587 0.190055 0.026692
0.572507 0.190247 0.026883
0.601427 0.190439 0.027073
0.630347 0.190631 0.027264
0.659267 0.190822 0.027455
0.688187 0.191014 0.027646
0.717108 0.191206 0.027837
0.746028 0.191397 0.028028
0.774948 0.191589 0.028218
0.803868 0.191781 0.028409
0.832788 0.191973 0.028600
0.861708 0.192164 0.028791
0.890628 0.192356 0.028982
0.919549 0.192548 0.029173
0.948469 0.192739 0.029363
0.023669 0.216846 0.023908
0.052589 0.217038 0.024099
0.081510 0.217230 0.024290
0.110430 0.217422 0.024481
0.139350 0.217613 0.024672
0.168270 0.217805 0.024863
0.197190 0.217997 0.025053
0.226110 0.218189 0.025244
0.255030 0.218380 0.025435
0.283951 0.218572 0.025626
0.312871 0.218764 0.025817
0.341791 0.218955 0.026007
0.370711 0.219147 0.026198
0.399631 0.219339 0.026389
0.428551 0.219531 0.026580
0.457471 0.219722 0.026771
0.486391 0.219914 0.026962
0.515312 0.220106 0.027152
0.544232 0.220297 0.027343
0.573152 0.220489 0.027534
0.602072 0.220681 0.027725
0.630992 0.220873 0.027916
0.659912 0.221064 0.028107
0.688832 0.221256 0.028297
0.717752 0.221448 0.028488
0.746673 0.221639 0.028679
0.775593 0.221831 0.028870
0.804513 0.222023 0.029061
0.833433 0.222215 0.029251
0.862353 0.222406 0.029442
0.891273 0.222598 0.029633
0.920193 0.222790 0.029824
0.949114 0.222982 0.030015
0.024314 0.247089 0.024560
0.053234 0.247280 0.024751
0.082154 0.247472 0.024941
0.111075 0.247664 0.025132
0.139995 0.247855 0.025323
0.168915 0.248047 0.025514
0.197835 0.248239 0.025705
0.226755 0.248431 0.025896
0.255675 0.248622 0.026086
0.284595 0.248814 0.026277
0.313516 0.249006 0.026468
0.342436 0.249197 0.026659
0.371356 0.249389 0.026850
0.400276 0.249581 0.027041
0.429196 0.249773 0.027231
0.458116 0.249964 0.027422
0.487036 0.250156 0.027613
0.515956 0.250348 0.027804
0.544877 0.250540 0.027995
0.573797 0.250731 0.028185
0.602717 0.250923 0.028376
0.631637 0.251115 0.028567
0.660557 0.251306 0.028758
0.689477 0.251498 0.028949
0.718397 0.251690 0.029140
0.747318 0.251882 0.029330
0.776238 0.252073 0.029521
0.805158 0.252265 0.029712
0.834078 0.252457 0.029903
0.862998 0.252648 0.030094
0.891918 0.252840 0.030285
0.920838 0.253032 0.030475
0.949758 0.253224 0.030666
0.024959 0.277331 0.025211
0.053879 0.277522 0.025402
0.082799 0.277714 0.025593
0.111720 0.277906 0.025784
0.140640 0.278097 0.025975
0.169560 0.278289 0.026165
0.198480 0.278481 0.026356
0.227400 0.278673 0.026547
0.256320 0.278864 0.026738
0.285240 0.279056 0.026929
0.314160 0.279248 0.027119
0.343081 0.279440 0.027310
0.372001 0.279631 0.027501
0.400921 0.279823 0.027692
0.429841 0.280015 0.027883
0.458761 0.280206 0.028074
0.487681 0.280398 0.028264
0.516601 0.280590 0.028455
0.545521 0.280782 0.028646
0.574442 0.280973 0.028837
0.603362 0.281165 0.029028
0.632282 0.281357 0.029219
0.661202 0.281548 0.029409
0.690122 0.281740 0.029600
0.719042 0.281932 0.029791
0.747962 0.282124 0.029982
0.776883 0.282315 0.030173
0.805803 0.282507 0.030363
0.834723 0.282699 0.030554
0.863643 0.282891 0.030745
0.892563 0.283082 0.030936
0.921483 0.283274 0.031127
0.950403 0.283466 0.031318
0.025604 0.307573 0.025863
0.054524 0.307764 0.026053
0.083444 0.307956 0.026244
0.112364 0.308148 0.026435
0.141285 0.308340 0.026626
0.170205 0.308531 0.026817
0.199125 0.308723 0.027008
0.228045 0.308915 0.027198
0.256965 0.309106 0.027389
0.285885 0.309298 0.027580
0.314805 0.309490 0.027771
0.343725 0.309682 0.027962
0.372646 0.309873 0.028153
0.401566 0.310065 0.028343
0.430486 0.310257 0.028534
0.459406 0.310448 0.028725
0.488326 0.310640 0.028916
0.517246 0.310832 0.029107
0.546166 0.311024 0.029297
0.575086 0.311215 0.029488
0.604007 0.311407 0.029679
0.632927 0.311599 0.029870
0.661847 0.311791 0.030061
0.690767 0.311982 0.030252
0.719687 0.312174 0.030442
0.748607 0.312366 0.030633
0.777527 0.312557 0.030824
0.806448 0.312749 0.031015
0.835368 0.312941 0.031206
0.864288 0.313133 0.031397
0.893208 0.313324 0.031587
0.922128 0.313516 0.031778
0.951048 0.313708 0.031969
0.026249 0.337815 0.026514
0.055169 0.338006 0.026705
0.084089 0.338198 0.026896
0.113009 0.338390 0.027087
0.141929 0.338582 0.027277
0.170850 0.338773 0.027468
0.199770 0.338965 0.027659
0.228690 0.339157 0.027850
0.257610 0.339349 0.028041
0.286530 0.339540 0.028231
0.315450 0.339732 0.028422
0.344370 0.339924 0.028613
0.373290 0.340115 0.028804
0.402211 0.340307 0.028995
0.431131 0.340499 0.029186
0.460051 0.340691 0.029376
0.488971 0.340882 0.029567
0.517891 0.341074 0.029758
0.546811 0.341266 0.029949
0.575731 0.341457 0.030140
0.604652 0.341649 0.030331
0.633572 0.341841 0.030521
0.662492 0.342033 0.030712
0.691412 0.342224 0.030903
0.720332 0.342416 0.031094
0.749252 0.342608 0.031285
0.778172 0.342799 0.031475
0.807092 0.342991 0.031666
0.836013 0.343183 0.031857
0.864933 0.343375 0.032048
0.893853 0.343566 0.032239
0.922773 0.343758 0.032430
0.951693 0.343950 0.032620
0.026894 0.368057 0.027165
0.055814 0.368249 0.027356
0.084734 0.368440 0.027547
0.113654 0.368632 0.027738
0.142574 0.368824 0.027929
0.171494 0.369015 0.028120
0.200415 0.369207 0.028310
0.229335 0.369399 0.028501
0.258255 0.369591 0.028692
0.287175 0.369782 0.028883
0.316095 0.369974 0.029074
0.345015 0.370166 0.029265
0.373935 0.370357 0.029455
0.402855 0.370549 0.029646
0.431776 0.370741 0.029837
0.460696 0.370933 0.030028
0.489616 0.371124 0.030219
0.518536 0.371316 0.030409
0.547456 0.371508 0.030600
0.576376 0.371700 0.030791
0.605296 0.371891 0.030982
0.634217 0.372083 0.031173
0.663137 0.372275 0.031364
0.692057 0.372466 0.031554
0.720977 0.372658 0.031745
0.749897 0.372850 0.031936
0.778817 0.373042 0.032127
0.807737 0.373233 0.032318
0.836657 0.373425 0.032509
0.865578 0.373617 0.032699
0.894498 0.373808 0.032890
0.923418 0.374000 0.033081
0.952338 0.374192 0.033272
0.027539 0.398299 0.027817
0.056459 0.398491 0.028008
0.085379 0.398682 0.028198
0.114299 0.398874 0.028389
0.143219 0.399066 0.028580
0.172139 0.399258 0.028771
0.201059 0.399449 0.028962
0.229980 0.399641 0.029153
0.258900 0.399833 0.029343
0.287820 0.400024 0.029534
0.316740 0.400216 0.029725
0.345660 0.400408 0.029916
0.374580 0.400600 0.030107
0.403500 0.400791 0.030298
0.432421 0.400983 0.030488
0.461341 0.401175 0.030679
0.490261 0.401366 0.030870
0.519181 0.401558 0.031061
0.548101 0.401750 0.031252
0.577021 0.401942 0.031442
0.605941 0.402133 0.031633
0.634861 0.402325 0.031824
0.663782 0.402517 0.032015
0.692702 0.402708 0.032206
0.721622 0.402900 0.032397
0.750542 0.403092 0.032587
0.779462 0.403284 0.032778
0.808382 0.403475 0.032969
0.837302 0.403667 0.033160
0.866222 0.403859 0.033351
0.895143 0.404051 0.033542
0.924063 0.404242 0.033732
0.952983 0.404434 0.033923
0.028184 0.428541 0.028468
0.057104 0.428733 0.028659
0.086024 0.428924 0.028850
0.114944 0.429116 0.029041
0.143864 0.429308 0.029232
0.172784 0.429500 0.029422
0.201704 0.429691 0.029613
0.230624 0.429883 0.029804
0.259545 0.430075 0.029995
0.288465 0.430266 0.030186
0.317385 0.430458 0.030376
0.346305 0.430650 0.030567
0.375225 0.430842 0.030758
0.404145 0.431033 0.030949
0.433065 0.431225 0.031140
0.461986 0.431417 0.031331
0.490906 0.431609 0.031521
0.519826 0.431800 0.031712
0.548746 0.431992 0.031903
0.577666 0.432184 0.032094
0.606586 0.432375 0.032285
0.635506 0.432567 0.032476
0.664426 0.432759 0.032666
0.693347 0.432951 0.032857
0.722267 0.433142 0.033048
0.751187 0.433334 0.033239
0.780107 0.433526 0.033430
0.809027 0.433717 0.033620
0.837947 0.433909 0.033811
0.866867 0.434101 0.034002
0.895787 0.434293 0.034193
0.924708 0.434484 0.034384
0.953628 0.434676 0.034575
0.028828 0.458783 0.029120
0.057749 0.458975 0.029310
0.086669 0.459167 0.029501
0.115589 0.459358 0.029692
0.144509 0.459550 0.029883
0.173429 0.459742 0.030074
0.202349 0.459933 0.030265
0.231269 0.460125 0.030455
0.260190 0.460317 0.030646
0.289110 0.460509 0.030837
0.318030 0.460700 0.031028
0.346950 0.460892 0.031219
0.375870 0.461084 0.031410
0.404790 0.461275 0.031600
0.433710 0.461467 0.031791
0.462630 0.461659 0.031982
0.491551 0.461851 0.032173
0.520471 0.462042 0.032364
0.549391 0.462234 0.032554
0.578311 0.462426 0.032745
0.607231 0.462617 0.032936
0.636151 0.462809 0.033127
0.665071 0.463001 0.033318
0.693991 0.463193 0.033509
0.722912 0.463384 0.033699
0.751832 0.463576 0.033890
0.780752 0.463768 0.034081
0.809672 0.463960 0.034272
0.838592 0.464151 0.034463
0.867512 0.464343 0.034654
0.896432 0.464535 0.034844
0.925353 0.464726 0.035035
0.954273 0.464918 0.035226
0.029473 0.489025 0.029771
0.058393 0.489217 0.029962
0.087314 0.489409 0.030153
0.116234 0.489600 0.030344
0.145154 0.489792 0.030534
0.174074 0.489984 0.030725
0.202994 0.490175 0.030916
0.231914 0.490367 0.031107
0.260834 0.490559 0.031298
0.289755 0.490751 0.031488
0.318675 0.490942 0.031679
0.347595 0.491134 0.031870
0.376515 0.491326 0.032061
0.405435 0.491518 0.032252
0.434355 0.491709 0.032443
0.463275 0.491901 0.032633
0.492195 0.492093 0.032824
0.521116 0.492284 0.033015
0.550036 0.492476 0.033206
0.578956 0.492668 0.033397
0.607876 0.492860 0.033588
0.636796 0.493051 0.033778
0.665716 0.493243 0.033969
0.694636 0.493435 0.034160
0.723556 0.493626 0.034351
0.752477 0.493818 0.034542
0.781397 0.494010 0.034732
0.810317 0.494202 0.034923
0.839237 0.494393 0.035114
0.868157 0.494585 0.035305
0.897077 0.494777 0.035496
0.925997 0.494968 0.035687
0.954918 0.495160 0.035877
0.030118 0.519267 0.030422
0.059038 0.519459 0.030613
0.087959 0.519651 0.030804
0.116879 0.519842 0.030995
0.145799 0.520034 0.031186
0.174719 0.520226 0.031377
0.203639 0.520418 0.031567
0.232559 0.520609 0.031758
0.261479 0.520801 0.031949
0.290399 0.520993 0.032140
0.319320 0.521184 0.032331
0.348240 0.521376 0.032522
0.377160 0.521568 0.032712
0.406080 0.521760 0.032903
0.435000 0.521951 0.033094
0.463920 0.522143 0.033285
0.492840 0.522335 0.033476
0.521760 0.522526 0.033666
0.550681 0.522718 0.033857
0.579601 0.522910 0.034048
0.608521 0.523102 0.034239
0.637441 0.523293 0.034430
0.666361 0.523485 0.034621
0.695281 0.523677 0.034811
0.724201 0.523869 0.035002
0.753122 0.524060 0.035193
0.782042 0.524252 0.035384
0.810962 0.524444 0.035575
0.839882 0.524635 0.035766
0.868802 0.524827 0.035956
0.897722 0.525019 0.036147
0.926642 0.525211 0.036338
0.955562 0.525402 0.036529
0.030763 0.549509 0.031074
0.059683 0.549701 0.031265
0.088603 0.549893 0.031456
0.117524 0.550084 0.031646
0.146444 0.550276 0.031837
0.175364 0.550468 0.032028
0.204284 0.550660 0.032219
0.233204 0.550851 0.032410
0.262124 0.551043 0.032600
0.291044 0.551235 0.032791
0.319964 0.551427 0.032982
0.348885 0.551618 0.033173
0.377805 0.551810 0.033364
0.406725 0.552002 0.033555
0.435645 0.552193 0.033745
0.464565 0.552385 0.033936
0.493485 0.552577 0.034127
0.522405 0.552769 0.034318
0.551325 0.552960 0.034509
0.580246 0.553152 0.034700
0.609166 0.553344 0.034890
0.638086 0.553535 0.035081
0.667006 0.553727 0.035272
0.695926 0.553919 0.035463
0.724846 0.554111 0.035654
0.753766 0.554302 0.035844
0.782687 0.554494 0.036035
0.811607 0.554686 0.036226
0.840527 0.554877 0.036417
0.869447 0.555069 0.036608
0.898367 0.555261 0.036799
0.927287 0.555453 0.036989
0.956207 0.555644 0.037180
0.031408 0.579751 0.031725
0.060328 0.579943 0.031916
0.089248 0.580135 0.032107
0.118168 0.580327 0.032298
0.147089 0.580518 0.032489
0.176009 0.580710 0.032679
0.204929 0.580902 0.032870
0.233849 0.581093 0.033061
0.262769 0.581285 0.033252
0.291689 0.581477 0.033443
0.320609 0.581669 0.033634
0.349529 0.581860 0.033824
0.378450 0.582052 0.034015
0.407370 0.582244 0.034206
0.436290 0.582435 0.034397
0.465210 0.582627 0.034588
0.494130 0.582819 0.034778
0.523050 0.583011 0.034969
0.551970 0.583202 0.035160
0.580891 0.583394 0.035351
0.609811 0.583586 0.035542
0.638731 0.583778 0.035733
0.667651 0.583969 0.035923
0.696571 0.584161 0.036114
0.725491 0.584353 0.036305
0.754411 0.584544 0.036496
0.783331 0.584736 0.036687
0.812252 0.584928 0.036878
0.841172 0.585120 0.037068
0.870092 0.585311 0.037259
0.899012 0.585503 0.037450
0.927932 0.585695 0.037641
0.956852 0.585886 0.037832
0.032053 0.609993 0.032377
0.060973 0.610185 0.032568
0.089893 0.610377 0.032758
0.118813 0.610569 0.032949
0.147733 0.610760 0.033140
0.176654 0.610952 0.033331
0.205574 0.611144 0.033522
0.234494 0.611336 0.033712
0.263414 0.611527 0.033903
0.292334 0.611719 0.034094
0.321254 0.611911 0.034285
0.350174 0.612102 0.034476
0.379094 0.612294 0.034667
0.408015 0.612486 0.034857
0.436935 0.612678 0.035048
0.465855 0.612869 0.035239
0.494775 0.613061 0.035430
0.523695 0.613253 0.035621
0.552615 0.613444 0.035811
0.581535 0.613636 0.036002
0.610456 0.613828 0.036193
0.639376 0.614020 0.036384
0.668296 0.614211 0.036575
0.697216 0.614403 0.036766
0.726136 0.614595 0.036956
0.755056 0.614786 0.037147
0.783976 0.614978 0.037338
0.812896 0.615170 0.037529
0.841817 0.615362 0.037720
0.870737 0.615553 0.037911
0.899657 0.615745 0.038101
0.928577 0.615937 0.038292
0.957497 0.616129 0.038483
0.032698 0.640236 0.033028
0.061618 0.640427 0.033219
0.090538 0.640619 0.033410
0.119458 0.640811 0.033601
0.148378 0.641002 0.033791
0.177298 0.641194 0.033982
0.206219 0.641386 0.034173
0.235139 0.641578 0.034364
0.264059 0.641769 0.034555
0.292979 0.641961 0.034745
0.321899 0.642153 0.034936
0.350819 0.642344 0.035127
0.379739 0.642536 0.035318
0.408660 0.642728 0.035509
0.437580 0.642920 0.035700
0.466500 0.643111 0.035890
0.495420 0.643303 0.036081
0.524340 0.643495 0.036272
0.553260 0.643687 0.036463
0.582180 0.643878 0.036654
0.611100 0.644070 0.036845
0.640021 0.644262 0.037035
0.668941 0.644453 0.037226
0.697861 0.644645 0.037417
0.726781 0.644837 0.037608
0.755701 0.645029 0.037799
0.784621 0.645220 0.037989
0.813541 0.645412 0.038180
0.842461 0.645604 0.038371
0.871382 0.645795 0.038562
0.900302 0.645987 0.038753
0.929222 0.646179 0.038944
0.958142 0.646371 0.039134
0.033343 0.670478 0.033679
0.062263 0.670669 0.033870
0.091183 0.670861 0.034061
0.120103 0.671053 0.034252
0.149023 0.671244 0.034443
0.177943 0.671436 0.034634
0.206863 0.671628 0.034824
0.235784 0.671820 0.035015
0.264704 0.672011 0.035206
0.293624 0.672203 0.035397
0.322544 0.672395 0.035588
0.351464 0.672587 0.035779
0.380384 0.672778 0.035969
0.409304 0.672970 0.036160
0.438225 0.673162 0.036351
0.467145 0.673353 0.036542
0.496065 0.673545 0.036733
0.524985 0.673737 0.036923
0.553905 0.673929 0.037114
0.582825 0.674120 0.037305
0.611745 0.674312 0.037496
0.640665 0.674504 0.037687
0.669586 0.674695 0.037878
0.698506 0.674887 0.038068
0.727426 0.675079 0.038259
0.756346 0.675271 0.038450
0.785266 0.675462 0.038641
0.814186 0.675654 0.038832
0.843106 0.675846 0.039023
0.872026 0.676038 0.039213
0.900947 0.676229 0.039404
0.929867 0.676421 0.039595
0.958787 0.676613 0.039786
0.033988 0.700720 0.034331
0.062908 0.700911 0.034522
0.091828 0.701103 0.034713
0.120748 0.701295 0.034903
0.149668 0.701487 0.035094
0.178588 0.701678 0.035285
0.207508 0.701870 0.035476
0.236428 0.702062 0.035667
0.265349 0.702253 0.035857
0.294269 0.702445 0.036048
0.323189 0.702637 0.036239
0.352109 0.702829 0.036430
0.381029 0.703020 0.036621
0.409949 0.703212 0.036812
0.438869 0.703404 0.037002
0.467790 0.703595 0.037193
0.496710 0.703787 0.037384
0.525630 0.703979 0.037575
0.554550 0.704171 0.037766
0.583470 0.704362 0.037957
0.612390 0.704554 0.038147
0.641310 0.704746 0.038338
0.670230 0.704938 0.038529
0.699151 0.705129 0.038720
0.728071 0.705321 0.038911
0.756991 0.705513 0.039101
0.785911 0.705704 0.039292
0.814831 0.705896 0.039483
0.843751 0.706088 0.039674
0.872671 0.706280 0.039865
0.901592 0.706471 0.040056
0.930512 0.706663 0.040246
0.959432 0.706855 0.040437
0.034632 0.730962 0.034982
0.063553 0.731153 0.035173
0.092473 0.731345 0.035364
0.121393 0.731537 0.035555
0.150313 0.731729 0.035746
0.179233 0.731920 0.035936
0.208153 0.732112 0.036127
0.237073 0.732304 0.036318
0.265994 0.732496 0.036509
0.294914 0.732687 0.036700
0.323834 0.732879 0.036891
0.352754 0.733071 0.037081
0.381674 0.733262 0.037272
0.410594 0.733454 0.037463
0.439514 0.733646 0.037654
0.468434 0.733838 0.037845
0.497355 0.734029 0.038035
0.526275 0.734221 0.038226
0.555195 0.734413 0.038417
0.584115 0.734604 0.038608
0.613035 0.734796 0.038799
0.641955 0.734988 0.038990
0.670875 0.735180 0.039180
0.699795 0.735371 0.039371
0.728716 0.735563 0.039562
0.757636 0.735755 0.039753
0.786556 0.735946 0.039944
0.815476 0.736138 0.040135
0.844396 0.736330 0.040325
0.873316 0.736522 0.040516
0.902236 0.736713 0.040707
0.931157 0.736905 0.040898
0.960077 0.737097 0.041089
0.035277 0.761204 0.035634
0.064197 0.761396 0.035825
0.093118 0.761587 0.036015
0.122038 0.761779 0.036206
0.150958 0.761971 0.036397
0.179878 0.762162 0.036588
0.208798 0.762354 0.036779
0.237718 0.762546 0.036969
0.266638 0.762738 0.037160
0.295559 0.762929 0.037351
0.324479 0.763121 0.037542
0.353399 0.763313 0.037733
0.382319 0.763504 0.037924
0.411239 0.763696 0.038114
0.440159 0.763888 0.038305
0.469079 0.764080 0.038496
0.497999 0.764271 0.038687
0.526920 0.764463 0.038878
0.555840 0.764655 0.039069
0.584760 0.764847 0.039259
0.613680 0.765038 0.039450
0.642600 0.765230 0.039641
0.671520 0.765422 0.039832
0.700440 0.765613 0.040023
0.729361 0.765805 0.040213
0.758281 0.765997 0.040404
0.787201 0.766189 0.040595
0.816121 0.766380 0.040786
0.845041 0.766572 0.040977
0.873961 0.766764 0.041168
0.902881 0.766955 0.041358
0.931801 0.767147 0.041549
0.960722 0.767339 0.041740
0.035922 0.791446 0.036285
0.064842 0.791638 0.036476
0.093763 0.791829 0.036667
0.122683 0.792021 0.036858
0.151603 0.792213 0.037048
0.180523 0.792405 0.037239
0.209443 0.792596 0.037430
0.238363 0.792788 0.037621
0.267283 0.792980 0.037812
0.296203 0.793171 0.038003
0.325124 0.793363 0.038193
0.354044 0.793555 0.038384
0.382964 0.793747 0.038575
0.411884 0.793938 0.038766
0.440804 0.794130 0.038957
0.469724 0.794322 0.039147
0.498644 0.794513 0.039338
0.527564 0.794705 0.039529
0.556485 0.794897 0.039720
0.585405 0.795089 0.039911
0.614325 0.795280 0.040102
0.643245 0.795472 0.040292
0.672165 0.795664 0.040483
0.701085 0.795855 0.040674
0.730005 0.796047 0.040865
0.758926 0.796239 0.041056
0.787846 0.796431 0.041247
0.816766 0.796622 0.041437
0.845686 0.796814 0.041628
0.874606 0.797006 0.041819
0.903526 0.797198 0.042010
0.932446 0.797389 0.042201
0.961366 0.797581 0.042391
0.036567 0.821688 0.036937
0.065487 0.821880 0.037127
0.094407 0.822071 0.037318
0.123328 0.822263 0.037509
0.152248 0.822455 0.037700
0.181168 0.822647 0.037891
0.210088 0.822838 0.038081
0.239008 0.823030 0.038272
0.267928 0.823222 0.038463
0.296848 0.823413 0.038654
0.325768 0.823605 0.038845
0.354689 0.823797 0.039036
0.383609 0.823989 0.039226
0.412529 0.824180 0.039417
0.441449 0.824372 0.039608
0.470369 0.824564 0.039799
0.499289 0.824756 0.039990
0.528209 0.824947 0.040181
0.557129 0.825139 0.040371
0.586050 0.825331 0.040562
0.614970 0.825522 0.040753
0.643890 0.825714 0.040944
0.672810 0.825906 0.041135
0.701730 0.826098 0.041325
0.730650 0.826289 0.041516
0.759570 0.826481 0.041707
0.788491 0.826673 0.041898
0.817411 0.826864 0.042089
