presets/luts/forest-soft/forest-soft.cube
# akari-video catalog LUT: forest-soft
LUT_3D_SIZE 5
0.019800 0.035394 0.020000
0.251161 0.036928 0.021527
0.482522 0.038462 0.023053
0.713883 0.039995 0.024580
0.945244 0.041529 0.026106
0.024959 0.277331 0.025211
0.256320 0.278864 0.026738
0.487681 0.280398 0.028264
0.719042 0.281932 0.029791
0.950403 0.283466 0.031318
0.030118 0.519267 0.030422
0.261479 0.520801 0.031949
0.492840 0.522335 0.033476
0.724201 0.523869 0.035002
0.955562 0.525402 0.036529
0.035277 0.761204 0.035634
0.266638 0.762738 0.037160
0.497999 0.764271 0.038687
0.729361 0.765805 0.040213
0.960722 0.767339 0.041740
0.040192 0.991665 0.040598
0.271553 0.993199 0.042124
0.502914 0.994733 0.043651
0.734275 0.996266 0.045178
0.965636 0.997800 0.046704
0.020316 0.035918 0.253950
0.251677 0.037451 0.255476
0.483038 0.038985 0.257003
0.714399 0.040519 0.258530
0.945760 0.042053 0.260056
0.025475 0.277854 0.259161
0.256836 0.279388 0.260688
0.488197 0.280922 0.262214
0.719558 0.282456 0.263741
0.950919 0.283989 0.265267
0.030634 0.519791 0.264372
0.261995 0.521325 0.265899
0.493356 0.522858 0.267425
0.724717 0.524392 0.268952
0.956078 0.525926 0.270479
0.035793 0.761728 0.269584
0.267154 0.763261 0.271110
0.498515 0.764795 0.272637
0.729877 0.766329 0.274163
0.961238 0.767863 0.275690
0.040708 0.992189 0.274548
0.272069 0.993723 0.276074
0.503430 0.995256 0.277601
0.734791 0.996790 0.279127
0.966152 0.998324 0.280654
0.020832 0.036441 0.487900
0.252193 0.037975 0.489426
0.483554 0.039509 0.490953
0.714915 0.041043 0.492479
0.946276 0.042576 0.494006
0.025991 0.278378 0.493111
0.257352 0.279912 0.494637
0.488713 0.281446 0.496164
0.720074 0.282979 0.497691
0.951435 0.284513 0.499217
0.031150 0.520315 0.498322
0.262511 0.521848 0.499849
0.493872 0.523382 0.501375
0.725233 0.524916 0.502902
0.956594 0.526450 0.504428
0.036309 0.762251 0.503533
0.267670 0.763785 0.505060
0.499032 0.765319 0.506586
0.730393 0.766853 0.508113
0.961754 0.768386 0.509640
0.041224 0.992713 0.508497
0.272585 0.994246 0.510024
0.503946 0.995780 0.511551
0.735307 0.997314 0.513077
0.966668 0.998848 0.514604
0.021348 0.036965 0.721849
0.252709 0.038499 0.723376
0.484070 0.040033 0.724903
0.715431 0.041566 0.726429
0.946792 0.043100 0.727956
0.026507 0.278902 0.727061
0.257868 0.280435 0.728587
0.489229 0.281969 0.730114
0.720590 0.283503 0.731640
0.951951 0.285037 0.733167
0.031666 0.520838 0.732272
0.263027 0.522372 0.733798
0.494388 0.523906 0.735325
0.725749 0.525440 0.736852
0.957111 0.526973 0.738378
0.036825 0.762775 0.737483
0.268187 0.764309 0.739010
0.499548 0.765842 0.740536
0.730909 0.767376 0.742063
0.962270 0.768910 0.743589
0.041740 0.993236 0.742447
0.273101 0.994770 0.743974
0.504462 0.996304 0.745500
0.735823 0.997838 0.747027
0.967184 0.999371 0.748554
0.021859 0.037483 0.953279
0.253220 0.039017 0.954806
0.484581 0.040551 0.956333
0.715942 0.042084 0.957859
0.947303 0.043618 0.959386
0.027018 0.279420 0.958491
0.258379 0.280954 0.960017
0.489740 0.282487 0.961544
0.721101 0.284021 0.963070
0.952462 0.285555 0.964597
0.032177 0.521356 0.963702
0.263538 0.522890 0.965228
0.494899 0.524424 0.966755
0.726260 0.525958 0.968282
0.957621 0.527491 0.969808
0.037336 0.763293 0.968913
0.268697 0.764827 0.970440
0.500058 0.766361 0.971966
0.731419 0.767894 0.973493
0.962780 0.769428 0.975019
0.042250 0.993754 0.973877
0.273611 0.995288 0.975404
0.504972 0.996822 0.976930
0.736333 0.998356 0.978457
0.967695 0.999889 0.979983
