presets/luts/forest-soft/forest-soft.cube
# akari-video catalog LUT: forest-soft
LUT_3D_SIZE 9
0.019800 0.035394 0.020000
0.135481 0.036161 0.020763
0.251161 0.036928 0.021527
0.366842 0.037695 0.022290
0.482522 0.038462 0.023053
0.598203 0.039228 0.023816
0.713883 0.039995 0.024580
0.829564 0.040762 0.025343
0.945244 0.041529 0.026106
0.022380 0.156362 0.022606
0.138060 0.157129 0.023369
0.253741 0.157896 0.024132
0.369421 0.158663 0.024895
0.485102 0.159430 0.025659
0.600782 0.160197 0.026422
0.716463 0.160964 0.027185
0.832143 0.161730 0.027949
0.947824 0.162497 0.028712
0.024959 0.277331 0.025211
0.140640 0.278097 0.025975
0.256320 0.278864 0.026738
0.372001 0.279631 0.027501
0.487681 0.280398 0.028264
0.603362 0.281165 0.029028
0.719042 0.281932 0.029791
0.834723 0.282699 0.030554
0.950403 0.283466 0.031318
0.027539 0.398299 0.027817
0.143219 0.399066 0.028580
0.258900 0.399833 0.029343
0.374580 0.400600 0.030107
0.490261 0.401366 0.030870
0.605941 0.402133 0.031633
0.721622 0.402900 0.032397
0.837302 0.403667 0.033160
0.952983 0.404434 0.033923
0.030118 0.519267 0.030422
0.145799 0.520034 0.031186
0.261479 0.520801 0.031949
0.377160 0.521568 0.032712
0.492840 0.522335 0.033476
0.608521 0.523102 0.034239
0.724201 0.523869 0.035002
0.839882 0.524635 0.035766
0.955562 0.525402 0.036529
0.032698 0.640236 0.033028
0.148378 0.641002 0.033791
0.264059 0.641769 0.034555
0.379739 0.642536 0.035318
0.495420 0.643303 0.036081
0.611100 0.644070 0.036845
0.726781 0.644837 0.037608
0.842461 0.645604 0.038371
0.958142 0.646371 0.039134
0.035277 0.761204 0.035634
0.150958 0.761971 0.036397
0.266638 0.762738 0.037160
0.382319 0.763504 0.037924
0.497999 0.764271 0.038687
0.613680 0.765038 0.039450
0.729361 0.765805 0.040213
0.845041 0.766572 0.040977
0.960722 0.767339 0.041740
0.037857 0.882172 0.038239
0.153537 0.882939 0.039003
0.269218 0.883706 0.039766
0.384898 0.884473 0.040529
0.500579 0.885240 0.041292
0.616260 0.886007 0.042056
0.731940 0.886773 0.042819
0.847621 0.887540 0.043582
0.963301 0.888307 0.044346
0.040192 0.991665 0.040598
0.155872 0.992432 0.041361
0.271553 0.993199 0.042124
0.387233 0.993966 0.042888
0.502914 0.994733 0.043651
0.618594 0.995500 0.044414
0.734275 0.996266 0.045178
0.849955 0.997033 0.045941
0.965636 0.997800 0.046704
0.020058 0.035656 0.136975
0.135739 0.036423 0.137738
0.251419 0.037190 0.138501
0.367100 0.037956 0.139265
0.482780 0.038723 0.140028
0.598461 0.039490 0.140791
0.714141 0.040257 0.141555
0.829822 0.041024 0.142318
0.945502 0.041791 0.143081
0.022638 0.156624 0.139581
0.138318 0.157391 0.140344
0.253999 0.158158 0.141107
0.369679 0.158925 0.141870
0.485360 0.159692 0.142634
0.601040 0.160459 0.143397
0.716721 0.161225 0.144160
0.832401 0.161992 0.144924
0.948082 0.162759 0.145687
0.025217 0.277592 0.142186
0.140898 0.278359 0.142949
0.256578 0.279126 0.143713
0.372259 0.279893 0.144476
0.487939 0.280660 0.145239
0.603620 0.281427 0.146003
0.719300 0.282194 0.146766
0.834981 0.282961 0.147529
0.950661 0.283728 0.148292
0.027797 0.398561 0.144792
0.143477 0.399328 0.145555
0.259158 0.400095 0.146318
0.374838 0.400861 0.147082
0.490519 0.401628 0.147845
0.606199 0.402395 0.148608
0.721880 0.403162 0.149372
0.837560 0.403929 0.150135
0.953241 0.404696 0.150898
0.030376 0.519529 0.147397
0.146057 0.520296 0.148161
0.261737 0.521063 0.148924
0.377418 0.521830 0.149687
0.493098 0.522597 0.150451
0.608779 0.523363 0.151214
0.724459 0.524130 0.151977
0.840140 0.524897 0.152740
0.955820 0.525664 0.153504
0.032956 0.640497 0.150003
0.148636 0.641264 0.150766
0.264317 0.642031 0.151530
0.379997 0.642798 0.152293
0.495678 0.643565 0.153056
0.611358 0.644332 0.153819
0.727039 0.645099 0.154583
0.842719 0.645866 0.155346
0.958400 0.646632 0.156109
0.035535 0.761466 0.152609
0.151216 0.762233 0.153372
0.266896 0.762999 0.154135
0.382577 0.763766 0.154898
0.498257 0.764533 0.155662
0.613938 0.765300 0.156425
0.729619 0.766067 0.157188
0.845299 0.766834 0.157952
0.960980 0.767601 0.158715
0.038115 0.882434 0.155214
0.153795 0.883201 0.155978
0.269476 0.883968 0.156741
0.385157 0.884735 0.157504
0.500837 0.885502 0.158267
0.616518 0.886268 0.159031
0.732198 0.887035 0.159794
0.847879 0.887802 0.160557
0.963559 0.888569 0.161321
0.040450 0.991927 0.157573
0.156130 0.992694 0.158336
0.271811 0.993461 0.159099
0.387491 0.994228 0.159863
0.503172 0.994995 0.160626
0.618852 0.995761 0.161389
0.734533 0.996528 0.162152
0.850213 0.997295 0.162916
0.965894 0.998062 0.163679
0.020316 0.035918 0.253950
0.135997 0.036685 0.254713
0.251677 0.037451 0.255476
0.367358 0.038218 0.256240
0.483038 0.038985 0.257003
0.598719 0.039752 0.257766
0.714399 0.040519 0.258530
0.830080 0.041286 0.259293
0.945760 0.042053 0.260056
0.022896 0.156886 0.256555
0.138576 0.157653 0.257319
0.254257 0.158420 0.258082
0.369937 0.159187 0.258845
0.485618 0.159954 0.259609
0.601298 0.160720 0.260372
0.716979 0.161487 0.261135
0.832659 0.162254 0.261898
0.948340 0.163021 0.262662
0.025475 0.277854 0.259161
0.141156 0.278621 0.259924
0.256836 0.279388 0.260688
0.372517 0.280155 0.261451
0.488197 0.280922 0.262214
0.603878 0.281689 0.262978
0.719558 0.282456 0.263741
0.835239 0.283222 0.264504
0.950919 0.283989 0.265267
0.028055 0.398823 0.261767
0.143735 0.399589 0.262530
0.259416 0.400356 0.263293
0.375096 0.401123 0.264057
0.490777 0.401890 0.264820
0.606457 0.402657 0.265583
0.722138 0.403424 0.266346
0.837818 0.404191 0.267110
0.953499 0.404958 0.267873
0.030634 0.519791 0.264372
0.146315 0.520558 0.265136
0.261995 0.521325 0.265899
0.377676 0.522092 0.266662
0.493356 0.522858 0.267425
0.609037 0.523625 0.268189
0.724717 0.524392 0.268952
0.840398 0.525159 0.269715
0.956078 0.525926 0.270479
0.033214 0.640759 0.266978
0.148894 0.641526 0.267741
0.264575 0.642293 0.268504
0.380255 0.643060 0.269268
0.495936 0.643827 0.270031
0.611616 0.644594 0.270794
0.727297 0.645361 0.271558
0.842977 0.646127 0.272321
0.958658 0.646894 0.273084
0.035793 0.761728 0.269584
0.151474 0.762494 0.270347
0.267154 0.763261 0.271110
0.382835 0.764028 0.271873
0.498515 0.764795 0.272637
0.614196 0.765562 0.273400
0.729877 0.766329 0.274163
0.845557 0.767096 0.274927
0.961238 0.767863 0.275690
0.038373 0.882696 0.272189
0.154053 0.883463 0.272952
0.269734 0.884230 0.273716
0.385415 0.884996 0.274479
0.501095 0.885763 0.275242
0.616776 0.886530 0.276006
0.732456 0.887297 0.276769
0.848137 0.888064 0.277532
0.963817 0.888831 0.278295
0.040708 0.992189 0.274548
0.156388 0.992956 0.275311
0.272069 0.993723 0.276074
0.387749 0.994490 0.276837
0.503430 0.995256 0.277601
0.619110 0.996023 0.278364
0.734791 0.996790 0.279127
0.850471 0.997557 0.279891
0.966152 0.998324 0.280654
0.020574 0.036180 0.370925
0.136255 0.036946 0.371688
0.251935 0.037713 0.372451
0.367616 0.038480 0.373215
0.483296 0.039247 0.373978
0.598977 0.040014 0.374741
0.714657 0.040781 0.375504
0.830338 0.041548 0.376268
0.946018 0.042315 0.377031
0.023154 0.157148 0.373530
0.138834 0.157915 0.374294
0.254515 0.158682 0.375057
0.370195 0.159448 0.375820
0.485876 0.160215 0.376583
0.601556 0.160982 0.377347
0.717237 0.161749 0.378110
0.832917 0.162516 0.378873
0.948598 0.163283 0.379637
0.025733 0.278116 0.376136
0.141414 0.278883 0.376899
0.257094 0.279650 0.377663
0.372775 0.280417 0.378426
0.488455 0.281184 0.379189
0.604136 0.281951 0.379952
0.719816 0.282717 0.380716
0.835497 0.283484 0.381479
0.951177 0.284251 0.382242
0.028313 0.399084 0.378742
0.143993 0.399851 0.379505
0.259674 0.400618 0.380268
0.375354 0.401385 0.381031
0.491035 0.402152 0.381795
0.606715 0.402919 0.382558
0.722396 0.403686 0.383321
0.838076 0.404453 0.384085
0.953757 0.405220 0.384848
0.030892 0.520053 0.381347
0.146573 0.520820 0.382110
0.262253 0.521587 0.382874
0.377934 0.522353 0.383637
0.493614 0.523120 0.384400
0.609295 0.523887 0.385164
0.724975 0.524654 0.385927
0.840656 0.525421 0.386690
0.956336 0.526188 0.387454
0.033472 0.641021 0.383953
0.149152 0.641788 0.384716
0.264833 0.642555 0.385479
0.380513 0.643322 0.386243
0.496194 0.644089 0.387006
0.611874 0.644855 0.387769
0.727555 0.645622 0.388533
0.843236 0.646389 0.389296
0.958916 0.647156 0.390059
0.036051 0.761989 0.386558
0.151732 0.762756 0.387322
0.267412 0.763523 0.388085
0.383093 0.764290 0.388848
0.498774 0.765057 0.389612
0.614454 0.765824 0.390375
0.730135 0.766591 0.391138
0.845815 0.767358 0.391901
0.961496 0.768124 0.392665
0.038631 0.882958 0.389164
0.154311 0.883725 0.389927
0.269992 0.884491 0.390691
0.385673 0.885258 0.391454
0.501353 0.886025 0.392217
0.617034 0.886792 0.392980
0.732714 0.887559 0.393744
0.848395 0.888326 0.394507
0.964075 0.889093 0.395270
0.040966 0.992451 0.391522
0.156646 0.993218 0.392286
0.272327 0.993985 0.393049
0.388007 0.994751 0.393812
0.503688 0.995518 0.394576
0.619368 0.996285 0.395339
0.735049 0.997052 0.396102
0.850729 0.997819 0.396866
0.966410 0.998586 0.397629
0.020832 0.036441 0.487900
0.136513 0.037208 0.488663
0.252193 0.037975 0.489426
0.367874 0.038742 0.490189
0.483554 0.039509 0.490953
0.599235 0.040276 0.491716
0.714915 0.041043 0.492479
0.830596 0.041810 0.493243
0.946276 0.042576 0.494006
0.023412 0.157410 0.490505
0.139092 0.158177 0.491269
0.254773 0.158943 0.492032
0.370453 0.159710 0.492795
0.486134 0.160477 0.493558
0.601814 0.161244 0.494322
0.717495 0.162011 0.495085
0.833175 0.162778 0.495848
0.948856 0.163545 0.496612
0.025991 0.278378 0.493111
0.141672 0.279145 0.493874
0.257352 0.279912 0.494637
0.373033 0.280679 0.495401
0.488713 0.281446 0.496164
0.604394 0.282212 0.496927
0.720074 0.282979 0.497691
0.835755 0.283746 0.498454
0.951435 0.284513 0.499217
0.028571 0.399346 0.495716
0.144251 0.400113 0.496480
0.259932 0.400880 0.497243
0.375612 0.401647 0.498006
0.491293 0.402414 0.498770
0.606973 0.403181 0.499533
0.722654 0.403948 0.500296
0.838334 0.404714 0.501060
0.954015 0.405481 0.501823
0.031150 0.520315 0.498322
0.146831 0.521081 0.499085
0.262511 0.521848 0.499849
0.378192 0.522615 0.500612
0.493872 0.523382 0.501375
0.609553 0.524149 0.502139
0.725233 0.524916 0.502902
0.840914 0.525683 0.503665
0.956594 0.526450 0.504428
0.033730 0.641283 0.500928
0.149410 0.642050 0.501691
0.265091 0.642817 0.502454
0.380771 0.643584 0.503218
0.496452 0.644350 0.503981
0.612132 0.645117 0.504744
0.727813 0.645884 0.505507
0.843494 0.646651 0.506271
0.959174 0.647418 0.507034
0.036309 0.762251 0.503533
0.151990 0.763018 0.504297
0.267670 0.763785 0.505060
0.383351 0.764552 0.505823
0.499032 0.765319 0.506586
0.614712 0.766086 0.507350
0.730393 0.766853 0.508113
0.846073 0.767619 0.508876
0.961754 0.768386 0.509640
0.038889 0.883220 0.506139
0.154570 0.883986 0.506902
0.270250 0.884753 0.507666
0.385931 0.885520 0.508429
0.501611 0.886287 0.509192
0.617292 0.887054 0.509955
0.732972 0.887821 0.510719
0.848653 0.888588 0.511482
0.964333 0.889355 0.512245
0.041224 0.992713 0.508497
0.156904 0.993479 0.509261
0.272585 0.994246 0.510024
0.388265 0.995013 0.510787
0.503946 0.995780 0.511551
0.619626 0.996547 0.512314
0.735307 0.997314 0.513077
0.850988 0.998081 0.513840
0.966668 0.998848 0.514604
0.021090 0.036703 0.604875
0.136771 0.037470 0.605638
0.252451 0.038237 0.606401
0.368132 0.039004 0.607164
0.483812 0.039771 0.607928
0.599493 0.040538 0.608691
0.715173 0.041305 0.609454
0.830854 0.042071 0.610218
0.946534 0.042838 0.610981
0.023670 0.157672 0.607480
0.139350 0.158438 0.608243
0.255031 0.159205 0.609007
0.370711 0.159972 0.609770
0.486392 0.160739 0.610533
0.602072 0.161506 0.611297
0.717753 0.162273 0.612060
0.833433 0.163040 0.612823
0.949114 0.163807 0.613586
0.026249 0.278640 0.610086
0.141930 0.279407 0.610849
0.257610 0.280174 0.611612
0.373291 0.280940 0.612376
0.488971 0.281707 0.613139
0.604652 0.282474 0.613902
0.720332 0.283241 0.614666
0.836013 0.284008 0.615429
0.951693 0.284775 0.616192
0.028829 0.399608 0.612691
0.144509 0.400375 0.613455
0.260190 0.401142 0.614218
0.375870 0.401909 0.614981
0.491551 0.402676 0.615745
0.607231 0.403443 0.616508
0.722912 0.404209 0.617271
0.838592 0.404976 0.618034
0.954273 0.405743 0.618798
0.031408 0.520576 0.615297
0.147089 0.521343 0.616060
0.262769 0.522110 0.616824
0.378450 0.522877 0.617587
0.494130 0.523644 0.618350
0.609811 0.524411 0.619113
0.725491 0.525178 0.619877
0.841172 0.525945 0.620640
0.956853 0.526712 0.621403
0.033988 0.641545 0.617903
0.149668 0.642312 0.618666
0.265349 0.643079 0.619429
0.381029 0.643845 0.620192
0.496710 0.644612 0.620956
0.612390 0.645379 0.621719
0.728071 0.646146 0.622482
0.843752 0.646913 0.623246
0.959432 0.647680 0.624009
0.036567 0.762513 0.620508
0.152248 0.763280 0.621272
0.267928 0.764047 0.622035
0.383609 0.764814 0.622798
0.499290 0.765581 0.623561
0.614970 0.766347 0.624325
0.730651 0.767114 0.625088
0.846331 0.767881 0.625851
0.962012 0.768648 0.626615
0.039147 0.883481 0.623114
0.154828 0.884248 0.623877
0.270508 0.885015 0.624640
0.386189 0.885782 0.625404
0.501869 0.886549 0.626167
0.617550 0.887316 0.626930
0.733230 0.888083 0.627694
0.848911 0.888850 0.628457
0.964591 0.889616 0.629220
0.041482 0.992974 0.625472
0.157162 0.993741 0.626236
0.272843 0.994508 0.626999
0.388523 0.995275 0.627762
0.504204 0.996042 0.628525
0.619884 0.996809 0.629289
0.735565 0.997576 0.630052
0.851246 0.998343 0.630815
0.966926 0.999109 0.631579
0.021348 0.036965 0.721849
0.137029 0.037732 0.722613
0.252709 0.038499 0.723376
0.368390 0.039266 0.724139
0.484070 0.040033 0.724903
0.599751 0.040799 0.725666
0.715431 0.041566 0.726429
0.831112 0.042333 0.727192
0.946792 0.043100 0.727956
0.023928 0.157933 0.724455
0.139608 0.158700 0.725218
0.255289 0.159467 0.725982
0.370969 0.160234 0.726745
0.486650 0.161001 0.727508
0.602330 0.161768 0.728271
0.718011 0.162535 0.729035
0.833691 0.163302 0.729798
0.949372 0.164068 0.730561
0.026507 0.278902 0.727061
0.142188 0.279669 0.727824
0.257868 0.280435 0.728587
0.373549 0.281202 0.729351
0.489229 0.281969 0.730114
0.604910 0.282736 0.730877
0.720590 0.283503 0.731640
0.836271 0.284270 0.732404
0.951951 0.285037 0.733167
0.029087 0.399870 0.729666
0.144767 0.400637 0.730430
0.260448 0.401404 0.731193
0.376128 0.402171 0.731956
0.491809 0.402938 0.732719
0.607489 0.403704 0.733483
0.723170 0.404471 0.734246
0.838850 0.405238 0.735009
0.954531 0.406005 0.735773
0.031666 0.520838 0.732272
0.147347 0.521605 0.733035
0.263027 0.522372 0.733798
0.378708 0.523139 0.734562
0.494388 0.523906 0.735325
0.610069 0.524673 0.736088
0.725749 0.525440 0.736852
0.841430 0.526206 0.737615
0.957111 0.526973 0.738378
0.034246 0.641807 0.734877
0.149926 0.642574 0.735641
0.265607 0.643340 0.736404
0.381287 0.644107 0.737167
0.496968 0.644874 0.737931
0.612649 0.645641 0.738694
0.728329 0.646408 0.739457
0.844010 0.647175 0.740221
0.959690 0.647942 0.740984
0.036825 0.762775 0.737483
0.152506 0.763542 0.738246
0.268187 0.764309 0.739010
0.383867 0.765076 0.739773
0.499548 0.765842 0.740536
0.615228 0.766609 0.741300
0.730909 0.767376 0.742063
0.846589 0.768143 0.742826
0.962270 0.768910 0.743589
0.039405 0.883743 0.740089
0.155086 0.884510 0.740852
0.270766 0.885277 0.741615
0.386447 0.886044 0.742379
0.502127 0.886811 0.743142
0.617808 0.887578 0.743905
0.733488 0.888345 0.744668
0.849169 0.889111 0.745432
0.964849 0.889878 0.746195
0.041740 0.993236 0.742447
0.157420 0.994003 0.743210
0.273101 0.994770 0.743974
0.388781 0.995537 0.744737
0.504462 0.996304 0.745500
0.620142 0.997071 0.746264
0.735823 0.997838 0.747027
0.851504 0.998604 0.747790
0.967184 0.999371 0.748554
0.021606 0.037227 0.838824
0.137287 0.037994 0.839588
0.252967 0.038761 0.840351
0.368648 0.039528 0.841114
0.484328 0.040294 0.841877
0.600009 0.041061 0.842641
0.715689 0.041828 0.843404
0.831370 0.042595 0.844167
0.947050 0.043362 0.844931
0.024186 0.158195 0.841430
0.139866 0.158962 0.842193
0.255547 0.159729 0.842957
0.371227 0.160496 0.843720
0.486908 0.161263 0.844483
0.602588 0.162030 0.845246
0.718269 0.162797 0.846010
0.833949 0.163563 0.846773
0.949630 0.164330 0.847536
0.026765 0.279164 0.844036
0.142446 0.279930 0.844799
0.258126 0.280697 0.845562
0.373807 0.281464 0.846325
0.489487 0.282231 0.847089
0.605168 0.282998 0.847852
0.720848 0.283765 0.848615
0.836529 0.284532 0.849379
0.952209 0.285299 0.850142
0.029345 0.400132 0.846641
0.145025 0.400899 0.847404
0.260706 0.401666 0.848168
0.376386 0.402432 0.848931
0.492067 0.403199 0.849694
0.607747 0.403966 0.850458
0.723428 0.404733 0.851221
0.839108 0.405500 0.851984
0.954789 0.406267 0.852748
0.031924 0.521100 0.849247
0.147605 0.521867 0.850010
0.263285 0.522634 0.850773
0.378966 0.523401 0.851537
0.494646 0.524168 0.852300
0.610327 0.524935 0.853063
0.726007 0.525701 0.853827
0.841688 0.526468 0.854590
0.957369 0.527235 0.855353
0.034504 0.642068 0.851852
0.150184 0.642835 0.852616
0.265865 0.643602 0.853379
0.381545 0.644369 0.854142
0.497226 0.645136 0.854906
0.612907 0.645903 0.855669
0.728587 0.646670 0.856432
0.844268 0.647437 0.857195
0.959948 0.648204 0.857959
0.037083 0.763037 0.854458
0.152764 0.763804 0.855221
0.268445 0.764571 0.855985
0.384125 0.765337 0.856748
0.499806 0.766104 0.857511
0.615486 0.766871 0.858274
0.731167 0.767638 0.859038
0.846847 0.768405 0.859801
0.962528 0.769172 0.860564
0.039663 0.884005 0.857064
0.155344 0.884772 0.857827
0.271024 0.885539 0.858590
0.386705 0.886306 0.859354
0.502385 0.887073 0.860117
0.618066 0.887839 0.860880
0.733746 0.888606 0.861643
0.849427 0.889373 0.862407
0.965107 0.890140 0.863170
0.041998 0.993498 0.859422
0.157678 0.994265 0.860185
0.273359 0.995032 0.860949
0.389039 0.995799 0.861712
0.504720 0.996566 0.862475
0.620401 0.997333 0.863239
0.736081 0.998099 0.864002
0.851762 0.998866 0.864765
0.967442 0.999633 0.865528
0.021859 0.037483 0.953279
0.137539 0.038250 0.954043
0.253220 0.039017 0.954806
0.368900 0.039784 0.955569
0.484581 0.040551 0.956333
0.600261 0.041318 0.957096
0.715942 0.042084 0.957859
0.831622 0.042851 0.958622
0.947303 0.043618 0.959386
0.024438 0.158451 0.955885
0.140119 0.159218 0.956648
0.255799 0.159985 0.957412
0.371480 0.160752 0.958175
0.487160 0.161519 0.958938
0.602841 0.162286 0.959701
0.718521 0.163053 0.960465
0.834202 0.163820 0.961228
0.949882 0.164586 0.961991
0.027018 0.279420 0.958491
0.142698 0.280187 0.959254
0.258379 0.280954 0.960017
0.374059 0.281720 0.960780
0.489740 0.282487 0.961544
0.605420 0.283254 0.962307
0.721101 0.284021 0.963070
0.836781 0.284788 0.963834
0.952462 0.285555 0.964597
0.029597 0.400388 0.961096
0.145278 0.401155 0.961860
0.260958 0.401922 0.962623
0.376639 0.402689 0.963386
0.492319 0.403456 0.964149
0.608000 0.404222 0.964913
0.723680 0.404989 0.965676
0.839361 0.405756 0.966439
0.955041 0.406523 0.967203
0.032177 0.521356 0.963702
0.147857 0.522123 0.964465
0.263538 0.522890 0.965228
0.379218 0.523657 0.965992
0.494899 0.524424 0.966755
0.610579 0.525191 0.967518
0.726260 0.525958 0.968282
0.841940 0.526725 0.969045
0.957621 0.527491 0.969808
0.034756 0.642325 0.966307
0.150437 0.643092 0.967071
0.266117 0.643858 0.967834
0.381798 0.644625 0.968597
0.497478 0.645392 0.969361
0.613159 0.646159 0.970124
0.728840 0.646926 0.970887
0.844520 0.647693 0.971650
0.960201 0.648460 0.972414
0.037336 0.763293 0.968913
0.153016 0.764060 0.969676
0.268697 0.764827 0.970440
0.384377 0.765594 0.971203
0.500058 0.766361 0.971966
0.615739 0.767127 0.972730
0.731419 0.767894 0.973493
0.847100 0.768661 0.974256
0.962780 0.769428 0.975019
0.039915 0.884261 0.971519
0.155596 0.885028 0.972282
0.271277 0.885795 0.973045
0.386957 0.886562 0.973809
0.502638 0.887329 0.974572
0.618318 0.888096 0.975335
0.733999 0.888863 0.976098
0.849679 0.889629 0.976862
0.965360 0.890396 0.977625
0.042250 0.993754 0.973877
0.157931 0.994521 0.974640
0.273611 0.995288 0.975404
0.389292 0.996055 0.976167
0.504972 0.996822 0.976930
0.620653 0.997589 0.977694
0.736333 0.998356 0.978457
0.852014 0.999123 0.979220
0.967695 0.999889 0.979983
