presets/luts/vintage-fade/vintage-fade.cube
# akari-video catalog LUT: vintage-fade
LUT_3D_SIZE 9
0.109675 0.093677 0.070800
0.195996 0.100277 0.077204
0.282317 0.106876 0.083607
0.368638 0.113475 0.090011
0.454959 0.120074 0.096415
0.541280 0.126673 0.102818
0.627601 0.133272 0.109222
0.713923 0.139871 0.115626
0.785643 0.145353 0.120946
0.131381 0.193536 0.091887
0.217703 0.200135 0.098291
0.304024 0.206734 0.104694
0.390345 0.213333 0.111098
0.476666 0.219932 0.117502
0.562987 0.226531 0.123905
0.649308 0.233130 0.130309
0.735629 0.239729 0.136713
0.807349 0.245212 0.142033
0.153088 0.293395 0.112974
0.239409 0.299994 0.119378
0.325730 0.306593 0.125781
0.412051 0.313192 0.132185
0.498372 0.319791 0.138589
0.584693 0.326390 0.144992
0.671014 0.332989 0.151396
0.757336 0.339588 0.157800
0.829056 0.345071 0.163120
0.174794 0.393254 0.134061
0.261116 0.399853 0.140465
0.347437 0.406452 0.146868
0.433758 0.413051 0.153272
0.520079 0.419650 0.159676
0.606400 0.426249 0.166079
0.692721 0.432848 0.172483
0.779042 0.439447 0.178887
0.850762 0.444930 0.184207
0.196501 0.493112 0.155148
0.282822 0.499711 0.161552
0.369143 0.506310 0.167955
0.455464 0.512909 0.174359
0.541785 0.519508 0.180763
0.628106 0.526107 0.187166
0.714427 0.532706 0.193570
0.800749 0.539305 0.199974
0.872469 0.544788 0.205294
0.218207 0.592971 0.176235
0.304529 0.599570 0.182638
0.390850 0.606169 0.189042
0.477171 0.612768 0.195446
0.563492 0.619367 0.201850
0.649813 0.625966 0.208253
0.736134 0.632565 0.214657
0.822455 0.639164 0.221061
0.894175 0.644647 0.226381
0.239914 0.692830 0.197322
0.326235 0.699429 0.203725
0.412556 0.706028 0.210129
0.498877 0.712627 0.216533
0.585198 0.719226 0.222937
0.671519 0.725825 0.229340
0.757840 0.732424 0.235744
0.844162 0.739023 0.242148
0.915882 0.744506 0.247468
0.261620 0.792688 0.218409
0.347942 0.799287 0.224812
0.434263 0.805886 0.231216
0.520584 0.812485 0.237620
0.606905 0.819085 0.244023
0.693226 0.825684 0.250427
0.779547 0.832283 0.256831
0.865868 0.838882 0.263235
0.937588 0.844364 0.268555
0.283327 0.892547 0.239496
0.369648 0.899146 0.245899
0.455969 0.905745 0.252303
0.542290 0.912344 0.258707
0.628611 0.918943 0.265110
0.714932 0.925542 0.271514
0.801253 0.932141 0.277918
0.887575 0.938740 0.284322
0.959295 0.944223 0.289642
0.111819 0.095824 0.147061
0.198140 0.102423 0.153465
0.284461 0.109022 0.159869
0.370782 0.115621 0.166272
0.457103 0.122220 0.172676
0.543424 0.128819 0.179080
0.629745 0.135418 0.185483
0.716066 0.142017 0.191887
0.787787 0.147500 0.197208
0.133525 0.195682 0.168148
0.219847 0.202282 0.174552
0.306168 0.208881 0.180955
0.392489 0.215480 0.187359
0.478810 0.222079 0.193763
0.565131 0.228678 0.200167
0.651452 0.235277 0.206570
0.737773 0.241876 0.212974
0.809493 0.247358 0.218294
0.155232 0.295541 0.189235
0.241553 0.302140 0.195639
0.327874 0.308739 0.202042
0.414195 0.315338 0.208446
0.500516 0.321937 0.214850
0.586837 0.328536 0.221254
0.673158 0.335135 0.227657
0.759479 0.341734 0.234061
0.831200 0.347217 0.239381
0.176938 0.395400 0.210322
0.263260 0.401999 0.216726
0.349581 0.408598 0.223129
0.435902 0.415197 0.229533
0.522223 0.421796 0.235937
0.608544 0.428395 0.242340
0.694865 0.434994 0.248744
0.781186 0.441593 0.255148
0.852906 0.447076 0.260468
0.198645 0.495259 0.231409
0.284966 0.501858 0.237813
0.371287 0.508457 0.244216
0.457608 0.515056 0.250620
0.543929 0.521655 0.257024
0.630250 0.528254 0.263427
0.716571 0.534853 0.269831
0.802892 0.541452 0.276235
0.874613 0.546935 0.281555
0.220351 0.595117 0.252496
0.306673 0.601716 0.258900
0.392994 0.608315 0.265303
0.479315 0.614914 0.271707
0.565636 0.621513 0.278111
0.651957 0.628112 0.284514
0.738278 0.634711 0.290918
0.824599 0.641310 0.297322
0.896319 0.646793 0.302642
0.242058 0.694976 0.273583
0.328379 0.701575 0.279987
0.414700 0.708174 0.286390
0.501021 0.714773 0.292794
0.587342 0.721372 0.299198
0.673663 0.727971 0.305601
0.759984 0.734570 0.312005
0.846305 0.741169 0.318409
0.918026 0.746652 0.323729
0.263764 0.794835 0.294670
0.350086 0.801434 0.301074
0.436407 0.808033 0.307477
0.522728 0.814632 0.313881
0.609049 0.821231 0.320285
0.695370 0.827830 0.326688
0.781691 0.834429 0.333092
0.868012 0.841028 0.339496
0.939732 0.846511 0.344816
0.285471 0.894693 0.315757
0.371792 0.901292 0.322160
0.458113 0.907891 0.328564
0.544434 0.914490 0.334968
0.630755 0.921090 0.341372
0.717076 0.927689 0.347775
0.803397 0.934288 0.354179
0.889718 0.940887 0.360583
0.961439 0.946369 0.365903
0.113963 0.097970 0.223322
0.200284 0.104569 0.229726
0.286605 0.111168 0.236130
0.372926 0.117767 0.242533
0.459247 0.124366 0.248937
0.545568 0.130965 0.255341
0.631889 0.137564 0.261744
0.718210 0.144163 0.268148
0.789931 0.149646 0.273469
0.135669 0.197829 0.244409
0.221990 0.204428 0.250813
0.308312 0.211027 0.257217
0.394633 0.217626 0.263620
0.480954 0.224225 0.270024
0.567275 0.230824 0.276428
0.653596 0.237423 0.282831
0.739917 0.244022 0.289235
0.811637 0.249505 0.294556
0.157376 0.297687 0.265496
0.243697 0.304287 0.271900
0.330018 0.310886 0.278304
0.416339 0.317485 0.284707
0.502660 0.324084 0.291111
0.588981 0.330683 0.297515
0.675302 0.337282 0.303918
0.761623 0.343881 0.310322
0.833344 0.349363 0.315643
0.179082 0.397546 0.286583
0.265403 0.404145 0.292987
0.351725 0.410744 0.299391
0.438046 0.417343 0.305794
0.524367 0.423942 0.312198
0.610688 0.430541 0.318602
0.697009 0.437140 0.325005
0.783330 0.443739 0.331409
0.855050 0.449222 0.336730
0.200789 0.497405 0.307670
0.287110 0.504004 0.314074
0.373431 0.510603 0.320477
0.459752 0.517202 0.326881
0.546073 0.523801 0.333285
0.632394 0.530400 0.339689
0.718715 0.536999 0.346092
0.805036 0.543598 0.352496
0.876757 0.549081 0.357816
0.222495 0.597264 0.328757
0.308816 0.603863 0.335161
0.395138 0.610462 0.341564
0.481459 0.617061 0.347968
0.567780 0.623660 0.354372
0.654101 0.630259 0.360776
0.740422 0.636858 0.367179
0.826743 0.643457 0.373583
0.898463 0.648940 0.378903
0.244202 0.697122 0.349844
0.330523 0.703721 0.356248
0.416844 0.710320 0.362651
0.503165 0.716919 0.369055
0.589486 0.723518 0.375459
0.675807 0.730117 0.381862
0.762128 0.736716 0.388266
0.848449 0.743315 0.394670
0.920170 0.748798 0.399990
0.265908 0.796981 0.370931
0.352229 0.803580 0.377335
0.438551 0.810179 0.383738
0.524872 0.816778 0.390142
0.611193 0.823377 0.396546
0.697514 0.829976 0.402949
0.783835 0.836575 0.409353
0.870156 0.843174 0.415757
0.941876 0.848657 0.421077
0.287615 0.896840 0.392018
0.373936 0.903439 0.398422
0.460257 0.910038 0.404825
0.546578 0.916637 0.411229
0.632899 0.923236 0.417633
0.719220 0.929835 0.424036
0.805541 0.936434 0.430440
0.891862 0.943033 0.436844
0.963583 0.948516 0.442164
0.116107 0.100116 0.299583
0.202428 0.106715 0.305987
0.288749 0.113314 0.312391
0.375070 0.119913 0.318794
0.461391 0.126512 0.325198
0.547712 0.133111 0.331602
0.634033 0.139710 0.338006
0.720354 0.146310 0.344409
0.792075 0.151792 0.349730
0.137813 0.199975 0.320670
0.224134 0.206574 0.327074
0.310456 0.213173 0.333478
0.396777 0.219772 0.339881
0.483098 0.226371 0.346285
0.569419 0.232970 0.352689
0.655740 0.239569 0.359093
0.742061 0.246168 0.365496
0.813781 0.251651 0.370817
0.159520 0.299834 0.341757
0.245841 0.306433 0.348161
0.332162 0.313032 0.354565
0.418483 0.319631 0.360968
0.504804 0.326230 0.367372
0.591125 0.332829 0.373776
0.677446 0.339428 0.380179
0.763767 0.346027 0.386583
0.835488 0.351510 0.391904
0.181226 0.399692 0.362844
0.267547 0.406292 0.369248
0.353869 0.412891 0.375652
0.440190 0.419490 0.382055
0.526511 0.426089 0.388459
0.612832 0.432688 0.394863
0.699153 0.439287 0.401266
0.785474 0.445886 0.407670
0.857194 0.451368 0.412991
0.202933 0.499551 0.383931
0.289254 0.506150 0.390335
0.375575 0.512749 0.396739
0.461896 0.519348 0.403142
0.548217 0.525947 0.409546
0.634538 0.532546 0.415950
0.720859 0.539145 0.422353
0.807180 0.545744 0.428757
0.878901 0.551227 0.434078
0.224639 0.599410 0.405018
0.310960 0.606009 0.411422
0.397282 0.612608 0.417826
0.483603 0.619207 0.424229
0.569924 0.625806 0.430633
0.656245 0.632405 0.437037
0.742566 0.639004 0.443440
0.828887 0.645603 0.449844
0.900607 0.651086 0.455165
0.246346 0.699269 0.426105
0.332667 0.705868 0.432509
0.418988 0.712467 0.438913
0.505309 0.719066 0.445316
0.591630 0.725665 0.451720
0.677951 0.732264 0.458124
0.764272 0.738863 0.464527
0.850593 0.745462 0.470931
0.922314 0.750945 0.476252
0.268052 0.799127 0.447192
0.354373 0.805726 0.453596
0.440695 0.812325 0.459999
0.527016 0.818924 0.466403
0.613337 0.825523 0.472807
0.699658 0.832122 0.479211
0.785979 0.838721 0.485614
0.872300 0.845320 0.492018
0.944020 0.850803 0.497338
0.289759 0.898986 0.468279
0.376080 0.905585 0.474683
0.462401 0.912184 0.481086
0.548722 0.918783 0.487490
0.635043 0.925382 0.493894
0.721364 0.931981 0.500298
0.807685 0.938580 0.506701
0.894006 0.945179 0.513105
0.965727 0.950662 0.518425
0.118251 0.102263 0.375845
0.204572 0.108862 0.382248
0.290893 0.115461 0.388652
0.377214 0.122060 0.395056
0.463535 0.128659 0.401459
0.549856 0.135258 0.407863
0.636177 0.141857 0.414267
0.722498 0.148456 0.420670
0.794219 0.153939 0.425991
0.139957 0.202121 0.396932
0.226278 0.208720 0.403335
0.312599 0.215319 0.409739
0.398921 0.221918 0.416143
0.485242 0.228517 0.422546
0.571563 0.235116 0.428950
0.657884 0.241715 0.435354
0.744205 0.248315 0.441757
0.815925 0.253797 0.447078
0.161664 0.301980 0.418018
0.247985 0.308579 0.424422
0.334306 0.315178 0.430826
0.420627 0.321777 0.437230
0.506948 0.328376 0.443633
0.593269 0.334975 0.450037
0.679590 0.341574 0.456441
0.765911 0.348173 0.462844
0.837632 0.353656 0.468165
0.183370 0.401839 0.439105
0.269691 0.408438 0.445509
0.356012 0.415037 0.451913
0.442334 0.421636 0.458317
0.528655 0.428235 0.464720
0.614976 0.434834 0.471124
0.701297 0.441433 0.477528
0.787618 0.448032 0.483931
0.859338 0.453515 0.489252
0.205077 0.501697 0.460192
0.291398 0.508297 0.466596
0.377719 0.514896 0.473000
0.464040 0.521495 0.479403
0.550361 0.528094 0.485807
0.636682 0.534693 0.492211
0.723003 0.541292 0.498615
0.809324 0.547891 0.505018
0.881045 0.553373 0.510339
0.226783 0.601556 0.481279
0.313104 0.608155 0.487683
0.399425 0.614754 0.494087
0.485747 0.621353 0.500490
0.572068 0.627952 0.506894
0.658389 0.634551 0.513298
0.744710 0.641150 0.519701
0.831031 0.647749 0.526105
0.902751 0.653232 0.531426
0.248490 0.701415 0.502366
0.334811 0.708014 0.508770
0.421132 0.714613 0.515174
0.507453 0.721212 0.521577
0.593774 0.727811 0.527981
0.680095 0.734410 0.534385
0.766416 0.741009 0.540788
0.852737 0.747608 0.547192
0.924458 0.753091 0.552513
0.270196 0.801274 0.523453
0.356517 0.807873 0.529857
0.442838 0.814472 0.536261
0.529160 0.821071 0.542664
0.615481 0.827670 0.549068
0.701802 0.834269 0.555472
0.788123 0.840868 0.561875
0.874444 0.847467 0.568279
0.946164 0.852950 0.573600
0.291903 0.901132 0.544540
0.378224 0.907731 0.550944
0.464545 0.914330 0.557348
0.550866 0.920929 0.563751
0.637187 0.927528 0.570155
0.723508 0.934127 0.576559
0.809829 0.940726 0.582962
0.896150 0.947325 0.589366
0.967871 0.952808 0.594687
0.120395 0.104409 0.452106
0.206716 0.111008 0.458509
0.293037 0.117607 0.464913
0.379358 0.124206 0.471317
0.465679 0.130805 0.477720
0.552000 0.137404 0.484124
0.638321 0.144003 0.490528
0.724642 0.150602 0.496932
0.796362 0.156085 0.502252
0.142101 0.204268 0.473193
0.228422 0.210867 0.479596
0.314743 0.217466 0.486000
0.401065 0.224065 0.492404
0.487386 0.230664 0.498807
0.573707 0.237263 0.505211
0.660028 0.243862 0.511615
0.746349 0.250461 0.518019
0.818069 0.255944 0.523339
0.163808 0.304126 0.494280
0.250129 0.310725 0.500683
0.336450 0.317324 0.507087
0.422771 0.323923 0.513491
0.509092 0.330522 0.519894
0.595413 0.337121 0.526298
0.681734 0.343720 0.532702
0.768055 0.350320 0.539105
0.839775 0.355802 0.544426
0.185514 0.403985 0.515367
0.271835 0.410584 0.521770
0.358156 0.417183 0.528174
0.444478 0.423782 0.534578
0.530799 0.430381 0.540981
0.617120 0.436980 0.547385
0.703441 0.443579 0.553789
0.789762 0.450178 0.560192
0.861482 0.455661 0.565513
0.207221 0.503844 0.536454
0.293542 0.510443 0.542857
0.379863 0.517042 0.549261
0.466184 0.523641 0.555665
0.552505 0.530240 0.562068
0.638826 0.536839 0.568472
0.725147 0.543438 0.574876
0.811468 0.550037 0.581279
0.883188 0.555520 0.586600
0.228927 0.603702 0.557540
0.315248 0.610302 0.563944
0.401569 0.616901 0.570348
0.487891 0.623500 0.576752
0.574212 0.630099 0.583155
0.660533 0.636698 0.589559
0.746854 0.643297 0.595963
0.833175 0.649896 0.602366
0.904895 0.655378 0.607687
0.250634 0.703561 0.578627
0.336955 0.710160 0.585031
0.423276 0.716759 0.591435
0.509597 0.723358 0.597839
0.595918 0.729957 0.604242
0.682239 0.736556 0.610646
0.768560 0.743155 0.617050
0.854881 0.749754 0.623453
0.926601 0.755237 0.628774
0.272340 0.803420 0.599714
0.358661 0.810019 0.606118
0.444982 0.816618 0.612522
0.531304 0.823217 0.618925
0.617625 0.829816 0.625329
0.703946 0.836415 0.631733
0.790267 0.843014 0.638137
0.876588 0.849613 0.644540
0.948308 0.855096 0.649861
0.294047 0.903279 0.620801
0.380368 0.909878 0.627205
0.466689 0.916477 0.633609
0.553010 0.923076 0.640012
0.639331 0.929675 0.646416
0.725652 0.936274 0.652820
0.811973 0.942873 0.659224
0.898294 0.949472 0.665627
0.970014 0.954955 0.670948
0.122539 0.106555 0.528367
0.208860 0.113154 0.534771
0.295181 0.119753 0.541174
0.381502 0.126352 0.547578
0.467823 0.132951 0.553982
0.554144 0.139550 0.560385
0.640465 0.146149 0.566789
0.726786 0.152748 0.573193
0.798506 0.158231 0.578513
0.144245 0.206414 0.549454
0.230566 0.213013 0.555857
0.316887 0.219612 0.562261
0.403208 0.226211 0.568665
0.489530 0.232810 0.575069
0.575851 0.239409 0.581472
0.662172 0.246008 0.587876
0.748493 0.252607 0.594280
0.820213 0.258090 0.599600
0.165952 0.306273 0.570541
0.252273 0.312872 0.576944
0.338594 0.319471 0.583348
0.424915 0.326070 0.589752
0.511236 0.332669 0.596156
0.597557 0.339268 0.602559
0.683878 0.345867 0.608963
0.770199 0.352466 0.615367
0.841919 0.357949 0.620687
0.187658 0.406131 0.591628
0.273979 0.412730 0.598031
0.360300 0.419329 0.604435
0.446621 0.425928 0.610839
0.532943 0.432527 0.617242
0.619264 0.439126 0.623646
0.705585 0.445725 0.630050
0.791906 0.452325 0.636454
0.863626 0.457807 0.641774
0.209365 0.505990 0.612715
0.295686 0.512589 0.619118
0.382007 0.519188 0.625522
0.468328 0.525787 0.631926
0.554649 0.532386 0.638329
0.640970 0.538985 0.644733
0.727291 0.545584 0.651137
0.813612 0.552183 0.657541
0.885332 0.557666 0.662861
0.231071 0.605849 0.633802
0.317392 0.612448 0.640205
0.403713 0.619047 0.646609
0.490034 0.625646 0.653013
0.576356 0.632245 0.659416
0.662677 0.638844 0.665820
0.748998 0.645443 0.672224
0.835319 0.652042 0.678627
0.907039 0.657525 0.683948
0.252778 0.705707 0.654889
0.339099 0.712307 0.661292
0.425420 0.718906 0.667696
0.511741 0.725505 0.674100
0.598062 0.732104 0.680503
0.684383 0.738703 0.686907
0.770704 0.745302 0.693311
0.857025 0.751901 0.699714
0.928745 0.757383 0.705035
0.274484 0.805566 0.675976
0.360805 0.812165 0.682379
0.447126 0.818764 0.688783
0.533447 0.825363 0.695187
0.619769 0.831962 0.701590
0.706090 0.838561 0.707994
0.792411 0.845160 0.714398
0.878732 0.851759 0.720801
0.950452 0.857242 0.726122
0.296191 0.905425 0.697062
0.382512 0.912024 0.703466
0.468833 0.918623 0.709870
0.555154 0.925222 0.716274
0.641475 0.931821 0.722677
0.727796 0.938420 0.729081
0.814117 0.945019 0.735485
0.900438 0.951618 0.741888
0.972158 0.957101 0.747209
0.124683 0.108702 0.604628
0.211004 0.115301 0.611032
0.297325 0.121900 0.617435
0.383646 0.128499 0.623839
0.469967 0.135098 0.630243
0.556288 0.141697 0.636646
0.642609 0.148296 0.643050
0.728930 0.154895 0.649454
0.800650 0.160378 0.654774
0.146389 0.208560 0.625715
0.232710 0.215159 0.632119
0.319031 0.221758 0.638522
0.405352 0.228357 0.644926
0.491673 0.234956 0.651330
0.577995 0.241555 0.657733
0.664316 0.248154 0.664137
0.750637 0.254753 0.670541
0.822357 0.260236 0.675861
0.168096 0.308419 0.646802
0.254417 0.315018 0.653206
0.340738 0.321617 0.659609
0.427059 0.328216 0.666013
0.513380 0.334815 0.672417
0.599701 0.341414 0.678820
0.686022 0.348013 0.685224
0.772343 0.354612 0.691628
0.844063 0.360095 0.696948
0.189802 0.408278 0.667889
0.276123 0.414877 0.674293
0.362444 0.421476 0.680696
0.448765 0.428075 0.687100
0.535086 0.434674 0.693504
0.621408 0.441273 0.699907
0.707729 0.447872 0.706311
0.794050 0.454471 0.712715
0.865770 0.459954 0.718035
0.211509 0.508136 0.688976
0.297830 0.514735 0.695379
0.384151 0.521334 0.701783
0.470472 0.527933 0.708187
0.556793 0.534532 0.714591
0.643114 0.541131 0.720994
0.729435 0.547730 0.727398
0.815756 0.554330 0.733802
0.887476 0.559812 0.739122
0.233215 0.607995 0.710063
0.319536 0.614594 0.716466
0.405857 0.621193 0.722870
0.492178 0.627792 0.729274
0.578499 0.634391 0.735678
0.664821 0.640990 0.742081
0.751142 0.647589 0.748485
0.837463 0.654188 0.754889
0.909183 0.659671 0.760209
0.254922 0.707854 0.731150
0.341243 0.714453 0.737553
0.427564 0.721052 0.743957
0.513885 0.727651 0.750361
0.600206 0.734250 0.756764
0.686527 0.740849 0.763168
0.772848 0.747448 0.769572
0.859169 0.754047 0.775976
0.930889 0.759530 0.781296
0.276628 0.807712 0.752237
0.362949 0.814311 0.758640
0.449270 0.820911 0.765044
0.535591 0.827510 0.771448
0.621912 0.834109 0.777851
0.708234 0.840708 0.784255
0.794555 0.847307 0.790659
0.880876 0.853906 0.797063
0.952596 0.859388 0.802383
0.298335 0.907571 0.773324
0.384656 0.914170 0.779727
0.470977 0.920769 0.786131
0.557298 0.927368 0.792535
0.643619 0.933967 0.798938
0.729940 0.940566 0.805342
0.816261 0.947165 0.811746
0.902582 0.953764 0.818149
0.974302 0.959247 0.823470
0.126827 0.110848 0.680889
0.213148 0.117447 0.687293
0.299469 0.124046 0.693696
0.385790 0.130645 0.700100
0.472111 0.137244 0.706504
0.558432 0.143843 0.712908
0.644753 0.150442 0.719311
0.731074 0.157041 0.725715
0.802794 0.162524 0.731035
0.148533 0.210707 0.701976
0.234854 0.217306 0.708380
0.321175 0.223905 0.714783
0.407496 0.230504 0.721187
0.493817 0.237103 0.727591
0.580139 0.243702 0.733995
0.666460 0.250301 0.740398
0.752781 0.256900 0.746802
0.824501 0.262383 0.752122
0.170240 0.310565 0.723063
0.256561 0.317164 0.729467
0.342882 0.323763 0.735870
0.429203 0.330362 0.742274
0.515524 0.336961 0.748678
0.601845 0.343560 0.755081
0.688166 0.350159 0.761485
0.774487 0.356758 0.767889
0.846207 0.362241 0.773209
0.191946 0.410424 0.744150
0.278267 0.417023 0.750554
0.364588 0.423622 0.756957
0.450909 0.430221 0.763361
0.537230 0.436820 0.769765
0.623552 0.443419 0.776168
0.709873 0.450018 0.782572
0.796194 0.456617 0.788976
0.867914 0.462100 0.794296
0.213653 0.510283 0.765237
0.299974 0.516882 0.771641
0.386295 0.523481 0.778044
0.472616 0.530080 0.784448
0.558937 0.536679 0.790852
0.645258 0.543278 0.797255
0.731579 0.549877 0.803659
0.817900 0.556476 0.810063
0.889620 0.561959 0.815383
0.235359 0.610141 0.786324
0.321680 0.616740 0.792728
0.408001 0.623339 0.799131
0.494322 0.629938 0.805535
0.580643 0.636537 0.811939
0.666965 0.643136 0.818342
0.753286 0.649735 0.824746
0.839607 0.656335 0.831150
0.911327 0.661817 0.836470
0.257066 0.710000 0.807411
0.343387 0.716599 0.813815
0.429708 0.723198 0.820218
0.516029 0.729797 0.826622
0.602350 0.736396 0.833026
0.688671 0.742995 0.839429
0.774992 0.749594 0.845833
0.861313 0.756193 0.852237
0.933033 0.761676 0.857557
0.278772 0.809859 0.828498
0.365093 0.816458 0.834901
0.451414 0.823057 0.841305
0.537735 0.829656 0.847709
0.624056 0.836255 0.854113
0.710378 0.842854 0.860516
0.796699 0.849453 0.866920
0.883020 0.856052 0.873324
0.954740 0.861535 0.878644
0.300479 0.909717 0.849585
0.386800 0.916316 0.855988
0.473121 0.922916 0.862392
0.559442 0.929515 0.868796
0.645763 0.936114 0.875200
0.732084 0.942713 0.881603
0.818405 0.949312 0.888007
0.904726 0.955911 0.894411
0.976446 0.961393 0.899731
