presets/luts/vintage-fade/vintage-fade.cube
# akari-video catalog LUT: vintage-fade
LUT_3D_SIZE 33
0.109675 0.093677 0.070800
0.131255 0.095327 0.072401
0.152836 0.096977 0.074002
0.174416 0.098627 0.075603
0.195996 0.100277 0.077204
0.217576 0.101926 0.078805
0.239157 0.103576 0.080406
0.260737 0.105226 0.082006
0.282317 0.106876 0.083607
0.303897 0.108525 0.085208
0.325478 0.110175 0.086809
0.347058 0.111825 0.088410
0.368638 0.113475 0.090011
0.390218 0.115124 0.091612
0.411799 0.116774 0.093213
0.433379 0.118424 0.094814
0.454959 0.120074 0.096415
0.476540 0.121723 0.098016
0.498120 0.123373 0.099617
0.519700 0.125023 0.101218
0.541280 0.126673 0.102818
0.562861 0.128322 0.104419
0.584441 0.129972 0.106020
0.606021 0.131622 0.107621
0.627601 0.133272 0.109222
0.649182 0.134921 0.110823
0.670762 0.136571 0.112424
0.692342 0.138221 0.114025
0.713923 0.139871 0.115626
0.735503 0.141520 0.117227
0.757083 0.143170 0.118828
0.778663 0.144820 0.120429
0.785643 0.145353 0.120946
0.115102 0.118642 0.076072
0.136682 0.120292 0.077673
0.158262 0.121942 0.079274
0.179842 0.123591 0.080875
0.201423 0.125241 0.082475
0.223003 0.126891 0.084076
0.244583 0.128541 0.085677
0.266164 0.130190 0.087278
0.287744 0.131840 0.088879
0.309324 0.133490 0.090480
0.330904 0.135140 0.092081
0.352485 0.136789 0.093682
0.374065 0.138439 0.095283
0.395645 0.140089 0.096884
0.417225 0.141739 0.098485
0.438806 0.143389 0.100086
0.460386 0.145038 0.101687
0.481966 0.146688 0.103287
0.503546 0.148338 0.104888
0.525127 0.149988 0.106489
0.546707 0.151637 0.108090
0.568287 0.153287 0.109691
0.589868 0.154937 0.111292
0.611448 0.156587 0.112893
0.633028 0.158236 0.114494
0.654608 0.159886 0.116095
0.676189 0.161536 0.117696
0.697769 0.163186 0.119297
0.719349 0.164835 0.120898
0.740929 0.166485 0.122499
0.762510 0.168135 0.124099
0.784090 0.169785 0.125700
0.791069 0.170318 0.126218
0.120528 0.143607 0.081343
0.142109 0.145257 0.082944
0.163689 0.146906 0.084545
0.185269 0.148556 0.086146
0.206849 0.150206 0.087747
0.228430 0.151856 0.089348
0.250010 0.153505 0.090949
0.271590 0.155155 0.092550
0.293170 0.156805 0.094151
0.314751 0.158455 0.095752
0.336331 0.160104 0.097353
0.357911 0.161754 0.098954
0.379491 0.163404 0.100555
0.401072 0.165054 0.102155
0.422652 0.166703 0.103756
0.444232 0.168353 0.105357
0.465813 0.170003 0.106958
0.487393 0.171653 0.108559
0.508973 0.173302 0.110160
0.530553 0.174952 0.111761
0.552134 0.176602 0.113362
0.573714 0.178252 0.114963
0.595294 0.179901 0.116564
0.616874 0.181551 0.118165
0.638455 0.183201 0.119766
0.660035 0.184851 0.121367
0.681615 0.186500 0.122967
0.703196 0.188150 0.124568
0.724776 0.189800 0.126169
0.746356 0.191450 0.127770
0.767936 0.193100 0.129371
0.789517 0.194749 0.130972
0.796496 0.195283 0.131490
0.125955 0.168572 0.086615
0.147535 0.170221 0.088216
0.169115 0.171871 0.089817
0.190696 0.173521 0.091418
0.212276 0.175171 0.093019
0.233856 0.176820 0.094620
0.255436 0.178470 0.096221
0.277017 0.180120 0.097822
0.298597 0.181770 0.099423
0.320177 0.183419 0.101024
0.341758 0.185069 0.102624
0.363338 0.186719 0.104225
0.384918 0.188369 0.105826
0.406498 0.190018 0.107427
0.428079 0.191668 0.109028
0.449659 0.193318 0.110629
0.471239 0.194968 0.112230
0.492819 0.196617 0.113831
0.514400 0.198267 0.115432
0.535980 0.199917 0.117033
0.557560 0.201567 0.118634
0.579141 0.203216 0.120235
0.600721 0.204866 0.121836
0.622301 0.206516 0.123436
0.643881 0.208166 0.125037
0.665462 0.209815 0.126638
0.687042 0.211465 0.128239
0.708622 0.213115 0.129840
0.730202 0.214765 0.131441
0.751783 0.216414 0.133042
0.773363 0.218064 0.134643
0.794943 0.219714 0.136244
0.801923 0.220247 0.136762
0.131381 0.193536 0.091887
0.152962 0.195186 0.093488
0.174542 0.196836 0.095089
0.196122 0.198485 0.096690
0.217703 0.200135 0.098291
0.239283 0.201785 0.099892
0.260863 0.203435 0.101492
0.282443 0.205084 0.103093
0.304024 0.206734 0.104694
0.325604 0.208384 0.106295
0.347184 0.210034 0.107896
0.368764 0.211684 0.109497
0.390345 0.213333 0.111098
0.411925 0.214983 0.112699
0.433505 0.216633 0.114300
0.455086 0.218283 0.115901
0.476666 0.219932 0.117502
0.498246 0.221582 0.119103
0.519826 0.223232 0.120704
0.541407 0.224882 0.122305
0.562987 0.226531 0.123905
0.584567 0.228181 0.125506
0.606147 0.229831 0.127107
0.627728 0.231481 0.128708
0.649308 0.233130 0.130309
0.670888 0.234780 0.131910
0.692468 0.236430 0.133511
0.714049 0.238080 0.135112
0.735629 0.239729 0.136713
0.757209 0.241379 0.138314
0.778790 0.243029 0.139915
0.800370 0.244679 0.141516
0.807349 0.245212 0.142033
0.136808 0.218501 0.097159
0.158388 0.220151 0.098760
0.179969 0.221800 0.100361
0.201549 0.223450 0.101961
0.223129 0.225100 0.103562
0.244709 0.226750 0.105163
0.266290 0.228399 0.106764
0.287870 0.230049 0.108365
0.309450 0.231699 0.109966
0.331031 0.233349 0.111567
0.352611 0.234998 0.113168
0.374191 0.236648 0.114769
0.395771 0.238298 0.116370
0.417352 0.239948 0.117971
0.438932 0.241597 0.119572
0.460512 0.243247 0.121173
0.482092 0.244897 0.122773
0.503673 0.246547 0.124374
0.525253 0.248196 0.125975
0.546833 0.249846 0.127576
0.568414 0.251496 0.129177
0.589994 0.253146 0.130778
0.611574 0.254795 0.132379
0.633154 0.256445 0.133980
0.654735 0.258095 0.135581
0.676315 0.259745 0.137182
0.697895 0.261395 0.138783
0.719475 0.263044 0.140384
0.741056 0.264694 0.141985
0.762636 0.266344 0.143585
0.784216 0.267994 0.145186
0.805796 0.269643 0.146787
0.812776 0.270177 0.147305
0.142235 0.243466 0.102430
0.163815 0.245115 0.104031
0.185395 0.246765 0.105632
0.206976 0.248415 0.107233
0.228556 0.250065 0.108834
0.250136 0.251714 0.110435
0.271716 0.253364 0.112036
0.293297 0.255014 0.113637
0.314877 0.256664 0.115238
0.336457 0.258313 0.116839
0.358037 0.259963 0.118440
0.379618 0.261613 0.120041
0.401198 0.263263 0.121642
0.422778 0.264912 0.123242
0.444359 0.266562 0.124843
0.465939 0.268212 0.126444
0.487519 0.269862 0.128045
0.509099 0.271511 0.129646
0.530680 0.273161 0.131247
0.552260 0.274811 0.132848
0.573840 0.276461 0.134449
0.595420 0.278110 0.136050
0.617001 0.279760 0.137651
0.638581 0.281410 0.139252
0.660161 0.283060 0.140853
0.681741 0.284709 0.142454
0.703322 0.286359 0.144054
0.724902 0.288009 0.145655
0.746482 0.289659 0.147256
0.768063 0.291308 0.148857
0.789643 0.292958 0.150458
0.811223 0.294608 0.152059
0.818202 0.295142 0.152577
0.147661 0.268430 0.107702
0.169242 0.270080 0.109303
0.190822 0.271730 0.110904
0.212402 0.273379 0.112505
0.233982 0.275029 0.114106
0.255563 0.276679 0.115707
0.277143 0.278329 0.117308
0.298723 0.279979 0.118909
0.320304 0.281628 0.120510
0.341884 0.283278 0.122110
0.363464 0.284928 0.123711
0.385044 0.286578 0.125312
0.406625 0.288227 0.126913
0.428205 0.289877 0.128514
0.449785 0.291527 0.130115
0.471365 0.293177 0.131716
0.492946 0.294826 0.133317
0.514526 0.296476 0.134918
0.536106 0.298126 0.136519
0.557686 0.299776 0.138120
0.579267 0.301425 0.139721
0.600847 0.303075 0.141322
0.622427 0.304725 0.142922
0.644008 0.306375 0.144523
0.665588 0.308024 0.146124
0.687168 0.309674 0.147725
0.708748 0.311324 0.149326
0.730329 0.312974 0.150927
0.751909 0.314623 0.152528
0.773489 0.316273 0.154129
0.795069 0.317923 0.155730
0.816650 0.319573 0.157331
0.823629 0.320106 0.157849
0.153088 0.293395 0.112974
0.174668 0.295045 0.114575
0.196249 0.296694 0.116176
0.217829 0.298344 0.117777
0.239409 0.299994 0.119378
0.260989 0.301644 0.120979
0.282570 0.303293 0.122579
0.304150 0.304943 0.124180
0.325730 0.306593 0.125781
0.347310 0.308243 0.127382
0.368891 0.309892 0.128983
0.390471 0.311542 0.130584
0.412051 0.313192 0.132185
0.433631 0.314842 0.133786
0.455212 0.316491 0.135387
0.476792 0.318141 0.136988
0.498372 0.319791 0.138589
0.519953 0.321441 0.140190
0.541533 0.323090 0.141791
0.563113 0.324740 0.143391
0.584693 0.326390 0.144992
0.606274 0.328040 0.146593
0.627854 0.329690 0.148194
0.649434 0.331339 0.149795
0.671014 0.332989 0.151396
0.692595 0.334639 0.152997
0.714175 0.336289 0.154598
0.735755 0.337938 0.156199
0.757336 0.339588 0.157800
0.778916 0.341238 0.159401
0.800496 0.342888 0.161002
0.822076 0.344537 0.162603
0.829056 0.345071 0.163120
0.158515 0.318360 0.118246
0.180095 0.320009 0.119847
0.201675 0.321659 0.121447
0.223255 0.323309 0.123048
0.244836 0.324959 0.124649
0.266416 0.326608 0.126250
0.287996 0.328258 0.127851
0.309577 0.329908 0.129452
0.331157 0.331558 0.131053
0.352737 0.333207 0.132654
0.374317 0.334857 0.134255
0.395898 0.336507 0.135856
0.417478 0.338157 0.137457
0.439058 0.339806 0.139058
0.460638 0.341456 0.140659
0.482219 0.343106 0.142260
0.503799 0.344756 0.143860
0.525379 0.346405 0.145461
0.546959 0.348055 0.147062
0.568540 0.349705 0.148663
0.590120 0.351355 0.150264
0.611700 0.353004 0.151865
0.633281 0.354654 0.153466
0.654861 0.356304 0.155067
0.676441 0.357954 0.156668
0.698021 0.359603 0.158269
0.719602 0.361253 0.159870
0.741182 0.362903 0.161471
0.762762 0.364553 0.163072
0.784342 0.366202 0.164672
0.805923 0.367852 0.166273
0.827503 0.369502 0.167874
0.834482 0.370036 0.168392
0.163941 0.343324 0.123517
0.185522 0.344974 0.125118
0.207102 0.346624 0.126719
0.228682 0.348274 0.128320
0.250262 0.349923 0.129921
0.271843 0.351573 0.131522
0.293423 0.353223 0.133123
0.315003 0.354873 0.134724
0.336583 0.356522 0.136325
0.358164 0.358172 0.137926
0.379744 0.359822 0.139527
0.401324 0.361472 0.141128
0.422904 0.363121 0.142728
0.444485 0.364771 0.144329
0.466065 0.366421 0.145930
0.487645 0.368071 0.147531
0.509226 0.369720 0.149132
0.530806 0.371370 0.150733
0.552386 0.373020 0.152334
0.573966 0.374670 0.153935
0.595547 0.376319 0.155536
0.617127 0.377969 0.157137
0.638707 0.379619 0.158738
0.660287 0.381269 0.160339
0.681868 0.382918 0.161940
0.703448 0.384568 0.163540
0.725028 0.386218 0.165141
0.746609 0.387868 0.166742
0.768189 0.389517 0.168343
0.789769 0.391167 0.169944
0.811349 0.392817 0.171545
0.832930 0.394467 0.173146
0.839909 0.395000 0.173664
0.169368 0.368289 0.128789
0.190948 0.369939 0.130390
0.212528 0.371588 0.131991
0.234109 0.373238 0.133592
0.255689 0.374888 0.135193
0.277269 0.376538 0.136794
0.298849 0.378187 0.138395
0.320430 0.379837 0.139996
0.342010 0.381487 0.141597
0.363590 0.383137 0.143197
0.385171 0.384786 0.144798
0.406751 0.386436 0.146399
0.428331 0.388086 0.148000
0.449911 0.389736 0.149601
0.471492 0.391386 0.151202
0.493072 0.393035 0.152803
0.514652 0.394685 0.154404
0.536232 0.396335 0.156005
0.557813 0.397985 0.157606
0.579393 0.399634 0.159207
0.600973 0.401284 0.160808
0.622554 0.402934 0.162409
0.644134 0.404584 0.164009
0.665714 0.406233 0.165610
0.687294 0.407883 0.167211
0.708875 0.409533 0.168812
0.730455 0.411183 0.170413
0.752035 0.412832 0.172014
0.773615 0.414482 0.173615
0.795196 0.416132 0.175216
0.816776 0.417782 0.176817
0.838356 0.419431 0.178418
0.845336 0.419965 0.178936
0.174794 0.393254 0.134061
0.196375 0.394903 0.135662
0.217955 0.396553 0.137263
0.239535 0.398203 0.138864
0.261116 0.399853 0.140465
0.282696 0.401502 0.142065
0.304276 0.403152 0.143666
0.325856 0.404802 0.145267
0.347437 0.406452 0.146868
0.369017 0.408101 0.148469
0.390597 0.409751 0.150070
0.412177 0.411401 0.151671
0.433758 0.413051 0.153272
0.455338 0.414700 0.154873
0.476918 0.416350 0.156474
0.498499 0.418000 0.158075
0.520079 0.419650 0.159676
0.541659 0.421299 0.161277
0.563239 0.422949 0.162877
0.584820 0.424599 0.164478
0.606400 0.426249 0.166079
0.627980 0.427898 0.167680
0.649560 0.429548 0.169281
0.671141 0.431198 0.170882
0.692721 0.432848 0.172483
0.714301 0.434497 0.174084
0.735881 0.436147 0.175685
0.757462 0.437797 0.177286
0.779042 0.439447 0.178887
0.800622 0.441097 0.180488
0.822203 0.442746 0.182089
0.843783 0.444396 0.183689
0.850762 0.444930 0.184207
0.180221 0.418218 0.139333
0.201801 0.419868 0.140934
0.223382 0.421518 0.142534
0.244962 0.423168 0.144135
0.266542 0.424817 0.145736
0.288122 0.426467 0.147337
0.309703 0.428117 0.148938
0.331283 0.429767 0.150539
0.352863 0.431416 0.152140
0.374444 0.433066 0.153741
0.396024 0.434716 0.155342
0.417604 0.436366 0.156943
0.439184 0.438015 0.158544
0.460765 0.439665 0.160145
0.482345 0.441315 0.161746
0.503925 0.442965 0.163346
0.525505 0.444614 0.164947
0.547086 0.446264 0.166548
0.568666 0.447914 0.168149
0.590246 0.449564 0.169750
0.611827 0.451213 0.171351
0.633407 0.452863 0.172952
0.654987 0.454513 0.174553
0.676567 0.456163 0.176154
0.698148 0.457812 0.177755
0.719728 0.459462 0.179356
0.741308 0.461112 0.180957
0.762888 0.462762 0.182558
0.784469 0.464411 0.184158
0.806049 0.466061 0.185759
0.827629 0.467711 0.187360
0.849209 0.469361 0.188961
0.856189 0.469894 0.189479
0.185648 0.443183 0.144604
0.207228 0.444833 0.146205
0.228808 0.446482 0.147806
0.250389 0.448132 0.149407
0.271969 0.449782 0.151008
0.293549 0.451432 0.152609
0.315129 0.453081 0.154210
0.336710 0.454731 0.155811
0.358290 0.456381 0.157412
0.379870 0.458031 0.159013
0.401450 0.459681 0.160614
0.423031 0.461330 0.162215
0.444611 0.462980 0.163815
0.466191 0.464630 0.165416
0.487772 0.466280 0.167017
0.509352 0.467929 0.168618
0.530932 0.469579 0.170219
0.552512 0.471229 0.171820
0.574093 0.472879 0.173421
0.595673 0.474528 0.175022
0.617253 0.476178 0.176623
0.638833 0.477828 0.178224
0.660414 0.479478 0.179825
0.681994 0.481127 0.181426
0.703574 0.482777 0.183027
0.725154 0.484427 0.184627
0.746735 0.486077 0.186228
0.768315 0.487726 0.187829
0.789895 0.489376 0.189430
0.811476 0.491026 0.191031
0.833056 0.492676 0.192632
0.854636 0.494325 0.194233
0.861615 0.494859 0.194751
0.191074 0.468148 0.149876
0.212655 0.469797 0.151477
0.234235 0.471447 0.153078
0.255815 0.473097 0.154679
0.277395 0.474747 0.156280
0.298976 0.476396 0.157881
0.320556 0.478046 0.159482
0.342136 0.479696 0.161083
0.363717 0.481346 0.162683
0.385297 0.482995 0.164284
0.406877 0.484645 0.165885
0.428457 0.486295 0.167486
0.450038 0.487945 0.169087
0.471618 0.489594 0.170688
0.493198 0.491244 0.172289
0.514778 0.492894 0.173890
0.536359 0.494544 0.175491
0.557939 0.496193 0.177092
0.579519 0.497843 0.178693
0.601099 0.499493 0.180294
0.622680 0.501143 0.181895
0.644260 0.502792 0.183495
0.665840 0.504442 0.185096
0.687421 0.506092 0.186697
0.709001 0.507742 0.188298
0.730581 0.509392 0.189899
0.752161 0.511041 0.191500
0.773742 0.512691 0.193101
0.795322 0.514341 0.194702
0.816902 0.515991 0.196303
0.838482 0.517640 0.197904
0.860063 0.519290 0.199505
0.867042 0.519824 0.200022
0.196501 0.493112 0.155148
0.218081 0.494762 0.156749
0.239662 0.496412 0.158350
0.261242 0.498062 0.159951
0.282822 0.499711 0.161552
0.304402 0.501361 0.163152
0.325983 0.503011 0.164753
0.347563 0.504661 0.166354
0.369143 0.506310 0.167955
0.390723 0.507960 0.169556
0.412304 0.509610 0.171157
0.433884 0.511260 0.172758
0.455464 0.512909 0.174359
0.477044 0.514559 0.175960
0.498625 0.516209 0.177561
0.520205 0.517859 0.179162
0.541785 0.519508 0.180763
0.563366 0.521158 0.182364
0.584946 0.522808 0.183964
0.606526 0.524458 0.185565
0.628106 0.526107 0.187166
0.649687 0.527757 0.188767
0.671267 0.529407 0.190368
0.692847 0.531057 0.191969
0.714427 0.532706 0.193570
0.736008 0.534356 0.195171
0.757588 0.536006 0.196772
0.779168 0.537656 0.198373
0.800749 0.539305 0.199974
0.822329 0.540955 0.201575
0.843909 0.542605 0.203176
0.865489 0.544255 0.204776
0.872469 0.544788 0.205294
0.201928 0.518077 0.160420
0.223508 0.519727 0.162020
0.245088 0.521377 0.163621
0.266668 0.523026 0.165222
0.288249 0.524676 0.166823
0.309829 0.526326 0.168424
0.331409 0.527976 0.170025
0.352990 0.529625 0.171626
0.374570 0.531275 0.173227
0.396150 0.532925 0.174828
0.417730 0.534575 0.176429
0.439311 0.536224 0.178030
0.460891 0.537874 0.179631
0.482471 0.539524 0.181232
0.504051 0.541174 0.182832
0.525632 0.542823 0.184433
0.547212 0.544473 0.186034
0.568792 0.546123 0.187635
0.590372 0.547773 0.189236
0.611953 0.549422 0.190837
0.633533 0.551072 0.192438
0.655113 0.552722 0.194039
0.676694 0.554372 0.195640
0.698274 0.556021 0.197241
0.719854 0.557671 0.198842
0.741434 0.559321 0.200443
0.763015 0.560971 0.202044
0.784595 0.562620 0.203644
0.806175 0.564270 0.205245
0.827755 0.565920 0.206846
0.849336 0.567570 0.208447
0.870916 0.569219 0.210048
0.877895 0.569753 0.210566
0.207354 0.543042 0.165691
0.228935 0.544691 0.167292
0.250515 0.546341 0.168893
0.272095 0.547991 0.170494
0.293675 0.549641 0.172095
0.315256 0.551290 0.173696
0.336836 0.552940 0.175297
0.358416 0.554590 0.176898
0.379996 0.556240 0.178499
0.401577 0.557889 0.180100
0.423157 0.559539 0.181701
0.444737 0.561189 0.183301
0.466317 0.562839 0.184902
0.487898 0.564488 0.186503
0.509478 0.566138 0.188104
0.531058 0.567788 0.189705
0.552639 0.569438 0.191306
0.574219 0.571088 0.192907
0.595799 0.572737 0.194508
0.617379 0.574387 0.196109
0.638960 0.576037 0.197710
0.660540 0.577687 0.199311
0.682120 0.579336 0.200912
0.703700 0.580986 0.202513
0.725281 0.582636 0.204113
0.746861 0.584286 0.205714
0.768441 0.585935 0.207315
0.790022 0.587585 0.208916
0.811602 0.589235 0.210517
0.833182 0.590885 0.212118
0.854762 0.592534 0.213719
0.876343 0.594184 0.215320
0.883322 0.594718 0.215838
0.212781 0.568006 0.170963
0.234361 0.569656 0.172564
0.255941 0.571306 0.174165
0.277522 0.572956 0.175766
0.299102 0.574605 0.177367
0.320682 0.576255 0.178968
0.342262 0.577905 0.180569
0.363843 0.579555 0.182170
0.385423 0.581204 0.183770
0.407003 0.582854 0.185371
0.428584 0.584504 0.186972
0.450164 0.586154 0.188573
0.471744 0.587803 0.190174
0.493324 0.589453 0.191775
0.514905 0.591103 0.193376
0.536485 0.592753 0.194977
0.558065 0.594402 0.196578
0.579645 0.596052 0.198179
0.601226 0.597702 0.199780
0.622806 0.599352 0.201381
0.644386 0.601001 0.202982
0.665967 0.602651 0.204582
0.687547 0.604301 0.206183
0.709127 0.605951 0.207784
0.730707 0.607600 0.209385
0.752288 0.609250 0.210986
0.773868 0.610900 0.212587
0.795448 0.612550 0.214188
0.817028 0.614199 0.215789
0.838609 0.615849 0.217390
0.860189 0.617499 0.218991
0.881769 0.619149 0.220592
0.888749 0.619682 0.221109
0.218207 0.592971 0.176235
0.239788 0.594621 0.177836
0.261368 0.596271 0.179437
0.282948 0.597920 0.181038
0.304529 0.599570 0.182638
0.326109 0.601220 0.184239
0.347689 0.602870 0.185840
0.369269 0.604519 0.187441
0.390850 0.606169 0.189042
0.412430 0.607819 0.190643
0.434010 0.609469 0.192244
0.455590 0.611118 0.193845
0.477171 0.612768 0.195446
0.498751 0.614418 0.197047
0.520331 0.616068 0.198648
0.541912 0.617717 0.200249
0.563492 0.619367 0.201850
0.585072 0.621017 0.203450
0.606652 0.622667 0.205051
0.628233 0.624316 0.206652
0.649813 0.625966 0.208253
0.671393 0.627616 0.209854
0.692973 0.629266 0.211455
0.714554 0.630915 0.213056
0.736134 0.632565 0.214657
0.757714 0.634215 0.216258
0.779294 0.635865 0.217859
0.800875 0.637514 0.219460
0.822455 0.639164 0.221061
0.844035 0.640814 0.222662
0.865616 0.642464 0.224262
0.887196 0.644113 0.225863
0.894175 0.644647 0.226381
0.223634 0.617936 0.181507
0.245214 0.619585 0.183107
0.266795 0.621235 0.184708
0.288375 0.622885 0.186309
0.309955 0.624535 0.187910
0.331535 0.626184 0.189511
0.353116 0.627834 0.191112
0.374696 0.629484 0.192713
0.396276 0.631134 0.194314
0.417857 0.632783 0.195915
0.439437 0.634433 0.197516
0.461017 0.636083 0.199117
0.482597 0.637733 0.200718
0.504178 0.639383 0.202319
0.525758 0.641032 0.203919
0.547338 0.642682 0.205520
0.568918 0.644332 0.207121
0.590499 0.645982 0.208722
0.612079 0.647631 0.210323
0.633659 0.649281 0.211924
0.655239 0.650931 0.213525
0.676820 0.652581 0.215126
0.698400 0.654230 0.216727
0.719980 0.655880 0.218328
0.741561 0.657530 0.219929
0.763141 0.659180 0.221530
0.784721 0.660829 0.223131
0.806301 0.662479 0.224731
0.827882 0.664129 0.226332
0.849462 0.665779 0.227933
0.871042 0.667428 0.229534
0.892622 0.669078 0.231135
0.899602 0.669612 0.231653
0.229061 0.642900 0.186778
0.250641 0.644550 0.188379
0.272221 0.646200 0.189980
0.293802 0.647850 0.191581
0.315382 0.649499 0.193182
0.336962 0.651149 0.194783
0.358542 0.652799 0.196384
0.380123 0.654449 0.197985
0.401703 0.656098 0.199586
0.423283 0.657748 0.201187
0.444863 0.659398 0.202787
0.466444 0.661048 0.204388
0.488024 0.662697 0.205989
0.509604 0.664347 0.207590
0.531185 0.665997 0.209191
0.552765 0.667647 0.210792
0.574345 0.669296 0.212393
0.595925 0.670946 0.213994
0.617506 0.672596 0.215595
0.639086 0.674246 0.217196
0.660666 0.675895 0.218797
0.682246 0.677545 0.220398
0.703827 0.679195 0.221999
0.725407 0.680845 0.223600
0.746987 0.682494 0.225200
0.768567 0.684144 0.226801
0.790148 0.685794 0.228402
0.811728 0.687444 0.230003
0.833308 0.689094 0.231604
0.854889 0.690743 0.233205
0.876469 0.692393 0.234806
0.898049 0.694043 0.236407
0.905028 0.694576 0.236925
0.234487 0.667865 0.192050
0.256068 0.669515 0.193651
0.277648 0.671165 0.195252
0.299228 0.672814 0.196853
0.320808 0.674464 0.198454
0.342389 0.676114 0.200055
0.363969 0.677764 0.201656
0.385549 0.679413 0.203256
0.407130 0.681063 0.204857
0.428710 0.682713 0.206458
0.450290 0.684363 0.208059
0.471870 0.686012 0.209660
0.493451 0.687662 0.211261
0.515031 0.689312 0.212862
0.536611 0.690962 0.214463
0.558191 0.692611 0.216064
0.579772 0.694261 0.217665
0.601352 0.695911 0.219266
0.622932 0.697561 0.220867
0.644512 0.699210 0.222468
0.666093 0.700860 0.224068
0.687673 0.702510 0.225669
0.709253 0.704160 0.227270
0.730834 0.705809 0.228871
0.752414 0.707459 0.230472
0.773994 0.709109 0.232073
0.795574 0.710759 0.233674
0.817155 0.712408 0.235275
0.838735 0.714058 0.236876
0.860315 0.715708 0.238477
0.881895 0.717358 0.240078
0.903476 0.719007 0.241679
0.910455 0.719541 0.242196
0.239914 0.692830 0.197322
0.261494 0.694479 0.198923
0.283075 0.696129 0.200524
0.304655 0.697779 0.202125
0.326235 0.699429 0.203725
0.347815 0.701078 0.205326
0.369396 0.702728 0.206927
0.390976 0.704378 0.208528
0.412556 0.706028 0.210129
0.434136 0.707678 0.211730
0.455717 0.709327 0.213331
0.477297 0.710977 0.214932
0.498877 0.712627 0.216533
0.520457 0.714277 0.218134
0.542038 0.715926 0.219735
0.563618 0.717576 0.221336
0.585198 0.719226 0.222937
0.606779 0.720876 0.224537
0.628359 0.722525 0.226138
0.649939 0.724175 0.227739
0.671519 0.725825 0.229340
0.693100 0.727475 0.230941
0.714680 0.729124 0.232542
0.736260 0.730774 0.234143
0.757840 0.732424 0.235744
0.779421 0.734074 0.237345
0.801001 0.735723 0.238946
0.822581 0.737373 0.240547
0.844162 0.739023 0.242148
0.865742 0.740673 0.243749
0.887322 0.742322 0.245349
0.908902 0.743972 0.246950
0.915882 0.744506 0.247468
0.245341 0.717794 0.202593
0.266921 0.719444 0.204194
0.288501 0.721094 0.205795
0.310081 0.722744 0.207396
0.331662 0.724393 0.208997
0.353242 0.726043 0.210598
0.374822 0.727693 0.212199
0.396403 0.729343 0.213800
0.417983 0.730992 0.215401
0.439563 0.732642 0.217002
0.461143 0.734292 0.218603
0.482724 0.735942 0.220204
0.504304 0.737591 0.221805
0.525884 0.739241 0.223405
0.547464 0.740891 0.225006
0.569045 0.742541 0.226607
0.590625 0.744190 0.228208
0.612205 0.745840 0.229809
0.633785 0.747490 0.231410
0.655366 0.749140 0.233011
0.676946 0.750790 0.234612
0.698526 0.752439 0.236213
0.720107 0.754089 0.237814
0.741687 0.755739 0.239415
0.763267 0.757389 0.241016
0.784847 0.759038 0.242617
0.806428 0.760688 0.244217
0.828008 0.762338 0.245818
0.849588 0.763988 0.247419
0.871168 0.765637 0.249020
0.892749 0.767287 0.250621
0.914329 0.768937 0.252222
0.921308 0.769470 0.252740
0.250767 0.742759 0.207865
0.272348 0.744409 0.209466
0.293928 0.746059 0.211067
0.315508 0.747708 0.212668
0.337088 0.749358 0.214269
0.358669 0.751008 0.215870
0.380249 0.752658 0.217471
0.401829 0.754307 0.219072
0.423409 0.755957 0.220673
0.444990 0.757607 0.222274
0.466570 0.759257 0.223874
0.488150 0.760906 0.225475
0.509730 0.762556 0.227076
0.531311 0.764206 0.228677
0.552891 0.765856 0.230278
0.574471 0.767505 0.231879
0.596052 0.769155 0.233480
0.617632 0.770805 0.235081
0.639212 0.772455 0.236682
0.660792 0.774104 0.238283
0.682373 0.775754 0.239884
0.703953 0.777404 0.241485
0.725533 0.779054 0.243086
0.747113 0.780703 0.244686
0.768694 0.782353 0.246287
0.790274 0.784003 0.247888
0.811854 0.785653 0.249489
0.833435 0.787302 0.251090
