presets/luts/vintage-fade/vintage-fade.cube
# akari-video catalog LUT: vintage-fade
LUT_3D_SIZE 5
0.109675 0.093677 0.070800
0.282317 0.106876 0.083607
0.454959 0.120074 0.096415
0.627601 0.133272 0.109222
0.785643 0.145353 0.120946
0.153088 0.293395 0.112974
0.325730 0.306593 0.125781
0.498372 0.319791 0.138589
0.671014 0.332989 0.151396
0.829056 0.345071 0.163120
0.196501 0.493112 0.155148
0.369143 0.506310 0.167955
0.541785 0.519508 0.180763
0.714427 0.532706 0.193570
0.872469 0.544788 0.205294
0.239914 0.692830 0.197322
0.412556 0.706028 0.210129
0.585198 0.719226 0.222937
0.757840 0.732424 0.235744
0.915882 0.744506 0.247468
0.283327 0.892547 0.239496
0.455969 0.905745 0.252303
0.628611 0.918943 0.265110
0.801253 0.932141 0.277918
0.959295 0.944223 0.289642
0.113963 0.097970 0.223322
0.286605 0.111168 0.236130
0.459247 0.124366 0.248937
0.631889 0.137564 0.261744
0.789931 0.149646 0.273469
0.157376 0.297687 0.265496
0.330018 0.310886 0.278304
0.502660 0.324084 0.291111
0.675302 0.337282 0.303918
0.833344 0.349363 0.315643
0.200789 0.497405 0.307670
0.373431 0.510603 0.320477
0.546073 0.523801 0.333285
0.718715 0.536999 0.346092
0.876757 0.549081 0.357816
0.244202 0.697122 0.349844
0.416844 0.710320 0.362651
0.589486 0.723518 0.375459
0.762128 0.736716 0.388266
0.920170 0.748798 0.399990
0.287615 0.896840 0.392018
0.460257 0.910038 0.404825
0.632899 0.923236 0.417633
0.805541 0.936434 0.430440
0.963583 0.948516 0.442164
0.118251 0.102263 0.375845
0.290893 0.115461 0.388652
0.463535 0.128659 0.401459
0.636177 0.141857 0.414267
0.794219 0.153939 0.425991
0.161664 0.301980 0.418018
0.334306 0.315178 0.430826
0.506948 0.328376 0.443633
0.679590 0.341574 0.456441
0.837632 0.353656 0.468165
0.205077 0.501697 0.460192
0.377719 0.514896 0.473000
0.550361 0.528094 0.485807
0.723003 0.541292 0.498615
0.881045 0.553373 0.510339
0.248490 0.701415 0.502366
0.421132 0.714613 0.515174
0.593774 0.727811 0.527981
0.766416 0.741009 0.540788
0.924458 0.753091 0.552513
0.291903 0.901132 0.544540
0.464545 0.914330 0.557348
0.637187 0.927528 0.570155
0.809829 0.940726 0.582962
0.967871 0.952808 0.594687
0.122539 0.106555 0.528367
0.295181 0.119753 0.541174
0.467823 0.132951 0.553982
0.640465 0.146149 0.566789
0.798506 0.158231 0.578513
0.165952 0.306273 0.570541
0.338594 0.319471 0.583348
0.511236 0.332669 0.596156
0.683878 0.345867 0.608963
0.841919 0.357949 0.620687
0.209365 0.505990 0.612715
0.382007 0.519188 0.625522
0.554649 0.532386 0.638329
0.727291 0.545584 0.651137
0.885332 0.557666 0.662861
0.252778 0.705707 0.654889
0.425420 0.718906 0.667696
0.598062 0.732104 0.680503
0.770704 0.745302 0.693311
0.928745 0.757383 0.705035
0.296191 0.905425 0.697062
0.468833 0.918623 0.709870
0.641475 0.931821 0.722677
0.814117 0.945019 0.735485
0.972158 0.957101 0.747209
0.126827 0.110848 0.680889
0.299469 0.124046 0.693696
0.472111 0.137244 0.706504
0.644753 0.150442 0.719311
0.802794 0.162524 0.731035
0.170240 0.310565 0.723063
0.342882 0.323763 0.735870
0.515524 0.336961 0.748678
0.688166 0.350159 0.761485
0.846207 0.362241 0.773209
0.213653 0.510283 0.765237
0.386295 0.523481 0.778044
0.558937 0.536679 0.790852
0.731579 0.549877 0.803659
0.889620 0.561959 0.815383
0.257066 0.710000 0.807411
0.429708 0.723198 0.820218
0.602350 0.736396 0.833026
0.774992 0.749594 0.845833
0.933033 0.761676 0.857557
0.300479 0.909717 0.849585
0.473121 0.922916 0.862392
0.645763 0.936114 0.875200
0.818405 0.949312 0.888007
0.976446 0.961393 0.899731
