presets/luts/silver-retain/silver-retain.cube
# akari-video catalog LUT: silver-retain
LUT_3D_SIZE 33
0.000000 0.000000 0.000000
0.000000 0.000000 0.000000
0.000000 0.000000 0.000000
0.000000 0.000000 0.000000
0.004452 0.000000 0.000000
0.026568 0.000000 0.000000
0.048685 0.000000 0.000000
0.070802 0.004068 0.004068
0.092919 0.009087 0.009087
0.115036 0.014107 0.014107
0.137153 0.019126 0.019126
0.159270 0.024146 0.024146
0.181387 0.029166 0.029166
0.203504 0.034185 0.034185
0.225621 0.039205 0.039205
0.247737 0.044224 0.044224
0.269854 0.049244 0.049244
0.291971 0.054264 0.054264
0.314088 0.059283 0.059283
0.336205 0.064303 0.064303
0.358322 0.069322 0.069322
0.380439 0.074342 0.074342
0.402556 0.079362 0.079362
0.424673 0.084381 0.084381
0.446789 0.089401 0.089401
0.468906 0.094420 0.094420
0.491023 0.099440 0.099440
0.513140 0.104460 0.104460
0.535257 0.109479 0.109479
0.555234 0.114013 0.114013
0.555234 0.114013 0.114013
0.555234 0.114013 0.114013
0.555234 0.114013 0.114013
0.000000 0.000000 0.000000
0.000000 0.000000 0.000000
0.000000 0.000000 0.000000
0.000000 0.000000 0.000000
0.004452 0.000000 0.000000
0.026568 0.000000 0.000000
0.048685 0.000000 0.000000
0.070802 0.004068 0.004068
0.092919 0.009087 0.009087
0.115036 0.014107 0.014107
0.137153 0.019126 0.019126
0.159270 0.024146 0.024146
0.181387 0.029166 0.029166
0.203504 0.034185 0.034185
0.225621 0.039205 0.039205
0.247737 0.044224 0.044224
0.269854 0.049244 0.049244
0.291971 0.054264 0.054264
0.314088 0.059283 0.059283
0.336205 0.064303 0.064303
0.358322 0.069322 0.069322
0.380439 0.074342 0.074342
0.402556 0.079362 0.079362
0.424673 0.084381 0.084381
0.446789 0.089401 0.089401
0.468906 0.094420 0.094420
0.491023 0.099440 0.099440
0.513140 0.104460 0.104460
0.535257 0.109479 0.109479
0.555234 0.114013 0.114013
0.555234 0.114013 0.114013
0.555234 0.114013 0.114013
0.555234 0.114013 0.114013
0.000000 0.000000 0.000000
0.000000 0.000000 0.000000
0.000000 0.000000 0.000000
0.000000 0.000000 0.000000
0.004452 0.000000 0.000000
0.026568 0.000000 0.000000
0.048685 0.000000 0.000000
0.070802 0.004068 0.004068
0.092919 0.009087 0.009087
0.115036 0.014107 0.014107
0.137153 0.019126 0.019126
0.159270 0.024146 0.024146
0.181387 0.029166 0.029166
0.203504 0.034185 0.034185
0.225621 0.039205 0.039205
0.247737 0.044224 0.044224
0.269854 0.049244 0.049244
0.291971 0.054264 0.054264
0.314088 0.059283 0.059283
0.336205 0.064303 0.064303
0.358322 0.069322 0.069322
0.380439 0.074342 0.074342
0.402556 0.079362 0.079362
0.424673 0.084381 0.084381
0.446789 0.089401 0.089401
0.468906 0.094420 0.094420
0.491023 0.099440 0.099440
0.513140 0.104460 0.104460
0.535257 0.109479 0.109479
0.555234 0.114013 0.114013
0.555234 0.114013 0.114013
0.555234 0.114013 0.114013
0.555234 0.114013 0.114013
0.000000 0.000000 0.000000
0.000000 0.000000 0.000000
0.000000 0.000000 0.000000
0.000000 0.000000 0.000000
0.004452 0.000000 0.000000
0.026568 0.000000 0.000000
0.048685 0.000000 0.000000
0.070802 0.004068 0.004068
0.092919 0.009087 0.009087
0.115036 0.014107 0.014107
0.137153 0.019126 0.019126
0.159270 0.024146 0.024146
0.181387 0.029166 0.029166
0.203504 0.034185 0.034185
0.225621 0.039205 0.039205
0.247737 0.044224 0.044224
0.269854 0.049244 0.049244
0.291971 0.054264 0.054264
0.314088 0.059283 0.059283
0.336205 0.064303 0.064303
0.358322 0.069322 0.069322
0.380439 0.074342 0.074342
0.402556 0.079362 0.079362
0.424673 0.084381 0.084381
0.446789 0.089401 0.089401
0.468906 0.094420 0.094420
0.491023 0.099440 0.099440
0.513140 0.104460 0.104460
0.535257 0.109479 0.109479
0.555234 0.114013 0.114013
0.555234 0.114013 0.114013
0.555234 0.114013 0.114013
0.555234 0.114013 0.114013
0.000000 0.015170 0.000000
0.000000 0.015170 0.000000
0.000000 0.015170 0.000000
0.000000 0.015170 0.000000
0.019704 0.019704 0.004261
0.041821 0.024723 0.009281
0.063937 0.029743 0.014300
0.086054 0.034762 0.019320
0.108171 0.039782 0.024339
0.130288 0.044802 0.029359
0.152405 0.049821 0.034379
0.174522 0.054841 0.039398
0.196639 0.059860 0.044418
0.218756 0.064880 0.049437
0.240873 0.069900 0.054457
0.262990 0.074919 0.059477
0.285106 0.079939 0.064496
0.307223 0.084958 0.069516
0.329340 0.089978 0.074535
0.351457 0.094998 0.079555
0.373574 0.100017 0.084575
0.395691 0.105037 0.089594
0.417808 0.110057 0.094614
0.439925 0.115076 0.099633
0.462042 0.120096 0.104653
0.484159 0.125115 0.109673
0.506275 0.130135 0.114692
0.528392 0.135155 0.119712
0.550509 0.140174 0.124731
0.570486 0.144708 0.129265
0.570486 0.144708 0.129265
0.570486 0.144708 0.129265
0.570486 0.144708 0.129265
0.016613 0.049153 0.016613
0.016613 0.049153 0.016613
0.016613 0.049153 0.016613
0.016613 0.049153 0.016613
0.036590 0.053687 0.021147
0.058707 0.058707 0.026167
0.080824 0.063726 0.031186
0.102941 0.068746 0.036206
0.125058 0.073766 0.041226
0.147174 0.078785 0.046245
0.169291 0.083805 0.051265
0.191408 0.088824 0.056284
0.213525 0.093844 0.061304
0.235642 0.098864 0.066324
0.257759 0.103883 0.071343
0.279876 0.108903 0.076363
0.301993 0.113922 0.081382
0.324110 0.118942 0.086402
0.346226 0.123962 0.091422
0.368343 0.128981 0.096441
0.390460 0.134001 0.101461
0.412577 0.139020 0.106480
0.434694 0.144040 0.111500
0.456811 0.149060 0.116520
0.478928 0.154079 0.121539
0.501045 0.159099 0.126559
0.523162 0.164118 0.131578
0.545279 0.169138 0.136598
0.567395 0.174158 0.141618
0.587372 0.178692 0.146152
0.587372 0.178692 0.146152
0.587372 0.178692 0.146152
0.587372 0.178692 0.146152
0.033500 0.083137 0.033500
0.033500 0.083137 0.033500
0.033500 0.083137 0.033500
0.033500 0.083137 0.033500
0.053476 0.087671 0.038033
0.075593 0.092690 0.043053
0.097710 0.097710 0.048073
0.119827 0.102730 0.053092
0.141944 0.107749 0.058112
0.164061 0.112769 0.063131
0.186178 0.117788 0.068151
0.208294 0.122808 0.073171
0.230411 0.127828 0.078190
0.252528 0.132847 0.083210
0.274645 0.137867 0.088230
0.296762 0.142886 0.093249
0.318879 0.147906 0.098269
0.340996 0.152926 0.103288
0.363113 0.157945 0.108308
0.385230 0.162965 0.113328
0.407347 0.167984 0.118347
0.429463 0.173004 0.123367
0.451580 0.178024 0.128386
0.473697 0.183043 0.133406
0.495814 0.188063 0.138426
0.517931 0.193082 0.143445
0.540048 0.198102 0.148465
0.562165 0.203122 0.153484
0.584282 0.208141 0.158504
0.604258 0.212675 0.163038
0.604258 0.212675 0.163038
0.604258 0.212675 0.163038
0.604258 0.212675 0.163038
0.050386 0.117121 0.050386
0.050386 0.117121 0.050386
0.050386 0.117121 0.050386
0.050386 0.117121 0.050386
0.070362 0.121654 0.054920
0.092479 0.126674 0.059939
0.114596 0.131694 0.064959
0.136713 0.136713 0.069979
0.158830 0.141733 0.074998
0.180947 0.146752 0.080018
0.203064 0.151772 0.085037
0.225181 0.156792 0.090057
0.247298 0.161811 0.095077
0.269415 0.166831 0.100096
0.291531 0.171850 0.105116
0.313648 0.176870 0.110135
0.335765 0.181890 0.115155
0.357882 0.186909 0.120175
0.379999 0.191929 0.125194
0.402116 0.196948 0.130214
0.424233 0.201968 0.135233
0.446350 0.206988 0.140253
0.468467 0.212007 0.145273
0.490584 0.217027 0.150292
0.512700 0.222046 0.155312
0.534817 0.227066 0.160331
0.556934 0.232086 0.165351
0.579051 0.237105 0.170371
0.601168 0.242125 0.175390
0.621145 0.246659 0.179924
0.621145 0.246659 0.179924
0.621145 0.246659 0.179924
0.621145 0.246659 0.179924
0.067272 0.151104 0.067272
0.067272 0.151104 0.067272
0.067272 0.151104 0.067272
0.067272 0.151104 0.067272
0.087249 0.155638 0.071806
0.109366 0.160658 0.076826
0.131483 0.165677 0.081845
0.153599 0.170697 0.086865
0.175716 0.175716 0.091884
0.197833 0.180736 0.096904
0.219950 0.185756 0.101924
0.242067 0.190775 0.106943
0.264184 0.195795 0.111963
0.286301 0.200814 0.116982
0.308418 0.205834 0.122002
0.330535 0.210854 0.127022
0.352651 0.215873 0.132041
0.374768 0.220893 0.137061
0.396885 0.225912 0.142080
0.419002 0.230932 0.147100
0.441119 0.235952 0.152120
0.463236 0.240971 0.157139
0.485353 0.245991 0.162159
0.507470 0.251010 0.167178
0.529587 0.256030 0.172198
0.551704 0.261050 0.177218
0.573820 0.266069 0.182237
0.595937 0.271089 0.187257
0.618054 0.276108 0.192276
0.638031 0.280642 0.196810
0.638031 0.280642 0.196810
0.638031 0.280642 0.196810
0.638031 0.280642 0.196810
0.084158 0.185088 0.084158
0.084158 0.185088 0.084158
0.084158 0.185088 0.084158
0.084158 0.185088 0.084158
0.104135 0.189621 0.088692
0.126252 0.194641 0.093712
0.148369 0.199661 0.098731
0.170486 0.204680 0.103751
0.192603 0.209700 0.108771
0.214719 0.214719 0.113790
0.236836 0.219739 0.118810
0.258953 0.224759 0.123829
0.281070 0.229778 0.128849
0.303187 0.234798 0.133869
0.325304 0.239817 0.138888
0.347421 0.244837 0.143908
0.369538 0.249857 0.148928
0.391655 0.254876 0.153947
0.413772 0.259896 0.158967
0.435888 0.264916 0.163986
0.458005 0.269935 0.169006
0.480122 0.274955 0.174026
0.502239 0.279974 0.179045
0.524356 0.284994 0.184065
0.546473 0.290014 0.189084
0.568590 0.295033 0.194104
0.590707 0.300053 0.199124
0.612824 0.305072 0.204143
0.634941 0.310092 0.209163
0.654917 0.314626 0.213697
0.654917 0.314626 0.213697
0.654917 0.314626 0.213697
0.654917 0.314626 0.213697
0.101045 0.219071 0.101045
0.101045 0.219071 0.101045
0.101045 0.219071 0.101045
0.101045 0.219071 0.101045
0.121021 0.223605 0.105579
0.143138 0.228625 0.110598
0.165255 0.233644 0.115618
0.187372 0.238664 0.120637
0.209489 0.243683 0.125657
0.231606 0.248703 0.130677
0.253723 0.253723 0.135696
0.275840 0.258742 0.140716
0.297956 0.263762 0.145735
0.320073 0.268781 0.150755
0.342190 0.273801 0.155775
0.364307 0.278821 0.160794
0.386424 0.283840 0.165814
0.408541 0.288860 0.170833
0.430658 0.293879 0.175853
0.452775 0.298899 0.180873
0.474892 0.303919 0.185892
0.497009 0.308938 0.190912
0.519125 0.313958 0.195931
0.541242 0.318977 0.200951
0.563359 0.323997 0.205971
0.585476 0.329017 0.210990
0.607593 0.334036 0.216010
0.629710 0.339056 0.221029
0.651827 0.344075 0.226049
0.671803 0.348609 0.230583
0.671803 0.348609 0.230583
0.671803 0.348609 0.230583
0.671803 0.348609 0.230583
0.117931 0.253055 0.117931
0.117931 0.253055 0.117931
0.117931 0.253055 0.117931
0.117931 0.253055 0.117931
0.137908 0.257589 0.122465
0.160024 0.262608 0.127484
0.182141 0.267628 0.132504
0.204258 0.272647 0.137524
0.226375 0.277667 0.142543
0.248492 0.282687 0.147563
0.270609 0.287706 0.152582
0.292726 0.292726 0.157602
0.314843 0.297745 0.162622
0.336960 0.302765 0.167641
0.359076 0.307785 0.172661
0.381193 0.312804 0.177680
0.403310 0.317824 0.182700
0.425427 0.322843 0.187720
0.447544 0.327863 0.192739
0.469661 0.332883 0.197759
0.491778 0.337902 0.202778
0.513895 0.342922 0.207798
0.536012 0.347941 0.212818
0.558129 0.352961 0.217837
0.580245 0.357981 0.222857
0.602362 0.363000 0.227876
0.624479 0.368020 0.232896
0.646596 0.373039 0.237916
0.668713 0.378059 0.242935
0.688690 0.382593 0.247469
0.688690 0.382593 0.247469
0.688690 0.382593 0.247469
0.688690 0.382593 0.247469
0.134817 0.287038 0.134817
0.134817 0.287038 0.134817
0.134817 0.287038 0.134817
0.134817 0.287038 0.134817
0.154794 0.291572 0.139351
0.176911 0.296592 0.144371
0.199028 0.301611 0.149390
0.221144 0.306631 0.154410
0.243261 0.311651 0.159429
0.265378 0.316670 0.164449
0.287495 0.321690 0.169469
0.309612 0.326709 0.174488
0.331729 0.331729 0.179508
0.353846 0.336749 0.184527
0.375963 0.341768 0.189547
0.398080 0.346788 0.194567
0.420197 0.351807 0.199586
0.442313 0.356827 0.204606
0.464430 0.361847 0.209626
0.486547 0.366866 0.214645
0.508664 0.371886 0.219665
0.530781 0.376905 0.224684
0.552898 0.381925 0.229704
0.575015 0.386945 0.234724
0.597132 0.391964 0.239743
0.619249 0.396984 0.244763
0.641366 0.402003 0.249782
0.663482 0.407023 0.254802
0.685599 0.412043 0.259822
0.705576 0.416576 0.264355
0.705576 0.416576 0.264355
0.705576 0.416576 0.264355
0.705576 0.416576 0.264355
0.151703 0.321022 0.151703
0.151703 0.321022 0.151703
0.151703 0.321022 0.151703
0.151703 0.321022 0.151703
0.171680 0.325556 0.156237
0.193797 0.330575 0.161257
0.215914 0.335595 0.166277
0.238031 0.340615 0.171296
0.260148 0.345634 0.176316
0.282265 0.350654 0.181335
0.304381 0.355673 0.186355
0.326498 0.360693 0.191375
0.348615 0.365713 0.196394
0.370732 0.370732 0.201414
0.392849 0.375752 0.206433
0.414966 0.380771 0.211453
0.437083 0.385791 0.216473
0.459200 0.390811 0.221492
0.481317 0.395830 0.226512
0.503434 0.400850 0.231531
0.525550 0.405869 0.236551
0.547667 0.410889 0.241571
0.569784 0.415909 0.246590
0.591901 0.420928 0.251610
0.614018 0.425948 0.256629
0.636135 0.430967 0.261649
0.658252 0.435987 0.266669
0.680369 0.441007 0.271688
0.702486 0.446026 0.276708
0.722462 0.450560 0.281242
0.722462 0.450560 0.281242
0.722462 0.450560 0.281242
0.722462 0.450560 0.281242
0.168590 0.355005 0.168590
0.168590 0.355005 0.168590
0.168590 0.355005 0.168590
0.168590 0.355005 0.168590
0.188566 0.359539 0.173124
0.210683 0.364559 0.178143
0.232800 0.369578 0.183163
0.254917 0.374598 0.188182
0.277034 0.379618 0.193202
0.299151 0.384637 0.198222
0.321268 0.389657 0.203241
0.343385 0.394676 0.208261
0.365501 0.399696 0.213280
0.387618 0.404716 0.218300
0.409735 0.409735 0.223320
0.431852 0.414755 0.228339
0.453969 0.419774 0.233359
0.476086 0.424794 0.238378
0.498203 0.429814 0.243398
0.520320 0.434833 0.248418
0.542437 0.439853 0.253437
0.564554 0.444873 0.258457
0.586670 0.449892 0.263476
0.608787 0.454912 0.268496
0.630904 0.459931 0.273516
0.653021 0.464951 0.278535
0.675138 0.469971 0.283555
0.697255 0.474990 0.288574
0.719372 0.480010 0.293594
0.739348 0.484544 0.298128
0.739348 0.484544 0.298128
0.739348 0.484544 0.298128
0.739348 0.484544 0.298128
0.185476 0.388989 0.185476
0.185476 0.388989 0.185476
0.185476 0.388989 0.185476
0.185476 0.388989 0.185476
0.205453 0.393523 0.190010
0.227569 0.398542 0.195029
0.249686 0.403562 0.200049
0.271803 0.408582 0.205069
0.293920 0.413601 0.210088
0.316037 0.418621 0.215108
0.338154 0.423640 0.220127
0.360271 0.428660 0.225147
0.382388 0.433680 0.230167
0.404505 0.438699 0.235186
0.426622 0.443719 0.240206
0.448738 0.448738 0.245225
0.470855 0.453758 0.250245
0.492972 0.458778 0.255265
0.515089 0.463797 0.260284
0.537206 0.468817 0.265304
0.559323 0.473836 0.270324
0.581440 0.478856 0.275343
0.603557 0.483876 0.280363
0.625674 0.488895 0.285382
0.647791 0.493915 0.290402
0.669907 0.498934 0.295422
0.692024 0.503954 0.300441
0.714141 0.508974 0.305461
0.736258 0.513993 0.310480
0.756235 0.518527 0.315014
0.756235 0.518527 0.315014
0.756235 0.518527 0.315014
0.756235 0.518527 0.315014
0.202362 0.422973 0.202362
0.202362 0.422973 0.202362
0.202362 0.422973 0.202362
0.202362 0.422973 0.202362
0.222339 0.427506 0.206896
0.244456 0.432526 0.211916
0.266573 0.437546 0.216935
0.288690 0.442565 0.221955
0.310806 0.447585 0.226975
0.332923 0.452604 0.231994
0.355040 0.457624 0.237014
0.377157 0.462644 0.242033
0.399274 0.467663 0.247053
0.421391 0.472683 0.252073
0.443508 0.477702 0.257092
0.465625 0.482722 0.262112
0.487742 0.487742 0.267131
0.509859 0.492761 0.272151
0.531975 0.497781 0.277171
0.554092 0.502800 0.282190
0.576209 0.507820 0.287210
0.598326 0.512840 0.292229
0.620443 0.517859 0.297249
0.642560 0.522879 0.302269
0.664677 0.527898 0.307288
0.686794 0.532918 0.312308
0.708911 0.537938 0.317327
0.731027 0.542957 0.322347
0.753144 0.547977 0.327367
0.773121 0.552511 0.331900
0.773121 0.552511 0.331900
0.773121 0.552511 0.331900
0.773121 0.552511 0.331900
0.219249 0.456956 0.219249
0.219249 0.456956 0.219249
0.219249 0.456956 0.219249
0.219249 0.456956 0.219249
0.239225 0.461490 0.223782
0.261342 0.466510 0.228802
0.283459 0.471529 0.233822
0.305576 0.476549 0.238841
0.327693 0.481568 0.243861
0.349810 0.486588 0.248880
0.371926 0.491608 0.253900
0.394043 0.496627 0.258920
0.416160 0.501647 0.263939
0.438277 0.506666 0.268959
0.460394 0.511686 0.273978
0.482511 0.516706 0.278998
0.504628 0.521725 0.284018
0.526745 0.526745 0.289037
0.548862 0.531764 0.294057
0.570979 0.536784 0.299076
0.593095 0.541804 0.304096
0.615212 0.546823 0.309116
0.637329 0.551843 0.314135
0.659446 0.556862 0.319155
0.681563 0.561882 0.324174
0.703680 0.566902 0.329194
0.725797 0.571921 0.334214
0.747914 0.576941 0.339233
0.770031 0.581960 0.344253
0.790007 0.586494 0.348787
0.790007 0.586494 0.348787
0.790007 0.586494 0.348787
0.790007 0.586494 0.348787
0.236135 0.490940 0.236135
0.236135 0.490940 0.236135
0.236135 0.490940 0.236135
0.236135 0.490940 0.236135
0.256111 0.495473 0.240669
0.278228 0.500493 0.245688
0.300345 0.505513 0.250708
0.322462 0.510532 0.255727
0.344579 0.515552 0.260747
0.366696 0.520572 0.265767
0.388813 0.525591 0.270786
0.410930 0.530611 0.275806
0.433047 0.535630 0.280825
0.455163 0.540650 0.285845
0.477280 0.545670 0.290865
0.499397 0.550689 0.295884
0.521514 0.555709 0.300904
0.543631 0.560728 0.305923
0.565748 0.565748 0.310943
0.587865 0.570768 0.315963
0.609982 0.575787 0.320982
0.632099 0.580807 0.326002
0.654216 0.585826 0.331022
0.676332 0.590846 0.336041
0.698449 0.595866 0.341061
0.720566 0.600885 0.346080
0.742683 0.605905 0.351100
0.764800 0.610924 0.356120
0.786917 0.615944 0.361139
0.806893 0.620478 0.365673
0.806893 0.620478 0.365673
0.806893 0.620478 0.365673
0.806893 0.620478 0.365673
0.253021 0.524923 0.253021
0.253021 0.524923 0.253021
0.253021 0.524923 0.253021
0.253021 0.524923 0.253021
0.272998 0.529457 0.257555
0.295115 0.534477 0.262575
0.317231 0.539496 0.267594
0.339348 0.544516 0.272614
0.361465 0.549535 0.277633
0.383582 0.554555 0.282653
0.405699 0.559575 0.287673
0.427816 0.564594 0.292692
0.449933 0.569614 0.297712
0.472050 0.574633 0.302731
0.494167 0.579653 0.307751
0.516284 0.584673 0.312771
0.538400 0.589692 0.317790
0.560517 0.594712 0.322810
0.582634 0.599731 0.327829
0.604751 0.604751 0.332849
0.626868 0.609771 0.337869
0.648985 0.614790 0.342888
0.671102 0.619810 0.347908
0.693219 0.624830 0.352927
0.715336 0.629849 0.357947
0.737452 0.634869 0.362967
0.759569 0.639888 0.367986
0.781686 0.644908 0.373006
0.803803 0.649928 0.378025
0.823780 0.654461 0.382559
0.823780 0.654461 0.382559
0.823780 0.654461 0.382559
0.823780 0.654461 0.382559
0.269907 0.558907 0.269907
0.269907 0.558907 0.269907
0.269907 0.558907 0.269907
0.269907 0.558907 0.269907
0.289884 0.563441 0.274441
0.312001 0.568460 0.279461
0.334118 0.573480 0.284480
0.356235 0.578499 0.289500
0.378351 0.583519 0.294520
0.400468 0.588539 0.299539
0.422585 0.593558 0.304559
0.444702 0.598578 0.309578
0.466819 0.603597 0.314598
0.488936 0.608617 0.319618
0.511053 0.613637 0.324637
0.533170 0.618656 0.329657
0.555287 0.623676 0.334676
0.577404 0.628695 0.339696
0.599520 0.633715 0.344716
0.621637 0.638735 0.349735
0.643754 0.643754 0.354755
0.665871 0.648774 0.359774
0.687988 0.653793 0.364794
0.710105 0.658813 0.369814
0.732222 0.663833 0.374833
0.754339 0.668852 0.379853
0.776456 0.673872 0.384872
0.798573 0.678891 0.389892
0.820689 0.683911 0.394912
0.840666 0.688445 0.399445
0.840666 0.688445 0.399445
0.840666 0.688445 0.399445
0.840666 0.688445 0.399445
0.286794 0.592890 0.286794
0.286794 0.592890 0.286794
0.286794 0.592890 0.286794
0.286794 0.592890 0.286794
0.306770 0.597424 0.291327
0.328887 0.602444 0.296347
0.351004 0.607463 0.301367
0.373121 0.612483 0.306386
0.395238 0.617503 0.311406
0.417355 0.622522 0.316425
0.439472 0.627542 0.321445
0.461588 0.632561 0.326465
0.483705 0.637581 0.331484
0.505822 0.642601 0.336504
0.527939 0.647620 0.341523
0.550056 0.652640 0.346543
0.572173 0.657659 0.351563
0.594290 0.662679 0.356582
0.616407 0.667699 0.361602
0.638524 0.672718 0.366621
0.660641 0.677738 0.371641
0.682757 0.682757 0.376661
0.704874 0.687777 0.381680
0.726991 0.692797 0.386700
0.749108 0.697816 0.391720
0.771225 0.702836 0.396739
0.793342 0.707855 0.401759
0.815459 0.712875 0.406778
0.837576 0.717895 0.411798
0.857552 0.722428 0.416332
0.857552 0.722428 0.416332
0.857552 0.722428 0.416332
0.857552 0.722428 0.416332
0.303680 0.626874 0.303680
0.303680 0.626874 0.303680
0.303680 0.626874 0.303680
0.303680 0.626874 0.303680
0.323656 0.631408 0.308214
0.345773 0.636427 0.313233
0.367890 0.641447 0.318253
0.390007 0.646467 0.323273
0.412124 0.651486 0.328292
0.434241 0.656506 0.333312
0.456358 0.661525 0.338331
0.478475 0.666545 0.343351
0.500592 0.671565 0.348371
0.522709 0.676584 0.353390
0.544825 0.681604 0.358410
0.566942 0.686623 0.363429
0.589059 0.691643 0.368449
0.611176 0.696663 0.373469
0.633293 0.701682 0.378488
0.655410 0.706702 0.383508
0.677527 0.711721 0.388527
0.699644 0.716741 0.393547
0.721761 0.721761 0.398567
0.743877 0.726780 0.403586
0.765994 0.731800 0.408606
0.788111 0.736819 0.413625
0.810228 0.741839 0.418645
0.832345 0.746859 0.423665
0.854462 0.751878 0.428684
0.874439 0.756412 0.433218
0.874439 0.756412 0.433218
0.874439 0.756412 0.433218
0.874439 0.756412 0.433218
0.320566 0.660857 0.320566
0.320566 0.660857 0.320566
0.320566 0.660857 0.320566
0.320566 0.660857 0.320566
0.340543 0.665391 0.325100
0.362660 0.670411 0.330120
0.384776 0.675430 0.335139
0.406893 0.680450 0.340159
0.429010 0.685470 0.345178
0.451127 0.690489 0.350198
0.473244 0.695509 0.355218
0.495361 0.700529 0.360237
0.517478 0.705548 0.365257
0.539595 0.710568 0.370276
0.561712 0.715587 0.375296
0.583829 0.720607 0.380316
0.605945 0.725627 0.385335
0.628062 0.730646 0.390355
0.650179 0.735666 0.395374
0.672296 0.740685 0.400394
0.694413 0.745705 0.405414
0.716530 0.750725 0.410433
0.738647 0.755744 0.415453
0.760764 0.760764 0.420472
0.782881 0.765783 0.425492
0.804998 0.770803 0.430512
0.827114 0.775823 0.435531
0.849231 0.780842 0.440551
0.871348 0.785862 0.445570
0.891325 0.790396 0.450104
0.891325 0.790396 0.450104
0.891325 0.790396 0.450104
0.891325 0.790396 0.450104
0.337452 0.694841 0.337452
0.337452 0.694841 0.337452
0.337452 0.694841 0.337452
0.337452 0.694841 0.337452
0.357429 0.699375 0.341986
0.379546 0.704394 0.347006
0.401663 0.709414 0.352025
0.423780 0.714434 0.357045
0.445897 0.719453 0.362065
0.468013 0.724473 0.367084
0.490130 0.729492 0.372104
0.512247 0.734512 0.377123
0.534364 0.739532 0.382143
0.556481 0.744551 0.387163
0.578598 0.749571 0.392182
0.600715 0.754590 0.397202
0.622832 0.759610 0.402221
0.644949 0.764630 0.407241
0.667066 0.769649 0.412261
0.689182 0.774669 0.417280
0.711299 0.779688 0.422300
0.733416 0.784708 0.427319
0.755533 0.789728 0.432339
0.777650 0.794747 0.437359
0.799767 0.799767 0.442378
0.821884 0.804787 0.447398
0.844001 0.809806 0.452418
0.866118 0.814826 0.457437
0.888234 0.819845 0.462457
0.908211 0.824379 0.466991
0.908211 0.824379 0.466991
0.908211 0.824379 0.466991
0.908211 0.824379 0.466991
0.354339 0.728825 0.354339
0.354339 0.728825 0.354339
0.354339 0.728825 0.354339
0.354339 0.728825 0.354339
0.374315 0.733358 0.358873
0.396432 0.738378 0.363892
0.418549 0.743398 0.368912
0.440666 0.748417 0.373931
0.462783 0.753437 0.378951
0.484900 0.758456 0.383971
0.507017 0.763476 0.388990
0.529134 0.768496 0.394010
0.551250 0.773515 0.399029
0.573367 0.778535 0.404049
0.595484 0.783554 0.409069
0.617601 0.788574 0.414088
0.639718 0.793594 0.419108
0.661835 0.798613 0.424127
0.683952 0.803633 0.429147
0.706069 0.808652 0.434167
0.728186 0.813672 0.439186
0.750302 0.818692 0.444206
0.772419 0.823711 0.449225
0.794536 0.828731 0.454245
0.816653 0.833750 0.459265
0.838770 0.838770 0.464284
0.860887 0.843790 0.469304
0.883004 0.848809 0.474323
0.905121 0.853829 0.479343
0.925097 0.858363 0.483877
0.925097 0.858363 0.483877
0.925097 0.858363 0.483877
0.925097 0.858363 0.483877
0.371225 0.762808 0.371225
0.371225 0.762808 0.371225
0.371225 0.762808 0.371225
0.371225 0.762808 0.371225
0.391201 0.767342 0.375759
0.413318 0.772362 0.380778
0.435435 0.777381 0.385798
0.457552 0.782401 0.390818
0.479669 0.787420 0.395837
0.501786 0.792440 0.400857
0.523903 0.797460 0.405876
0.546020 0.802479 0.410896
0.568137 0.807499 0.415916
0.590254 0.812518 0.420935
0.612370 0.817538 0.425955
0.634487 0.822558 0.430974
0.656604 0.827577 0.435994
0.678721 0.832597 0.441014
0.700838 0.837616 0.446033
0.722955 0.842636 0.451053
0.745072 0.847656 0.456072
0.767189 0.852675 0.461092
0.789306 0.857695 0.466112
0.811423 0.862714 0.471131
0.833539 0.867734 0.476151
0.855656 0.872754 0.481170
0.877773 0.877773 0.486190
0.899890 0.882793 0.491210
