presets/luts/silver-retain/silver-retain.cube
# akari-video catalog LUT: silver-retain
LUT_3D_SIZE 5
0.000000 0.000000 0.000000
0.092919 0.009087 0.009087
0.269854 0.049244 0.049244
0.446789 0.089401 0.089401
0.555234 0.114013 0.114013
0.067272 0.151104 0.067272
0.175716 0.175716 0.091884
0.352651 0.215873 0.132041
0.529587 0.256030 0.172198
0.638031 0.280642 0.196810
0.202362 0.422973 0.202362
0.310806 0.447585 0.226975
0.487742 0.487742 0.267131
0.664677 0.527898 0.307288
0.773121 0.552511 0.331900
0.337452 0.694841 0.337452
0.445897 0.719453 0.362065
0.622832 0.759610 0.402221
0.799767 0.799767 0.442378
0.908211 0.824379 0.466991
0.420250 0.861470 0.420250
0.528694 0.886082 0.444862
0.705629 0.926239 0.485019
0.882564 0.966396 0.525175
0.991008 0.991008 0.549788
0.000000 0.000000 0.076665
0.101278 0.017446 0.101278
0.278213 0.057603 0.141434
0.455148 0.097759 0.181591
0.563592 0.122372 0.206203
0.075631 0.159463 0.159463
0.184075 0.184075 0.184075
0.361010 0.224232 0.224232
0.537945 0.264388 0.264388
0.646389 0.289001 0.289001
0.210721 0.431331 0.294553
0.319165 0.455943 0.319165
0.496100 0.496100 0.359322
0.673035 0.536257 0.399479
0.781479 0.560869 0.424091
0.345811 0.703199 0.429643
0.454255 0.727812 0.454255
0.631190 0.767969 0.494412
0.808125 0.808125 0.534569
0.916569 0.832738 0.559181
0.428608 0.869829 0.512440
0.537052 0.894441 0.537052
0.713987 0.934598 0.577209
0.890923 0.974754 0.617366
0.999367 0.999367 0.641978
0.006471 0.006471 0.227081
0.114915 0.031083 0.251693
0.291850 0.071240 0.291850
0.468785 0.111397 0.332007
0.577230 0.136009 0.356619
0.089268 0.173100 0.309878
0.197712 0.197712 0.334491
0.374647 0.237869 0.374647
0.551583 0.278026 0.414804
0.660027 0.302638 0.439416
0.224358 0.444968 0.444968
0.332802 0.469581 0.469581
0.509737 0.509737 0.509737
0.686673 0.549894 0.549894
0.795117 0.574507 0.574507
0.359448 0.716837 0.580059
0.467892 0.741449 0.604671
0.644828 0.781606 0.644828
0.821763 0.821763 0.684984
0.930207 0.846375 0.709597
0.442245 0.883466 0.662856
0.550690 0.908078 0.687468
0.727625 0.948235 0.727625
0.904560 0.988392 0.767782
1.000000 1.000000 0.792394
0.020108 0.020108 0.377497
0.128552 0.044721 0.402109
0.305488 0.084877 0.442266
0.482423 0.125034 0.482423
0.590867 0.149646 0.507035
0.102906 0.186737 0.460294
0.211350 0.211350 0.484906
0.388285 0.251506 0.525063
0.565220 0.291663 0.565220
0.673664 0.316276 0.589832
0.237996 0.458606 0.595384
0.346440 0.483218 0.619996
0.523375 0.523375 0.660153
0.700310 0.563532 0.700310
0.808754 0.588144 0.724922
0.373086 0.730474 0.730474
0.481530 0.755087 0.755087
0.658465 0.795243 0.795243
0.835400 0.835400 0.835400
0.943844 0.860012 0.860012
0.455883 0.897103 0.813272
0.564327 0.921716 0.837884
0.741262 0.961872 0.878041
0.918197 1.000000 0.918197
1.000000 1.000000 0.942810
0.028467 0.028467 0.469687
0.136911 0.053079 0.494300
0.313846 0.093236 0.534456
0.490781 0.133393 0.574613
0.599225 0.158005 0.599225
0.111264 0.195096 0.552484
0.219708 0.219708 0.577097
0.396643 0.259865 0.617254
0.573578 0.300022 0.657410
0.682023 0.324634 0.682023
0.246354 0.466964 0.687575
0.354798 0.491577 0.712187
0.531733 0.531733 0.752344
0.708669 0.571890 0.792500
0.817113 0.596502 0.817113
0.381444 0.738833 0.822665
0.489888 0.763445 0.847277
0.666824 0.803602 0.887434
0.843759 0.843759 0.927591
0.952203 0.868371 0.952203
0.464241 0.905462 0.905462
0.572686 0.930074 0.930074
0.749621 0.970231 0.970231
0.926556 1.000000 1.000000
1.000000 1.000000 1.000000
