presets/luts/silver-retain/silver-retain.cube
# akari-video catalog LUT: silver-retain
LUT_3D_SIZE 9
0.000000 0.000000 0.000000
0.004452 0.000000 0.000000
0.092919 0.009087 0.009087
0.181387 0.029166 0.029166
0.269854 0.049244 0.049244
0.358322 0.069322 0.069322
0.446789 0.089401 0.089401
0.535257 0.109479 0.109479
0.555234 0.114013 0.114013
0.000000 0.015170 0.000000
0.019704 0.019704 0.004261
0.108171 0.039782 0.024339
0.196639 0.059860 0.044418
0.285106 0.079939 0.064496
0.373574 0.100017 0.084575
0.462042 0.120096 0.104653
0.550509 0.140174 0.124731
0.570486 0.144708 0.129265
0.067272 0.151104 0.067272
0.087249 0.155638 0.071806
0.175716 0.175716 0.091884
0.264184 0.195795 0.111963
0.352651 0.215873 0.132041
0.441119 0.235952 0.152120
0.529587 0.256030 0.172198
0.618054 0.276108 0.192276
0.638031 0.280642 0.196810
0.134817 0.287038 0.134817
0.154794 0.291572 0.139351
0.243261 0.311651 0.159429
0.331729 0.331729 0.179508
0.420197 0.351807 0.199586
0.508664 0.371886 0.219665
0.597132 0.391964 0.239743
0.685599 0.412043 0.259822
0.705576 0.416576 0.264355
0.202362 0.422973 0.202362
0.222339 0.427506 0.206896
0.310806 0.447585 0.226975
0.399274 0.467663 0.247053
0.487742 0.487742 0.267131
0.576209 0.507820 0.287210
0.664677 0.527898 0.307288
0.753144 0.547977 0.327367
0.773121 0.552511 0.331900
0.269907 0.558907 0.269907
0.289884 0.563441 0.274441
0.378351 0.583519 0.294520
0.466819 0.603597 0.314598
0.555287 0.623676 0.334676
0.643754 0.643754 0.354755
0.732222 0.663833 0.374833
0.820689 0.683911 0.394912
0.840666 0.688445 0.399445
0.337452 0.694841 0.337452
0.357429 0.699375 0.341986
0.445897 0.719453 0.362065
0.534364 0.739532 0.382143
0.622832 0.759610 0.402221
0.711299 0.779688 0.422300
0.799767 0.799767 0.442378
0.888234 0.819845 0.462457
0.908211 0.824379 0.466991
0.404997 0.830775 0.404997
0.424974 0.835309 0.409531
0.513442 0.855387 0.429610
0.601909 0.875466 0.449688
0.690377 0.895544 0.469767
0.778844 0.915623 0.489845
0.867312 0.935701 0.509923
0.955780 0.955780 0.530002
0.975756 0.960313 0.534536
0.420250 0.861470 0.420250
0.440226 0.866004 0.424783
0.528694 0.886082 0.444862
0.617161 0.906161 0.464940
0.705629 0.926239 0.485019
0.794096 0.946318 0.505097
0.882564 0.966396 0.525175
0.971032 0.986474 0.545254
0.991008 0.991008 0.549788
0.000000 0.000000 0.001457
0.005991 0.000000 0.005991
0.094459 0.010627 0.026070
0.182926 0.030705 0.046148
0.271394 0.050784 0.066226
0.359862 0.070862 0.086305
0.448329 0.090941 0.106383
0.536797 0.111019 0.126462
0.556773 0.115553 0.130996
0.001267 0.016710 0.016710
0.021243 0.021243 0.021243
0.109711 0.041322 0.041322
0.198179 0.061400 0.061400
0.286646 0.081479 0.081479
0.375114 0.101557 0.101557
0.463581 0.121635 0.121635
0.552049 0.141714 0.141714
0.572025 0.146248 0.146248
0.068812 0.152644 0.084255
0.088788 0.157178 0.088788
0.177256 0.177256 0.108867
0.265724 0.197334 0.128945
0.354191 0.217413 0.149024
0.442659 0.237491 0.169102
0.531126 0.257570 0.189180
0.619594 0.277648 0.209259
0.639571 0.282182 0.213793
0.136357 0.288578 0.151800
0.156333 0.293112 0.156333
0.244801 0.313190 0.176412
0.333269 0.333269 0.196490
0.421736 0.353347 0.216569
0.510204 0.373425 0.236647
0.598671 0.393504 0.256726
0.687139 0.413582 0.276804
0.707116 0.418116 0.281338
0.203902 0.424512 0.219345
0.223879 0.429046 0.223879
0.312346 0.449124 0.243957
0.400814 0.469203 0.264035
0.489281 0.489281 0.284114
0.577749 0.509360 0.304192
0.666216 0.529438 0.324271
0.754684 0.549517 0.344349
0.774661 0.554050 0.348883
0.271447 0.560446 0.286890
0.291424 0.564980 0.291424
0.379891 0.585059 0.311502
0.468359 0.605137 0.331580
0.556826 0.625216 0.351659
0.645294 0.645294 0.371737
0.733762 0.665372 0.391816
0.822229 0.685451 0.411894
0.842206 0.689985 0.416428
0.338992 0.696381 0.354435
0.358969 0.700915 0.358969
0.447436 0.720993 0.379047
0.535904 0.741071 0.399125
0.624371 0.761150 0.419204
0.712839 0.781228 0.439282
0.801307 0.801307 0.459361
0.889774 0.821385 0.479439
0.909751 0.825919 0.483973
0.406537 0.832315 0.421980
0.426514 0.836849 0.426514
0.514981 0.856927 0.446592
0.603449 0.877006 0.466671
0.691916 0.897084 0.486749
0.780384 0.917162 0.506827
0.868852 0.937241 0.526906
0.957319 0.957319 0.546984
0.977296 0.961853 0.551518
0.421789 0.863010 0.437232
0.441766 0.867544 0.441766
0.530233 0.887622 0.461844
0.618701 0.907700 0.481923
0.707169 0.927779 0.502001
0.795636 0.947857 0.522079
0.884104 0.967936 0.542158
0.972571 0.988014 0.562236
0.992548 0.992548 0.566770
0.000000 0.000000 0.076665
0.012810 0.000000 0.081199
0.101278 0.017446 0.101278
0.189745 0.037524 0.121356
0.278213 0.057603 0.141434
0.366680 0.077681 0.161513
0.455148 0.097759 0.181591
0.543616 0.117838 0.201670
0.563592 0.122372 0.206203
0.008086 0.023528 0.091917
0.028062 0.028062 0.096451
0.116530 0.048141 0.116530
0.204997 0.068219 0.136608
0.293465 0.088297 0.156687
0.381932 0.108376 0.176765
0.470400 0.128454 0.196843
0.558868 0.148533 0.216922
0.578844 0.153066 0.221456
0.075631 0.159463 0.159463
0.095607 0.163996 0.163996
0.184075 0.184075 0.184075
0.272542 0.204153 0.204153
0.361010 0.224232 0.224232
0.449478 0.244310 0.244310
0.537945 0.264388 0.264388
0.626413 0.284467 0.284467
0.646389 0.289001 0.289001
0.143176 0.295397 0.227008
0.163152 0.299931 0.231541
0.251620 0.320009 0.251620
0.340087 0.340087 0.271698
0.428555 0.360166 0.291777
0.517023 0.380244 0.311855
0.605490 0.400323 0.331933
0.693958 0.420401 0.352012
0.713934 0.424935 0.356546
0.210721 0.431331 0.294553
0.230697 0.435865 0.299086
0.319165 0.455943 0.319165
0.407632 0.476022 0.339243
0.496100 0.496100 0.359322
0.584568 0.516178 0.379400
0.673035 0.536257 0.399479
0.761503 0.556335 0.419557
0.781479 0.560869 0.424091
0.278266 0.567265 0.362098
0.298242 0.571799 0.366632
0.386710 0.591877 0.386710
0.475178 0.611956 0.406788
0.563645 0.632034 0.426867
0.652113 0.652113 0.446945
0.740580 0.672191 0.467024
0.829048 0.692270 0.487102
0.849024 0.696803 0.491636
0.345811 0.703199 0.429643
0.365787 0.707733 0.434177
0.454255 0.727812 0.454255
0.542723 0.747890 0.474333
0.631190 0.767969 0.494412
0.719658 0.788047 0.514490
0.808125 0.808125 0.534569
0.896593 0.828204 0.554647
0.916569 0.832738 0.559181
0.413356 0.839134 0.497188
0.433332 0.843668 0.501722
0.521800 0.863746 0.521800
0.610268 0.883824 0.541878
0.698735 0.903903 0.561957
0.787203 0.923981 0.582035
0.875670 0.944060 0.602114
0.964138 0.964138 0.622192
0.984115 0.968672 0.626726
0.428608 0.869829 0.512440
0.448585 0.874362 0.516974
0.537052 0.894441 0.537052
0.625520 0.914519 0.557131
0.713987 0.934598 0.577209
0.802455 0.954676 0.597287
0.890923 0.974754 0.617366
0.979390 0.994833 0.637444
0.999367 0.999367 0.641978
0.000000 0.000000 0.151873
0.019629 0.004186 0.156407
0.108096 0.024264 0.176485
0.196564 0.044343 0.196564
0.285031 0.064421 0.216642
0.373499 0.084500 0.236721
0.461967 0.104578 0.256799
0.550434 0.124656 0.276878
0.570411 0.129190 0.281411
0.014904 0.030347 0.167125
0.034881 0.034881 0.171659
0.123348 0.054959 0.191738
0.211816 0.075038 0.211816
0.300284 0.095116 0.231894
0.388751 0.115194 0.251973
0.477219 0.135273 0.272051
0.565686 0.155351 0.292130
0.585663 0.159885 0.296663
0.082449 0.166281 0.234670
0.102426 0.170815 0.239204
0.190893 0.190893 0.259283
0.279361 0.210972 0.279361
0.367829 0.231050 0.299439
0.456296 0.251129 0.319518
0.544764 0.271207 0.339596
0.633231 0.291286 0.359675
0.653208 0.295819 0.364209
0.149994 0.302215 0.302215
0.169971 0.306749 0.306749
0.258439 0.326828 0.326828
0.346906 0.346906 0.346906
0.435374 0.366985 0.366985
0.523841 0.387063 0.387063
0.612309 0.407141 0.407141
0.700776 0.427220 0.427220
0.720753 0.431754 0.431754
0.217539 0.438150 0.369761
0.237516 0.442684 0.374294
0.325984 0.462762 0.394373
0.414451 0.482840 0.414451
0.502919 0.502919 0.434530
0.591386 0.522997 0.454608
0.679854 0.543076 0.474686
0.768322 0.563154 0.494765
0.788298 0.567688 0.499299
0.285085 0.574084 0.437306
0.305061 0.578618 0.441839
0.393529 0.598696 0.461918
0.481996 0.618775 0.481996
0.570464 0.638853 0.502075
0.658931 0.658931 0.522153
0.747399 0.679010 0.542231
0.835867 0.699088 0.562310
0.855843 0.703622 0.566844
0.352630 0.710018 0.504851
0.372606 0.714552 0.509384
0.461074 0.734630 0.529463
0.549541 0.754709 0.549541
0.638009 0.774787 0.569620
0.726476 0.794866 0.589698
0.814944 0.814944 0.609777
0.903412 0.835022 0.629855
0.923388 0.839556 0.634389
0.420175 0.845952 0.572396
0.440151 0.850486 0.576930
0.528619 0.870565 0.597008
0.617086 0.890643 0.617086
0.705554 0.910721 0.637165
0.794022 0.930800 0.657243
0.882489 0.950878 0.677322
0.970957 0.970957 0.697400
0.990933 0.975491 0.701934
0.435427 0.876647 0.587648
0.455403 0.881181 0.592182
0.543871 0.901259 0.612260
0.632338 0.921338 0.632338
0.720806 0.941416 0.652417
0.809274 0.961495 0.672495
0.897741 0.981573 0.692574
0.986209 1.000000 0.712652
1.000000 1.000000 0.717186
0.006471 0.006471 0.227081
0.026447 0.011005 0.231615
0.114915 0.031083 0.251693
0.203383 0.051162 0.271772
0.291850 0.071240 0.291850
0.380318 0.091318 0.311929
0.468785 0.111397 0.332007
0.557253 0.131475 0.352085
0.577230 0.136009 0.356619
0.021723 0.037166 0.242333
0.041700 0.041700 0.246867
0.130167 0.061778 0.266945
0.218635 0.081856 0.287024
0.307102 0.101935 0.307102
0.395570 0.122013 0.327181
0.484037 0.142092 0.347259
0.572505 0.162170 0.367338
0.592482 0.166704 0.371871
0.089268 0.173100 0.309878
0.109245 0.177634 0.314412
0.197712 0.197712 0.334491
0.286180 0.217791 0.354569
0.374647 0.237869 0.374647
0.463115 0.257947 0.394726
0.551583 0.278026 0.414804
0.640050 0.298104 0.434883
0.660027 0.302638 0.439416
0.156813 0.309034 0.377423
0.176790 0.313568 0.381957
0.265257 0.333646 0.402036
0.353725 0.353725 0.422114
0.442192 0.373803 0.442192
0.530660 0.393882 0.462271
0.619128 0.413960 0.482349
0.707595 0.434038 0.502428
0.727572 0.438572 0.506962
0.224358 0.444968 0.444968
0.244335 0.449502 0.449502
0.332802 0.469581 0.469581
0.421270 0.489659 0.489659
0.509737 0.509737 0.509737
0.598205 0.529816 0.529816
0.686673 0.549894 0.549894
0.775140 0.569973 0.569973
0.795117 0.574507 0.574507
0.291903 0.580903 0.512513
0.311880 0.585437 0.517047
0.400347 0.605515 0.537126
0.488815 0.625593 0.557204
0.577283 0.645672 0.577283
0.665750 0.665750 0.597361
0.754218 0.685829 0.617439
0.842685 0.705907 0.637518
0.862662 0.710441 0.642052
0.359448 0.716837 0.580059
0.379425 0.721371 0.584592
0.467892 0.741449 0.604671
0.556360 0.761528 0.624749
0.644828 0.781606 0.644828
0.733295 0.801684 0.664906
0.821763 0.821763 0.684984
0.910230 0.841841 0.705063
0.930207 0.846375 0.709597
0.426993 0.852771 0.647604
0.446970 0.857305 0.652137
0.535438 0.877383 0.672216
0.623905 0.897462 0.692294
0.712373 0.917540 0.712373
0.800840 0.937619 0.732451
0.889308 0.957697 0.752530
0.977775 0.977775 0.772608
0.997752 0.982309 0.777142
0.442245 0.883466 0.662856
0.462222 0.888000 0.667390
0.550690 0.908078 0.687468
0.639157 0.928157 0.707546
0.727625 0.948235 0.727625
0.816092 0.968313 0.747703
0.904560 0.988392 0.767782
0.993028 1.000000 0.787860
1.000000 1.000000 0.792394
0.013290 0.013290 0.302289
0.033266 0.017823 0.306823
0.121734 0.037902 0.326901
0.210201 0.057980 0.346980
0.298669 0.078059 0.367058
0.387137 0.098137 0.387137
0.475604 0.118216 0.407215
0.564072 0.138294 0.427293
0.584048 0.142828 0.431827
0.028542 0.043984 0.317541
0.048518 0.048518 0.322075
0.136986 0.068597 0.342153
0.225453 0.088675 0.362232
0.313921 0.108754 0.382310
0.402389 0.128832 0.402389
0.490856 0.148910 0.422467
0.579324 0.168989 0.442545
0.599300 0.173523 0.447079
0.096087 0.179919 0.385086
0.116063 0.184453 0.389620
0.204531 0.204531 0.409698
0.292999 0.224609 0.429777
0.381466 0.244688 0.449855
0.469934 0.264766 0.469934
0.558401 0.284845 0.490012
0.646869 0.304923 0.510091
0.666845 0.309457 0.514624
0.163632 0.315853 0.452631
0.183608 0.320387 0.457165
0.272076 0.340465 0.477244
0.360544 0.360544 0.497322
0.449011 0.380622 0.517400
0.537479 0.400700 0.537479
0.625946 0.420779 0.557557
0.714414 0.440857 0.577636
0.734390 0.445391 0.582169
0.231177 0.451787 0.520176
0.251153 0.456321 0.524710
0.339621 0.476399 0.544789
0.428089 0.496478 0.564867
0.516556 0.516556 0.584945
0.605024 0.536635 0.605024
0.693491 0.556713 0.625102
0.781959 0.576791 0.645181
0.801936 0.581325 0.649714
0.298722 0.587721 0.587721
0.318699 0.592255 0.592255
0.407166 0.612334 0.612334
0.495634 0.632412 0.632412
0.584101 0.652490 0.652490
0.672569 0.672569 0.672569
0.761036 0.692647 0.692647
0.849504 0.712726 0.712726
0.869481 0.717260 0.717260
0.366267 0.723656 0.655266
0.386244 0.728189 0.659800
0.474711 0.748268 0.679879
0.563179 0.768346 0.699957
0.651646 0.788425 0.720036
0.740114 0.808503 0.740114
0.828582 0.828582 0.760192
0.917049 0.848660 0.780271
0.937026 0.853194 0.784805
0.433812 0.859590 0.722812
0.453789 0.864124 0.727345
0.542256 0.884202 0.747424
0.630724 0.904281 0.767502
0.719191 0.924359 0.787581
0.807659 0.944437 0.807659
0.896127 0.964516 0.827737
0.984594 0.984594 0.847816
1.000000 0.989128 0.852350
0.449064 0.890285 0.738064
0.469041 0.894819 0.742597
0.557508 0.914897 0.762676
0.645976 0.934975 0.782754
0.734444 0.955054 0.802833
0.822911 0.975132 0.822911
0.911379 0.995211 0.842990
0.999846 1.000000 0.863068
1.000000 1.000000 0.867602
0.020108 0.020108 0.377497
0.040085 0.024642 0.382031
0.128552 0.044721 0.402109
0.217020 0.064799 0.422188
0.305488 0.084877 0.442266
0.393955 0.104956 0.462344
0.482423 0.125034 0.482423
0.570890 0.145113 0.502501
0.590867 0.149646 0.507035
0.035360 0.050803 0.392749
0.055337 0.055337 0.397283
0.143805 0.075415 0.417361
0.232272 0.095494 0.437440
0.320740 0.115572 0.457518
0.409207 0.135651 0.477597
0.497675 0.155729 0.497675
0.586143 0.175807 0.517753
0.606119 0.180341 0.522287
0.102906 0.186737 0.460294
0.122882 0.191271 0.464828
0.211350 0.211350 0.484906
0.299817 0.231428 0.504985
0.388285 0.251506 0.525063
0.476752 0.271585 0.545142
0.565220 0.291663 0.565220
0.653688 0.311742 0.585298
0.673664 0.316276 0.589832
0.170451 0.322672 0.527839
0.190427 0.327205 0.532373
0.278895 0.347284 0.552451
0.367362 0.367362 0.572530
0.455830 0.387441 0.592608
0.544297 0.407519 0.612687
0.632765 0.427598 0.632765
0.721233 0.447676 0.652843
0.741209 0.452210 0.657377
0.237996 0.458606 0.595384
0.257972 0.463140 0.599918
0.346440 0.483218 0.619996
0.434907 0.503297 0.640075
0.523375 0.523375 0.660153
0.611843 0.543453 0.680232
0.700310 0.563532 0.700310
0.788778 0.583610 0.720389
0.808754 0.588144 0.724922
0.305541 0.594540 0.662929
0.325517 0.599074 0.667463
0.413985 0.619152 0.687542
0.502452 0.639231 0.707620
0.590920 0.659309 0.727698
0.679388 0.679388 0.747777
0.767855 0.699466 0.767855
0.856323 0.719544 0.787934
0.876299 0.724078 0.792467
0.373086 0.730474 0.730474
0.393062 0.735008 0.735008
0.481530 0.755087 0.755087
0.569997 0.775165 0.775165
0.658465 0.795243 0.795243
0.746933 0.815322 0.815322
0.835400 0.835400 0.835400
0.923868 0.855479 0.855479
0.943844 0.860012 0.860012
0.440631 0.866409 0.798019
0.460607 0.870942 0.802553
0.549075 0.891021 0.822632
0.637543 0.911099 0.842710
0.726010 0.931178 0.862788
0.814478 0.951256 0.882867
0.902945 0.971334 0.902945
0.991413 0.991413 0.923024
1.000000 0.995947 0.927558
0.455883 0.897103 0.813272
0.475859 0.901637 0.817805
0.564327 0.921716 0.837884
0.652795 0.941794 0.857962
0.741262 0.961872 0.878041
0.829730 0.981951 0.898119
0.918197 1.000000 0.918197
1.000000 1.000000 0.938276
1.000000 1.000000 0.942810
0.026927 0.026927 0.452705
0.046904 0.031461 0.457239
0.135371 0.051539 0.477317
0.223839 0.071618 0.497396
0.312306 0.091696 0.517474
0.400774 0.111775 0.537552
0.489242 0.131853 0.557631
0.577709 0.151931 0.577709
0.597686 0.156465 0.582243
0.042179 0.057622 0.467957
0.062156 0.062156 0.472491
0.150623 0.082234 0.492569
0.239091 0.102313 0.512648
0.327559 0.122391 0.532726
0.416026 0.142469 0.552804
0.504494 0.162548 0.572883
0.592961 0.182626 0.592961
0.612938 0.187160 0.597495
0.109724 0.193556 0.535502
0.129701 0.198090 0.540036
0.218168 0.218168 0.560114
0.306636 0.238247 0.580193
0.395104 0.258325 0.600271
0.483571 0.278404 0.620350
0.572039 0.298482 0.640428
0.660506 0.318560 0.660506
0.680483 0.323094 0.665040
0.177269 0.329490 0.603047
0.197246 0.334024 0.607581
0.285713 0.354103 0.627659
0.374181 0.374181 0.647738
0.462649 0.394259 0.667816
0.551116 0.414338 0.687895
0.639584 0.434416 0.707973
0.728051 0.454495 0.728051
0.748028 0.459029 0.732585
0.244814 0.465425 0.670592
0.264791 0.469958 0.675126
0.353259 0.490037 0.695204
0.441726 0.510115 0.715283
0.530194 0.530194 0.735361
0.618661 0.550272 0.755440
0.707129 0.570351 0.775518
0.795596 0.590429 0.795596
0.815573 0.594963 0.800130
0.312359 0.601359 0.738137
0.332336 0.605893 0.742671
0.420804 0.625971 0.762749
0.509271 0.646050 0.782828
0.597739 0.666128 0.802906
0.686206 0.686206 0.822985
0.774674 0.706285 0.843063
0.863142 0.726363 0.863142
0.883118 0.730897 0.867675
0.379904 0.737293 0.805682
0.399881 0.741827 0.810216
0.488349 0.761905 0.830295
0.576816 0.781984 0.850373
0.665284 0.802062 0.870451
0.753751 0.822141 0.890530
0.842219 0.842219 0.910608
0.930687 0.862297 0.930687
0.950663 0.866831 0.935220
0.447450 0.873227 0.873227
0.467426 0.877761 0.877761
0.555894 0.897840 0.897840
0.644361 0.917918 0.917918
0.732829 0.937996 0.937996
0.821296 0.958075 0.958075
0.909764 0.978153 0.978153
0.998232 0.998232 0.998232
1.000000 1.000000 1.000000
0.462702 0.903922 0.888479
0.482678 0.908456 0.893013
0.571146 0.928534 0.913092
0.659613 0.948613 0.933170
0.748081 0.968691 0.953249
0.836549 0.988770 0.973327
0.925016 1.000000 0.993405
1.000000 1.000000 1.000000
1.000000 1.000000 1.000000
0.028467 0.028467 0.469687
0.048443 0.033001 0.474221
0.136911 0.053079 0.494300
0.225379 0.073157 0.514378
0.313846 0.093236 0.534456
0.402314 0.113314 0.554535
0.490781 0.133393 0.574613
0.579249 0.153471 0.594692
0.599225 0.158005 0.599225
0.043719 0.059162 0.484939
0.063695 0.063695 0.489473
0.152163 0.083774 0.509552
0.240631 0.103852 0.529630
0.329098 0.123931 0.549708
0.417566 0.144009 0.569787
0.506033 0.164088 0.589865
0.594501 0.184166 0.609944
0.614478 0.188700 0.614478
0.111264 0.195096 0.552484
0.131241 0.199630 0.557018
0.219708 0.219708 0.577097
0.308176 0.239787 0.597175
0.396643 0.259865 0.617254
0.485111 0.279943 0.637332
0.573578 0.300022 0.657410
0.662046 0.320100 0.677489
0.682023 0.324634 0.682023
0.178809 0.331030 0.620030
0.198786 0.335564 0.624563
0.287253 0.355642 0.644642
0.375721 0.375721 0.664720
0.464188 0.395799 0.684799
0.552656 0.415878 0.704877
0.641124 0.435956 0.724955
0.729591 0.456034 0.745034
0.749568 0.460568 0.749568
0.246354 0.466964 0.687575
0.266331 0.471498 0.692108
0.354798 0.491577 0.712187
0.443266 0.511655 0.732265
0.531733 0.531733 0.752344
0.620201 0.551812 0.772422
0.708669 0.571890 0.792500
0.797136 0.591969 0.812579
0.817113 0.596502 0.817113
0.313899 0.602899 0.755120
0.333876 0.607432 0.759653
0.422343 0.627511 0.779732
0.510811 0.647589 0.799810
0.599278 0.667668 0.819889
0.687746 0.687746 0.839967
0.776214 0.707824 0.860046
0.864681 0.727903 0.880124
0.884658 0.732437 0.884658
0.381444 0.738833 0.822665
0.401421 0.743367 0.827199
0.489888 0.763445 0.847277
0.578356 0.783523 0.867355
0.666824 0.803602 0.887434
0.755291 0.823680 0.907512
0.843759 0.843759 0.927591
0.932226 0.863837 0.947669
0.952203 0.868371 0.952203
0.448989 0.874767 0.890210
0.468966 0.879301 0.894744
0.557433 0.899379 0.914822
0.645901 0.919458 0.934900
0.734369 0.939536 0.954979
0.822836 0.959615 0.975057
0.911304 0.979693 0.995136
0.999771 0.999771 1.000000
1.000000 1.000000 1.000000
0.464241 0.905462 0.905462
0.484218 0.909996 0.909996
0.572686 0.930074 0.930074
0.661153 0.950153 0.950153
0.749621 0.970231 0.970231
0.838088 0.990309 0.990309
0.926556 1.000000 1.000000
1.000000 1.000000 1.000000
1.000000 1.000000 1.000000
